; generated by Slic3r Prusa Edition 1.41.0+win64 on 2019-06-08 at 10:37:35

; 

; external perimeters extrusion width = 0.45mm
; perimeters extrusion width = 0.45mm
; infill extrusion width = 0.45mm
; solid infill extrusion width = 0.45mm
; top infill extrusion width = 0.40mm

M107
M80 ; turn on PSU
M190 S50
M104 S190 ; start E heating
M17; enable motors
G28 X Y Z ; Home
G29 ; Autolevel
M109 S190
G90
G0 X0 Y0 F5000
G0 Z0 F5000
G91
G1 E8 F200
G90
; Filament gcode
G21 ; set units to millimeters
G90 ; use absolute coordinates
M82 ; use absolute distances for extrusion
G92 E0
G1 Z0.150 F4200.000
G1 E-1.00000 F3000.00000
G92 E0
G1 X163.125 Y138.056 F4200.000
G1 E1.00000 F3000.00000
G1 F720
G1 X163.893 Y137.175 E1.02740
G1 X183.063 Y120.632 E1.62118
G1 X183.755 Y120.194 E1.64039
G1 X184.491 Y119.846 E1.65947
G1 X186.054 Y119.434 E1.69739
G1 X186.899 Y119.374 E1.71725
G1 X192.058 Y119.373 E1.83824
G1 X193.656 Y119.570 E1.87598
G1 X213.586 Y124.692 E2.35854
G1 X214.651 Y125.142 E2.38564
G1 X215.548 Y125.714 E2.41060
G1 X216.400 Y126.482 E2.43749
G1 X217.122 Y127.412 E2.46509
G1 X217.549 Y128.185 E2.48581
G1 X217.874 Y129.026 E2.50694
G1 X218.077 Y129.873 E2.52738
G1 X218.170 Y130.845 E2.55027
G1 X218.126 Y159.789 E3.22901
G1 X217.960 Y160.675 E3.25016
G1 X217.665 Y161.551 E3.27184
G1 X217.206 Y162.453 E3.29556
G1 X216.678 Y163.199 E3.31700
G1 X216.069 Y163.849 E3.33788
G1 X215.353 Y164.429 E3.35949
G1 X214.489 Y164.941 E3.38303
G1 X213.652 Y165.286 E3.40428
G1 X193.300 Y170.508 E3.89699
G1 X192.101 Y170.626 E3.92524
G1 X186.169 Y170.581 E4.06435
G1 X185.282 Y170.414 E4.08551
G1 X184.417 Y170.124 E4.10692
G1 X183.513 Y169.666 E4.13069
G1 X182.778 Y169.149 E4.15174
G1 X164.178 Y153.083 E4.72811
G1 X163.377 Y152.268 E4.75491
G1 X162.861 Y151.552 E4.77560
G1 X162.428 Y150.738 E4.79722
G1 X162.090 Y149.795 E4.82071
G1 X161.907 Y148.896 E4.84224
G1 X161.849 Y148.029 E4.86260
G1 X161.896 Y141.193 E5.02291
G1 X162.138 Y140.039 E5.05056
G1 X162.527 Y139.050 E5.07548
G1 X163.094 Y138.107 E5.10130
G1 F3360
G1 X163.823 Y137.257 E4.15130
G1 E4.10130 F3000.00000
G92 E0
G1 X162.311 Y141.237 F4200.000
G1 E1.00000 F3000.00000
G1 F720
G1 X162.539 Y140.157 E1.02588
G1 X162.903 Y139.231 E1.04922
G1 X163.467 Y138.296 E1.07481
G1 X164.194 Y137.465 E1.10070
G1 X183.314 Y120.967 E1.69292
G1 X184.656 Y120.230 E1.72883
G1 X186.136 Y119.844 E1.76468
G1 X192.058 Y119.791 E1.90357
G1 X193.560 Y119.977 E1.93906
G1 X213.444 Y125.086 E2.42049
G1 X214.450 Y125.509 E2.44608
G1 X215.291 Y126.043 E2.46945
G1 X216.095 Y126.768 E2.49484
G1 X216.776 Y127.647 E2.52091
G1 X217.171 Y128.364 E2.54009
G1 X217.476 Y129.152 E2.55992
G1 X217.666 Y129.947 E2.57908
G1 X217.753 Y130.868 E2.60078
G1 X217.711 Y159.745 E3.27795
G1 X217.553 Y160.576 E3.29779
G1 X217.278 Y161.394 E3.31803
G1 X216.844 Y162.243 E3.34039
G1 X216.348 Y162.943 E3.36051
G1 X215.779 Y163.548 E3.37998
G1 X215.106 Y164.091 E3.40026
G1 X214.291 Y164.573 E3.42245
G1 X213.495 Y164.898 E3.44263
G1 X193.225 Y170.097 E3.93334
G1 X192.093 Y170.209 E3.96003
G1 X186.213 Y170.165 E4.09791
G1 X185.386 Y170.009 E4.11765
G1 X184.574 Y169.736 E4.13774
G1 X183.726 Y169.306 E4.16003
G1 X183.033 Y168.818 E4.17990
G1 X164.451 Y152.767 E4.75571
G1 X163.698 Y152.001 E4.78091
G1 X163.214 Y151.329 E4.80033
G1 X162.808 Y150.565 E4.82063
G1 X162.489 Y149.670 E4.84289
G1 X162.318 Y148.815 E4.86334
G1 X162.311 Y141.297 E5.03965
; PURGING FINISHED
G1 F3360
G1 X162.530 Y140.199 E4.08965
G1 E4.03965 F3000.00000
G92 E0
G1 X185.964 Y162.070 F4200.000
G1 E1.00000 F3000.00000
G1 F720
G1 X186.080 Y161.961 E1.00373
G1 X186.306 Y161.807 E1.01016
G1 X186.450 Y161.739 E1.01389
G1 X186.602 Y161.690 E1.01763
G1 X186.873 Y161.647 E1.02406
G1 X192.024 Y161.643 E1.14486
G1 X192.305 Y161.670 E1.15149
G1 X192.549 Y161.740 E1.15744
G1 X192.783 Y161.859 E1.16359
G1 X193.029 Y162.063 E1.17107
G1 X193.191 Y162.271 E1.17726
G1 X193.306 Y162.497 E1.18321
G1 X193.376 Y162.740 E1.18915
G1 X193.403 Y163.023 E1.19581
G1 X193.403 Y163.987 E1.21841
G1 X193.392 Y164.166 E1.22262
G1 X193.334 Y164.423 E1.22880
G1 X193.234 Y164.656 E1.23475
G1 X193.091 Y164.866 E1.24069
G1 X192.912 Y165.045 E1.24664
G1 X192.694 Y165.193 E1.25283
G1 X192.550 Y165.261 E1.25656
G1 X192.398 Y165.310 E1.26030
G1 X192.127 Y165.353 E1.26673
G1 X186.967 Y165.357 E1.38774
G1 X186.611 Y165.314 E1.39614
G1 X186.460 Y165.264 E1.39987
G1 X186.215 Y165.139 E1.40632
G1 X185.964 Y164.930 E1.41399
G1 X185.765 Y164.657 E1.42191
G1 X185.644 Y164.352 E1.42961
G1 X185.601 Y164.081 E1.43605
G1 X185.597 Y163.022 E1.46087
G1 X185.625 Y162.730 E1.46775
G1 X185.723 Y162.428 E1.47520
G1 X185.925 Y162.116 E1.48393
G1 X185.603 Y161.849 F4200.000
G1 F720
G1 X185.818 Y161.634 E1.49106
G1 X186.099 Y161.443 E1.49903
G1 X186.296 Y161.350 E1.50415
G1 X186.504 Y161.282 E1.50927
G1 X186.840 Y161.229 E1.51724
G1 X192.044 Y161.225 E1.63928
G1 X192.384 Y161.257 E1.64730
G1 X192.704 Y161.350 E1.65510
G1 X193.002 Y161.502 E1.66295
G1 X193.180 Y161.631 E1.66810
G1 X193.339 Y161.781 E1.67322
G1 X193.545 Y162.046 E1.68110
G1 X193.696 Y162.343 E1.68891
G1 X193.789 Y162.662 E1.69670
G1 X193.821 Y163.004 E1.70475
G1 X193.821 Y164.000 E1.72812
G1 X193.807 Y164.225 E1.73341
G1 X193.734 Y164.553 E1.74129
G1 X193.601 Y164.858 E1.74909
G1 X193.415 Y165.133 E1.75689
G1 X193.179 Y165.368 E1.76468
G1 X192.901 Y165.557 E1.77257
G1 X192.704 Y165.650 E1.77769
G1 X192.496 Y165.718 E1.78281
G1 X192.160 Y165.771 E1.79078
G1 X186.954 Y165.775 E1.91287
G1 X186.725 Y165.761 E1.91824
G1 X186.507 Y165.719 E1.92345
G1 X186.300 Y165.652 E1.92857
G1 X185.996 Y165.497 E1.93656
G1 X185.820 Y165.369 E1.94166
G1 X185.658 Y165.217 E1.94686
G1 X185.517 Y165.046 E1.95206
G1 X185.398 Y164.859 E1.95727
G1 X185.304 Y164.658 E1.96248
G1 X185.236 Y164.450 E1.96760
G1 X185.183 Y164.114 E1.97557
G1 X185.179 Y163.003 E2.00162
G1 X185.212 Y162.658 E2.00975
G1 X185.266 Y162.447 E2.01487
G1 X185.346 Y162.244 E2.01999
G1 X185.565 Y161.896 E2.02963
G1 X185.903 Y161.901 F4200.000
G1 F3360
G1 X185.818 Y161.634 E1.72088
G1 X186.099 Y161.443 E1.43272
G1 X186.296 Y161.350 E1.24744
G1 X186.484 Y161.288 E1.07963
G1 E1.02963 F3000.00000
G92 E0
G1 X187.320 Y165.166 F4200.000
G1 E1.00000 F3000.00000
G1 F720
G1 X185.967 Y163.813 E1.04497
G1 X185.965 Y163.219 E1.05894
G1 X187.725 Y164.979 E1.11743
G1 X188.318 Y164.980 E1.13137
G1 X186.018 Y162.680 E1.20781
G1 X186.164 Y162.404 E1.21514
G1 X186.243 Y162.312 E1.21799
G1 X188.911 Y164.981 E1.30669
G1 X189.504 Y164.982 E1.32063
G1 X186.600 Y162.077 E1.41717
G1 X186.688 Y162.048 E1.41935
G1 X186.902 Y162.014 E1.42444
G1 X187.129 Y162.014 E1.42978
G1 X190.097 Y164.983 E1.52844
G1 X190.691 Y164.984 E1.54238
G1 X187.721 Y162.014 E1.64109
G1 X188.312 Y162.013 E1.65499
G1 X191.284 Y164.984 E1.75374
G1 X191.877 Y164.985 E1.76768
G1 X188.904 Y162.013 E1.86647
G1 X189.496 Y162.012 E1.88038
G1 X192.405 Y164.922 E1.97707
G1 X192.676 Y164.761 E1.98449
G1 X192.756 Y164.681 E1.98714
G1 X190.088 Y162.012 E2.07584
G1 X190.679 Y162.012 E2.08975
G1 X192.981 Y164.313 E2.16626
G1 X193.027 Y164.114 E2.17106
G1 X193.036 Y163.776 E2.17902
G1 X191.271 Y162.011 E2.23766
G1 X191.863 Y162.011 E2.25157
G1 X193.224 Y163.371 E2.29680
G1 F3360
G1 X192.432 Y162.579 E1.34680
G1 E1.29680 F3000.00000
G92 E0
G1 X194.356 Y147.357 F4200.000
G1 E1.00000 F3000.00000
G1 F720
G1 X190.643 Y147.356 E1.08707
G1 X190.644 Y142.644 E1.19757
G1 X194.356 Y142.644 E1.28462
G1 X194.357 Y147.297 E1.39373
G1 X194.556 Y147.740 F4200.000
G1 F720
G1 X194.386 Y147.775 E1.39780
G1 X190.618 Y147.775 E1.48617
G1 X190.485 Y147.754 E1.48932
G1 X190.378 Y147.699 E1.49213
G1 X190.312 Y147.638 E1.49425
G1 X190.239 Y147.496 E1.49799
G1 X190.225 Y147.386 E1.50060
G1 X190.225 Y142.618 E1.61241
G1 X190.246 Y142.485 E1.61556
G1 X190.301 Y142.378 E1.61838
G1 X190.365 Y142.310 E1.62057
G1 X190.511 Y142.237 E1.62439
G1 X190.580 Y142.226 E1.62604
G1 X194.392 Y142.225 E1.71543
G1 X194.536 Y142.254 E1.71887
G1 X194.654 Y142.330 E1.72216
G1 X194.736 Y142.442 E1.72542
G1 X194.774 Y142.591 E1.72902
G1 X194.775 Y147.382 E1.84138
G1 X194.754 Y147.515 E1.84453
G1 X194.699 Y147.622 E1.84735
G1 X194.607 Y147.707 E1.85031
G1 X194.415 Y147.638 F4200.000
G1 F3360
G1 X194.386 Y147.775 E1.65454
G1 X193.497 Y147.775 E0.90031
G1 E0.85031 F3000.00000
G92 E0
G1 X190.823 Y146.320 F4200.000
G1 E1.00000 F3000.00000
G1 F720
G1 X191.492 Y146.989 E1.02250
G1 X192.091 Y146.989 E1.03675
G1 X191.011 Y145.908 E1.07309
G1 X191.011 Y145.309 E1.08733
G1 X192.690 Y146.989 E1.14382
G1 X193.290 Y146.989 E1.15807
G1 X191.011 Y144.710 E1.23472
G1 X191.011 Y144.111 E1.24896
G1 X193.889 Y146.989 E1.34576
G1 X193.988 Y146.989 E1.34811
G1 X193.988 Y146.489 E1.36001
G1 X191.011 Y143.512 E1.46013
G1 X191.011 Y143.012 E1.47203
G1 X191.110 Y143.012 E1.47438
G1 X193.988 Y145.890 E1.57118
G1 X193.988 Y145.291 E1.58543
G1 X191.709 Y143.012 E1.66208
G1 X192.309 Y143.012 E1.67633
G1 X193.988 Y144.692 E1.73282
G1 X193.988 Y144.092 E1.74707
G1 X192.908 Y143.012 E1.78341
G1 X193.507 Y143.012 E1.79766
G1 X194.176 Y143.681 E1.82016
G1 F3360
G1 X193.507 Y143.012 E1.01745
G1 X193.334 Y143.012 E0.87016
G1 E0.82016 F3000.00000
G92 E0
G1 X196.616 Y142.651 F4200.000
G1 E1.00000 F3000.00000
G1 F720
G1 X200.356 Y142.644 E1.08770
G1 X200.356 Y147.357 E1.19822
G1 X196.616 Y147.356 E1.28592
G1 X196.616 Y142.711 E1.39485
G1 X196.393 Y142.273 F4200.000
G1 F720
G1 X196.553 Y142.226 E1.39876
G1 X200.392 Y142.225 E1.48877
G1 X200.536 Y142.254 E1.49221
G1 X200.654 Y142.330 E1.49550
G1 X200.736 Y142.442 E1.49876
G1 X200.774 Y142.591 E1.50236
G1 X200.775 Y147.382 E1.61472
G1 X200.754 Y147.515 E1.61787
G1 X200.699 Y147.622 E1.62069
G1 X200.635 Y147.690 E1.62288
G1 X200.493 Y147.761 E1.62662
G1 X200.386 Y147.775 E1.62915
G1 X196.591 Y147.775 E1.71814
G1 X196.458 Y147.754 E1.72129
G1 X196.351 Y147.699 E1.72411
G1 X196.286 Y147.638 E1.72622
G1 X196.212 Y147.496 E1.72996
G1 X196.198 Y147.386 E1.73257
G1 X196.198 Y142.618 E1.84438
G1 X196.219 Y142.485 E1.84754
G1 X196.275 Y142.375 E1.85044
G1 X196.345 Y142.308 E1.85269
G1 X196.534 Y142.362 F4200.000
G1 F3360
G1 X196.553 Y142.226 E1.66272
G1 X197.449 Y142.226 E0.90269
G1 E0.85269 F3000.00000
G92 E0
G1 X196.796 Y146.317 F4200.000
G1 E1.00000 F3000.00000
G1 F720
G1 X197.468 Y146.989 E1.02268
G1 X198.069 Y146.989 E1.03703
G1 X196.984 Y145.903 E1.07366
G1 X196.984 Y145.302 E1.08801
G1 X198.671 Y146.989 E1.14493
G1 X199.272 Y146.989 E1.15929
G1 X196.984 Y144.701 E1.23650
G1 X196.984 Y144.100 E1.25085
G1 X199.874 Y146.989 E1.34836
G1 X199.988 Y146.989 E1.35109
G1 X199.988 Y146.503 E1.36271
G1 X196.985 Y143.499 E1.46408
G1 X196.985 Y143.012 E1.47570
G1 X197.099 Y143.012 E1.47842
G1 X199.988 Y145.901 E1.57594
G1 X199.988 Y145.300 E1.59029
G1 X197.700 Y143.012 E1.66751
G1 X198.301 Y143.012 E1.68186
G1 X199.988 Y144.699 E1.73879
G1 X199.988 Y144.098 E1.75314
G1 X198.903 Y143.012 E1.78977
G1 X199.504 Y143.012 E1.80412
G1 X200.176 Y143.684 E1.82681
G1 F3360
G1 X199.504 Y143.012 E1.02039
G1 X199.335 Y143.012 E0.87681
G1 E0.82681 F3000.00000
G92 E0
G1 X188.356 Y142.646 F4200.000
G1 E1.00000 F3000.00000
G1 F720
G1 X188.356 Y147.357 E1.11048
G1 X184.643 Y147.356 E1.19755
G1 X184.644 Y142.644 E1.30805
G1 X188.296 Y142.643 E1.39370
G1 X188.654 Y142.330 F4200.000
G1 F720
G1 X188.736 Y142.442 E1.39696
G1 X188.774 Y142.591 E1.40056
G1 X188.775 Y147.382 E1.51292
G1 X188.754 Y147.515 E1.51608
G1 X188.699 Y147.622 E1.51889
G1 X188.556 Y147.740 E1.52324
G1 X188.386 Y147.775 E1.52732
G1 X184.618 Y147.775 E1.61568
G1 X184.485 Y147.754 E1.61883
G1 X184.378 Y147.699 E1.62165
G1 X184.260 Y147.556 E1.62600
G1 X184.225 Y147.386 E1.63007
G1 X184.225 Y142.618 E1.74189
G1 X184.246 Y142.485 E1.74504
G1 X184.302 Y142.375 E1.74794
G1 X184.420 Y142.273 E1.75159
G1 X184.580 Y142.226 E1.75550
G1 X188.379 Y142.225 E1.84459
G1 X188.537 Y142.255 E1.84834
G1 X188.603 Y142.297 E1.85020
G1 X188.623 Y142.465 F4200.000
G1 X188.176 Y143.682
G1 F720
G1 X187.507 Y143.013 E1.87270
G1 X186.908 Y143.013 E1.88696
G1 X187.988 Y144.094 E1.92330
G1 X187.988 Y144.693 E1.93754
G1 X186.308 Y143.013 E1.99403
G1 X185.709 Y143.012 E2.00829
G1 X187.988 Y145.292 E2.08494
G1 X187.988 Y145.891 E2.09918
G1 X185.109 Y143.012 E2.19599
G1 X185.011 Y143.012 E2.19832
G1 X185.011 Y143.513 E2.21023
G1 X187.988 Y146.490 E2.31033
G1 X187.988 Y146.989 E2.32221
G1 X187.889 Y146.989 E2.32458
G1 X185.011 Y144.112 E2.42134
G1 X185.011 Y144.711 E2.43558
G1 X187.289 Y146.989 E2.51219
G1 X186.690 Y146.989 E2.52644
G1 X185.011 Y145.310 E2.58290
G1 X185.011 Y145.909 E2.59715
G1 X186.091 Y146.989 E2.63346
G1 X185.492 Y146.989 E2.64771
G1 X184.823 Y146.320 E2.67020
G1 F3360
G1 X185.492 Y146.989 E1.86791
G1 X185.666 Y146.989 E1.72020
G1 E1.67020 F3000.00000
G92 E0
G1 X182.384 Y147.349 F4200.000
G1 E1.00000 F3000.00000
G1 F720
G1 X178.643 Y147.356 E1.08773
G1 X178.644 Y142.644 E1.19823
G1 X182.383 Y142.644 E1.28591
G1 X182.384 Y147.289 E1.39484
G1 X182.583 Y147.740 F4200.000
G1 F720
G1 X182.413 Y147.775 E1.39892
G1 X178.618 Y147.775 E1.48791
G1 X178.485 Y147.754 E1.49106
G1 X178.330 Y147.658 E1.49533
G1 X178.239 Y147.493 E1.49977
G1 X178.225 Y147.386 E1.50230
G1 X178.225 Y142.618 E1.61411
G1 X178.246 Y142.485 E1.61726
G1 X178.301 Y142.378 E1.62008
G1 X178.365 Y142.310 E1.62227
G1 X178.511 Y142.237 E1.62609
G1 X178.580 Y142.226 E1.62774
G1 X182.439 Y142.226 E1.71824
G1 X182.560 Y142.253 E1.72115
G1 X182.681 Y142.330 E1.72449
G1 X182.762 Y142.442 E1.72775
G1 X182.801 Y142.591 E1.73135
G1 X182.802 Y147.382 E1.84372
G1 X182.781 Y147.515 E1.84687
G1 X182.726 Y147.622 E1.84968
G1 X182.633 Y147.707 E1.85264
G1 X182.442 Y147.638 F4200.000
G1 F3360
G1 X182.413 Y147.775 E1.65688
G1 X181.523 Y147.775 E0.90264
G1 E0.85264 F3000.00000
G92 E0
G1 X182.203 Y143.684 F4200.000
G1 E1.00000 F3000.00000
G1 F720
G1 X181.531 Y143.012 E1.02269
G1 X180.930 Y143.012 E1.03704
G1 X182.016 Y144.097 E1.07368
G1 X182.016 Y144.699 E1.08804
G1 X180.328 Y143.012 E1.14498
G1 X179.727 Y143.012 E1.15933
G1 X182.016 Y145.300 E1.23656
G1 X182.016 Y145.902 E1.25092
G1 X179.126 Y143.012 E1.34845
G1 X179.011 Y143.012 E1.35118
G1 X179.011 Y143.498 E1.36280
G1 X182.016 Y146.503 E1.46420
G1 X182.016 Y146.982 E1.47564
G1 X181.894 Y146.983 E1.47855
G1 X179.011 Y144.100 E1.57585
G1 X179.011 Y144.701 E1.59020
G1 X181.294 Y146.984 E1.66724
G1 X180.694 Y146.985 E1.68157
G1 X179.011 Y145.302 E1.73836
G1 X179.011 Y145.903 E1.75271
G1 X180.094 Y146.986 E1.78925
G1 X179.493 Y146.987 E1.80358
G1 X178.823 Y146.316 E1.82621
G1 F3360
G1 X179.493 Y146.987 E1.02170
G1 X179.665 Y146.987 E0.87621
G1 E0.82621 F3000.00000
G92 E0
G1 X171.375 Y140.904 F4200.000
G1 E1.00000 F3000.00000
G1 F720
G1 X171.495 Y141.017 E1.00386
G1 X171.662 Y141.232 E1.01024
G1 X171.784 Y141.471 E1.01654
G1 X171.869 Y141.802 E1.02455
G1 X171.881 Y141.996 E1.02913
G1 X171.881 Y148.004 E1.16999
G1 X171.869 Y148.198 E1.17457
G1 X171.782 Y148.536 E1.18275
G1 X171.614 Y148.842 E1.19093
G1 X171.375 Y149.096 E1.19911
G1 X171.081 Y149.283 E1.20729
G1 X170.927 Y149.344 E1.21115
G1 X170.655 Y149.405 E1.21769
G1 X168.532 Y149.417 E1.26748
G1 X168.176 Y149.374 E1.27590
G1 X167.910 Y149.278 E1.28251
G1 X167.625 Y149.096 E1.29045
G1 X167.505 Y148.983 E1.29432
G1 X167.332 Y148.761 E1.30093
G1 X167.188 Y148.454 E1.30887
G1 X167.147 Y148.294 E1.31273
G1 X167.119 Y147.994 E1.31982
G1 X167.119 Y141.996 E1.46045
G1 X167.162 Y141.640 E1.46887
G1 X167.258 Y141.375 E1.47548
G1 X167.440 Y141.089 E1.48342
G1 X167.694 Y140.850 E1.49160
G1 X168.000 Y140.682 E1.49979
G1 X168.156 Y140.631 E1.50364
G1 X168.435 Y140.587 E1.51027
G1 X170.462 Y140.583 E1.55780
G1 X170.748 Y140.611 E1.56454
G1 X171.000 Y140.684 E1.57068
G1 X171.327 Y140.869 E1.57949
G1 X171.572 Y140.531 F4200.000
G1 F720
G1 X171.805 Y140.735 E1.58675
G1 X172.016 Y141.007 E1.59482
G1 X172.171 Y141.310 E1.60281
G1 X172.242 Y141.526 E1.60814
G1 X172.284 Y141.749 E1.61347
G1 X172.299 Y141.983 E1.61897
G1 X172.299 Y148.017 E1.76045
G1 X172.284 Y148.251 E1.76595
G1 X172.242 Y148.474 E1.77128
G1 X172.171 Y148.690 E1.77661
G1 X172.074 Y148.896 E1.78194
G1 X171.953 Y149.088 E1.78727
G1 X171.808 Y149.263 E1.79260
G1 X171.642 Y149.419 E1.79794
