; generated by Slic3r Prusa Edition 1.41.0+win64 on 2019-06-08 at 10:42:25

; 

; external perimeters extrusion width = 0.45mm
; perimeters extrusion width = 0.45mm
; infill extrusion width = 0.45mm
; solid infill extrusion width = 0.45mm
; top infill extrusion width = 0.40mm

M107
M80 ; turn on PSU
M190 S50
M104 S190 ; start E heating
M17; enable motors
G28 X Y Z ; Home
G29 ; Autolevel
M109 S190
G90
G0 X0 Y0 F5000
G0 Z0 F5000
G91
G1 E8 F200
G90
; Filament gcode
G21 ; set units to millimeters
G90 ; use absolute coordinates
M82 ; use absolute distances for extrusion
G92 E0
G1 Z0.150 F4200.000
G1 E-1.00000 F3000.00000
G92 E0
G1 X160.343 Y133.338 F4200.000
G1 E1.00000 F3000.00000
G1 F720
G1 X161.429 Y132.044 E1.03961
G1 X162.509 Y131.093 E1.07335
G1 X178.862 Y119.448 E1.54414
G1 X179.842 Y118.857 E1.57097
G1 X181.121 Y118.371 E1.60306
G1 X181.924 Y118.195 E1.62233
G1 X182.796 Y118.116 E1.64286
G1 X195.995 Y118.111 E1.95237
G1 X197.019 Y118.186 E1.97647
G1 X197.911 Y118.379 E1.99787
G1 X216.791 Y123.487 E2.45652
G1 X217.848 Y123.947 E2.48354
G1 X218.921 Y124.658 E2.51374
G1 X220.051 Y125.788 E2.55122
G1 X220.729 Y126.793 E2.57965
G1 X221.350 Y128.291 E2.61767
G1 X221.547 Y129.186 E2.63914
G1 X221.626 Y130.168 E2.66226
G1 X221.627 Y159.793 E3.35696
G1 X221.546 Y160.821 E3.38115
G1 X221.332 Y161.773 E3.40402
G1 X220.753 Y163.166 E3.43940
G1 X220.282 Y163.916 E3.46017
G1 X219.755 Y164.558 E3.47965
G1 X218.668 Y165.539 E3.51399
G1 X217.412 Y166.264 E3.54799
G1 X216.488 Y166.608 E3.57110
G1 X197.851 Y171.636 E4.02378
G1 X197.023 Y171.813 E4.04363
G1 X196.071 Y171.888 E4.06603
G1 X183.000 Y171.889 E4.37255
G1 X181.954 Y171.810 E4.39714
G1 X180.996 Y171.596 E4.42016
G1 X179.875 Y171.159 E4.44838
G1 X178.914 Y170.588 E4.47459
G1 X162.753 Y159.097 E4.93961
G1 X161.435 Y157.963 E4.98038
G1 X160.231 Y156.493 E5.02493
G1 X159.506 Y155.274 E5.05819
G1 X158.894 Y153.786 E5.09593
G1 X158.514 Y152.222 E5.13366
G1 X158.384 Y150.821 E5.16667
G1 X158.376 Y139.357 E5.43550
G1 X158.503 Y137.845 E5.47108
G1 X158.839 Y136.396 E5.50595
G1 X159.502 Y134.734 E5.54791
G1 X160.312 Y133.389 E5.58473
G1 X160.669 Y133.605 F4200.000
G1 F720
G1 X161.734 Y132.329 E5.62371
G1 X162.782 Y131.410 E5.65640
G1 X179.104 Y119.789 E6.12624
G1 X180.039 Y119.226 E6.15184
G1 X181.232 Y118.774 E6.18176
G1 X181.994 Y118.607 E6.20005
G1 X182.827 Y118.533 E6.21966
G1 X195.994 Y118.529 E6.52843
G1 X196.964 Y118.600 E6.55122
G1 X197.810 Y118.785 E6.57154
G1 X216.643 Y123.878 E7.02905
G1 X217.639 Y124.309 E7.05450
G1 X218.652 Y124.978 E7.08297
G1 X219.733 Y126.059 E7.11881
G1 X220.371 Y127.007 E7.14560
G1 X220.948 Y128.405 E7.18106
G1 X221.134 Y129.249 E7.20134
G1 X221.208 Y130.183 E7.22331
G1 X221.209 Y159.785 E7.91749
G1 X221.132 Y160.764 E7.94050
G1 X220.928 Y161.667 E7.96222
G1 X220.367 Y162.999 E7.99611
G1 X219.916 Y163.709 E8.01583
G1 X219.351 Y164.383 E8.03647
G1 X218.276 Y165.303 E8.06963
G1 X217.562 Y165.732 E8.08918
G1 X216.857 Y166.041 E8.10722
G1 X197.354 Y171.326 E8.58106
G1 X196.031 Y171.471 E8.61227
G1 X182.975 Y171.471 E8.91843
G1 X182.001 Y171.394 E8.94134
G1 X181.102 Y171.192 E8.96297
G1 X180.046 Y170.777 E8.98955
G1 X179.147 Y170.242 E9.01410
G1 X162.997 Y158.758 E9.47881
G1 X161.736 Y157.673 E9.51782
G1 X160.585 Y156.271 E9.56035
G1 X159.882 Y155.090 E9.59258
G1 X159.291 Y153.656 E9.62896
G1 X158.925 Y152.148 E9.66534
G1 X158.801 Y150.785 E9.69744
G1 X158.793 Y139.368 E9.96516
G1 X158.916 Y137.909 E9.99950
G1 X159.243 Y136.501 E10.03339
G1 X159.881 Y134.912 E10.07356
G1 X160.638 Y133.656 E10.10794
; PURGING FINISHED
G1 F3360
G1 X161.351 Y132.793 E9.15794
G1 E9.10794 F3000.00000
G92 E0
G1 X182.118 Y160.942 F4200.000
G1 E1.00000 F3000.00000
G1 F720
G1 X182.376 Y160.784 E1.00709
G1 X182.655 Y160.669 E1.01417
G1 X182.949 Y160.598 E1.02126
G1 X183.241 Y160.575 E1.02814
G1 X195.759 Y160.575 E1.32168
G1 X196.051 Y160.598 E1.32856
G1 X196.345 Y160.669 E1.33564
G1 X196.624 Y160.784 E1.34273
G1 X196.882 Y160.942 E1.34982
G1 X197.112 Y161.138 E1.35690
G1 X197.308 Y161.368 E1.36399
G1 X197.466 Y161.626 E1.37107
G1 X197.581 Y161.905 E1.37816
G1 X197.652 Y162.199 E1.38525
G1 X197.675 Y162.491 E1.39212
G1 X197.675 Y164.509 E1.43944
G1 X197.652 Y164.801 E1.44632
G1 X197.581 Y165.095 E1.45340
G1 X197.466 Y165.374 E1.46049
G1 X197.308 Y165.632 E1.46757
G1 X197.112 Y165.862 E1.47466
G1 X196.882 Y166.058 E1.48175
G1 X196.624 Y166.216 E1.48883
G1 X196.345 Y166.331 E1.49592
G1 X196.051 Y166.402 E1.50301
G1 X195.759 Y166.425 E1.50988
G1 X183.241 Y166.425 E1.80343
G1 X182.949 Y166.402 E1.81030
G1 X182.655 Y166.331 E1.81739
G1 X182.376 Y166.216 E1.82448
G1 X182.118 Y166.058 E1.83156
G1 X181.888 Y165.862 E1.83865
G1 X181.692 Y165.632 E1.84574
G1 X181.534 Y165.374 E1.85282
G1 X181.419 Y165.095 E1.85991
G1 X181.348 Y164.801 E1.86699
G1 X181.325 Y164.509 E1.87387
G1 X181.325 Y162.491 E1.92119
G1 X181.348 Y162.199 E1.92806
G1 X181.419 Y161.905 E1.93515
G1 X181.534 Y161.626 E1.94224
G1 X181.692 Y161.368 E1.94932
G1 X181.888 Y161.138 E1.95641
G1 X182.072 Y160.981 E1.96209
G1 X182.087 Y160.642 F4200.000
G1 X181.391 Y160.643
G1 F720
G1 X181.689 Y160.393 E1.97119
G1 X181.990 Y160.208 E1.97949
G1 X182.316 Y160.073 E1.98776
G1 X182.659 Y159.991 E1.99603
G1 X183.020 Y159.963 E2.00451
G1 X195.980 Y159.963 E2.30844
G1 X196.341 Y159.991 E2.31692
G1 X196.684 Y160.073 E2.32519
G1 X197.009 Y160.208 E2.33345
G1 X197.337 Y160.410 E2.34247
G1 X197.608 Y160.642 E2.35084
G1 X197.840 Y160.913 E2.35921
G1 X198.026 Y161.217 E2.36758
G1 X198.163 Y161.547 E2.37595
G1 X198.246 Y161.894 E2.38432
G1 X198.275 Y162.259 E2.39290
G1 X198.275 Y164.741 E2.45111
G1 X198.246 Y165.106 E2.45968
G1 X198.163 Y165.453 E2.46805
G1 X198.026 Y165.783 E2.47642
G1 X197.840 Y166.087 E2.48479
G1 X197.609 Y166.357 E2.49313
G1 X197.311 Y166.607 E2.50224
G1 X197.010 Y166.792 E2.51054
G1 X196.684 Y166.927 E2.51881
G1 X196.341 Y167.009 E2.52708
G1 X195.980 Y167.037 E2.53555
G1 X183.020 Y167.037 E2.83949
G1 X182.659 Y167.009 E2.84797
G1 X182.316 Y166.927 E2.85624
G1 X181.991 Y166.792 E2.86450
G1 X181.663 Y166.590 E2.87352
G1 X181.392 Y166.358 E2.88189
G1 X181.160 Y166.087 E2.89026
G1 X180.988 Y165.807 E2.89797
G1 X180.837 Y165.452 E2.90702
G1 X180.754 Y165.106 E2.91536
G1 X180.725 Y164.741 E2.92394
G1 X180.725 Y162.259 E2.98215
G1 X180.754 Y161.894 E2.99072
G1 X180.837 Y161.547 E2.99909
G1 X180.974 Y161.217 E3.00746
G1 X181.160 Y160.913 E3.01583
G1 X181.352 Y160.688 E3.02277
G1 X181.766 Y160.745 F4200.000
G1 X181.618 Y160.916
G1 F720
G1 X181.905 Y160.668 E3.02726
G1 X182.231 Y160.477 E3.03174
G1 X182.562 Y160.353 E3.03593
G1 X183.032 Y160.277 E3.04158
G1 X195.767 Y160.269 E3.19259
G1 X196.109 Y160.288 E3.19665
G1 X196.456 Y160.358 E3.20145
G1 X196.788 Y160.485 E3.20691
G1 X197.130 Y160.694 E3.21305
G1 X197.360 Y160.890 E3.21770
G1 X197.556 Y161.120 E3.22233
G1 X197.762 Y161.463 E3.22848
G1 X197.893 Y161.813 E3.23231
G1 X197.967 Y162.271 E3.23706
G1 X197.975 Y164.524 E3.26014
G1 X197.956 Y164.857 E3.26409
G1 X197.888 Y165.204 E3.26829
G1 X197.762 Y165.537 E3.27250
G1 X197.556 Y165.880 E3.27726
G1 X197.351 Y166.117 E3.28096
G1 X197.107 Y166.323 E3.28475
G1 X196.852 Y166.482 E3.28832
G1 X196.456 Y166.642 E3.29338
G1 X196.109 Y166.712 E3.29758
G1 X195.767 Y166.731 E3.30164
G1 X183.233 Y166.731 E3.45027
G1 X182.891 Y166.712 E3.45433
G1 X182.544 Y166.642 E3.45913
G1 X182.212 Y166.515 E3.46459
G1 X181.870 Y166.306 E3.47073
G1 X181.640 Y166.110 E3.47538
G1 X181.444 Y165.880 E3.48001
G1 X181.239 Y165.536 E3.48616
G1 X181.107 Y165.187 E3.48999
G1 X181.033 Y164.729 E3.49474
G1 X181.025 Y162.476 E3.51781
G1 X181.042 Y162.158 E3.52158
G1 X181.075 Y161.945 E3.52414
G1 X181.159 Y161.652 E3.52776
G1 X181.283 Y161.375 E3.53136
G1 X181.418 Y161.156 E3.53441
G1 X181.579 Y160.961 E3.53741
G1 F3360
G1 X181.905 Y160.668 E3.16532
G1 X182.231 Y160.477 E2.84543
G1 X182.515 Y160.370 E2.58741
G1 E2.53741 F3000.00000
G92 E0
G1 X203.098 Y159.801 F4200.000
G1 E1.00000 F3000.00000
G1 F720
G1 X203.075 Y159.509 E1.00688
G1 X203.075 Y157.491 E1.05419
G1 X203.098 Y157.199 E1.06107
G1 X203.169 Y156.905 E1.06816
G1 X203.284 Y156.626 E1.07524
G1 X203.442 Y156.368 E1.08233
G1 X203.638 Y156.138 E1.08941
G1 X203.868 Y155.942 E1.09650
G1 X204.126 Y155.784 E1.10359
G1 X204.385 Y155.677 E1.11018
G1 X204.698 Y155.598 E1.11773
G1 X204.991 Y155.575 E1.12463
G1 X214.009 Y155.575 E1.33610
G1 X214.301 Y155.598 E1.34298
G1 X214.595 Y155.669 E1.35006
G1 X214.874 Y155.784 E1.35715
G1 X215.132 Y155.942 E1.36423
G1 X215.362 Y156.138 E1.37132
G1 X215.558 Y156.368 E1.37841
G1 X215.716 Y156.626 E1.38549
G1 X215.831 Y156.905 E1.39258
G1 X215.902 Y157.199 E1.39967
G1 X215.925 Y157.491 E1.40654
G1 X215.925 Y159.509 E1.45386
G1 X215.902 Y159.801 E1.46074
G1 X215.831 Y160.095 E1.46782
G1 X215.716 Y160.374 E1.47491
G1 X215.558 Y160.632 E1.48199
G1 X215.362 Y160.862 E1.48908
G1 X215.132 Y161.058 E1.49617
G1 X214.874 Y161.216 E1.50325
G1 X214.595 Y161.331 E1.51034
G1 X214.301 Y161.402 E1.51743
G1 X214.009 Y161.425 E1.52430
G1 X204.991 Y161.425 E1.73577
G1 X204.699 Y161.402 E1.74265
G1 X204.405 Y161.331 E1.74973
G1 X204.126 Y161.216 E1.75682
G1 X203.868 Y161.058 E1.76391
G1 X203.638 Y160.862 E1.77099
G1 X203.442 Y160.632 E1.77808
G1 X203.284 Y160.374 E1.78516
G1 X203.169 Y160.095 E1.79225
G1 X203.112 Y159.860 E1.79793
G1 X202.824 Y159.696 F4200.000
G1 X203.601 Y161.379
G1 F720
G1 X203.434 Y161.277 E1.80251
G1 X203.190 Y161.064 E1.81010
G1 X202.999 Y160.841 E1.81700
G1 X202.847 Y160.592 E1.82383
G1 X202.736 Y160.323 E1.83065
G1 X202.668 Y160.040 E1.83748
G1 X202.643 Y159.725 E1.84490
G1 X202.643 Y157.275 E1.90234
G1 X202.668 Y156.960 E1.90976
G1 X202.736 Y156.677 E1.91659
G1 X202.847 Y156.408 E1.92342
G1 X202.998 Y156.161 E1.93021
G1 X203.214 Y155.911 E1.93795
G1 X203.432 Y155.725 E1.94466
G1 X203.601 Y155.621 E1.94932
G1 X203.342 Y155.842 E1.95730
G1 X203.103 Y156.122 E1.96593
G1 X202.911 Y156.435 E1.97455
G1 X202.770 Y156.775 E1.98318
G1 X202.684 Y157.133 E1.99181
G1 X202.657 Y157.475 E1.99984
G1 X202.657 Y159.525 E2.04793
G1 X202.684 Y159.867 E2.05596
G1 X202.770 Y160.225 E2.06459
G1 X202.911 Y160.565 E2.07322
G1 X203.103 Y160.878 E2.08185
G1 X203.342 Y161.158 E2.09048
G1 X203.555 Y161.340 E2.09705
G1 F3360
G1 X203.434 Y161.277 E1.98144
G1 X203.190 Y161.064 E1.70690
G1 X202.999 Y160.841 E1.45730
G1 X202.847 Y160.592 E1.21035
G1 X202.818 Y160.523 E1.14705
G1 E1.09705 F3000.00000
G92 E0
G1 X215.399 Y161.379 F4200.000
G1 E1.00000 F3000.00000
G1 F720
G1 X215.658 Y161.158 E1.00798
G1 X215.897 Y160.878 E1.01661
G1 X216.089 Y160.565 E1.02523
G1 X216.230 Y160.225 E1.03386
G1 X216.316 Y159.867 E1.04249
G1 X216.343 Y159.525 E1.05053
G1 X216.343 Y157.475 E1.09861
G1 X216.316 Y157.133 E1.10664
G1 X216.230 Y156.775 E1.11527
G1 X216.089 Y156.435 E1.12390
G1 X215.897 Y156.122 E1.13253
G1 X215.658 Y155.842 E1.14116
G1 X215.399 Y155.621 E1.14914
G1 X215.568 Y155.725 E1.15379
G1 X215.786 Y155.911 E1.16051
G1 X216.002 Y156.161 E1.16824
G1 X216.153 Y156.408 E1.17504
G1 X216.264 Y156.677 E1.18187
G1 X216.332 Y156.960 E1.18869
G1 X216.357 Y157.275 E1.19611
G1 X216.357 Y159.725 E1.25355
G1 X216.332 Y160.040 E1.26097
G1 X216.264 Y160.323 E1.26780
G1 X216.153 Y160.592 E1.27463
G1 X216.002 Y160.839 E1.28142
G1 X215.786 Y161.089 E1.28916
G1 X215.568 Y161.275 E1.29588
G1 X215.450 Y161.348 E1.29912
G1 X215.669 Y161.704 F4200.000
G1 F720
G1 X215.516 Y161.798 E1.30334
G1 X215.191 Y161.932 E1.31157
G1 X214.850 Y162.014 E1.31980
G1 X214.491 Y162.042 E1.32824
G1 X204.509 Y162.042 E1.56232
G1 X204.150 Y162.014 E1.57076
G1 X203.809 Y161.932 E1.57899
G1 X203.484 Y161.798 E1.58723
G1 X203.186 Y161.615 E1.59543
G1 X202.893 Y161.359 E1.60456
G1 X202.660 Y161.087 E1.61296
G1 X202.474 Y160.783 E1.62133
G1 X202.337 Y160.453 E1.62970
G1 X202.254 Y160.106 E1.63807
G1 X202.225 Y159.741 E1.64664
G1 X202.225 Y157.259 E1.70485
G1 X202.254 Y156.894 E1.71343
G1 X202.337 Y156.547 E1.72180
G1 X202.474 Y156.217 E1.73017
G1 X202.660 Y155.914 E1.73853
G1 X202.918 Y155.614 E1.74780
G1 X203.185 Y155.386 E1.75604
G1 X203.484 Y155.202 E1.76427
G1 X203.809 Y155.068 E1.77251
G1 X204.150 Y154.986 E1.78074
G1 X204.509 Y154.958 E1.78918
G1 X214.491 Y154.958 E2.02326
G1 X214.850 Y154.986 E2.03170
G1 X215.191 Y155.068 E2.03993
G1 X215.516 Y155.202 E2.04816
G1 X215.815 Y155.386 E2.05640
G1 X216.082 Y155.614 E2.06464
G1 X216.340 Y155.914 E2.07391
G1 X216.526 Y156.217 E2.08227
G1 X216.663 Y156.547 E2.09064
G1 X216.746 Y156.894 E2.09901
G1 X216.775 Y157.259 E2.10759
G1 X216.775 Y159.741 E2.16580
G1 X216.746 Y160.106 E2.17437
G1 X216.663 Y160.453 E2.18274
G1 X216.526 Y160.783 E2.19111
G1 X216.340 Y161.086 E2.19947
G1 X216.082 Y161.386 E2.20874
G1 X215.815 Y161.614 E2.21698
G1 X215.720 Y161.672 E2.21960
G1 X215.508 Y161.624 F4200.000
G1 X215.051 Y161.564
G1 F720
G1 X214.792 Y161.649 E2.22515
G1 X214.716 Y161.667 E2.22655
G1 X214.478 Y161.706 E2.23055
G1 X214.361 Y161.720 E2.23224
G1 X214.025 Y161.733 E2.23653
G1 X204.983 Y161.734 E2.33790
G1 X204.522 Y161.706 E2.34307
G1 X204.208 Y161.649 E2.34826
G1 X203.949 Y161.564 E2.35270
G1 F3360
G1 X204.208 Y161.649 E2.12124
G1 X204.522 Y161.706 E1.85047
G1 E1.35270 F3000.00000
G92 E0
G1 X203.949 Y155.436 F4200.000
G1 E1.00000 F3000.00000
G1 F720
G1 X204.208 Y155.351 E1.00455
G1 X204.522 Y155.295 E1.00986
G1 X204.983 Y155.266 E1.01504
G1 X214.025 Y155.267 E1.11641
G1 X214.361 Y155.280 E1.12070
G1 X214.478 Y155.294 E1.12239
G1 X214.716 Y155.333 E1.12639
G1 X214.792 Y155.351 E1.12779
G1 X215.051 Y155.436 E1.13334
G1 F3360
G1 X214.792 Y155.351 E0.90191
G1 E0.13334 F3000.00000
G92 E0
G1 X214.301 Y134.402 F4200.000
G1 E1.00000 F3000.00000
G1 F720
G1 X214.009 Y134.425 E1.00688
G1 X204.991 Y134.425 E1.21834
G1 X204.699 Y134.402 E1.22522
G1 X204.405 Y134.331 E1.23231
G1 X204.126 Y134.216 E1.23939
G1 X203.868 Y134.058 E1.24648
G1 X203.638 Y133.862 E1.25357
G1 X203.442 Y133.632 E1.26065
G1 X203.284 Y133.374 E1.26774
G1 X203.169 Y133.095 E1.27482
G1 X203.098 Y132.801 E1.28191
G1 X203.075 Y132.509 E1.28879
G1 X203.075 Y130.491 E1.33610
G1 X203.098 Y130.199 E1.34298
G1 X203.169 Y129.905 E1.35007
G1 X203.284 Y129.626 E1.35715
G1 X203.442 Y129.368 E1.36424
G1 X203.638 Y129.138 E1.37133
G1 X203.868 Y128.942 E1.37841
G1 X204.126 Y128.784 E1.38550
G1 X204.405 Y128.669 E1.39258
G1 X204.699 Y128.598 E1.39967
G1 X204.991 Y128.575 E1.40655
G1 X214.009 Y128.575 E1.61801
G1 X214.301 Y128.598 E1.62489
G1 X214.595 Y128.669 E1.63198
G1 X214.874 Y128.784 E1.63907
G1 X215.132 Y128.942 E1.64615
G1 X215.362 Y129.138 E1.65324
G1 X215.558 Y129.368 E1.66032
G1 X215.716 Y129.626 E1.66741
G1 X215.831 Y129.905 E1.67450
G1 X215.902 Y130.199 E1.68158
G1 X215.925 Y130.491 E1.68846
G1 X215.925 Y132.509 E1.73577
G1 X215.902 Y132.801 E1.74265
G1 X215.831 Y133.095 E1.74974
G1 X215.716 Y133.374 E1.75683
G1 X215.558 Y133.632 E1.76391
G1 X215.362 Y133.862 E1.77100
G1 X215.132 Y134.058 E1.77808
G1 X214.874 Y134.216 E1.78517
G1 X214.595 Y134.331 E1.79226
G1 X214.360 Y134.388 E1.79794
G1 X214.196 Y134.676 F4200.000
G1 F3360
G1 X214.009 Y134.425 E1.49880
G1 X213.241 Y134.425 E0.84794
G1 E0.79794 F3000.00000
G92 E0
G1 X203.601 Y134.379 F4200.000
G1 E1.00000 F3000.00000
G1 F720
G1 X203.434 Y134.277 E1.00458
G1 X203.190 Y134.064 E1.01217
G1 X202.999 Y133.841 E1.01907
G1 X202.847 Y133.592 E1.02590
G1 X202.736 Y133.323 E1.03272
G1 X202.668 Y133.040 E1.03955
G1 X202.643 Y132.725 E1.04697
G1 X202.643 Y130.275 E1.10441
G1 X202.668 Y129.960 E1.11183
G1 X202.736 Y129.677 E1.11866
G1 X202.847 Y129.408 E1.12549
G1 X202.998 Y129.161 E1.13228
G1 X203.214 Y128.911 E1.14001
G1 X203.432 Y128.725 E1.14673
G1 X203.601 Y128.621 E1.15139
G1 X203.342 Y128.842 E1.15937
G1 X203.103 Y129.122 E1.16800
G1 X202.911 Y129.435 E1.17662
G1 X202.770 Y129.775 E1.18525
G1 X202.684 Y130.133 E1.19388
G1 X202.657 Y130.475 E1.20192
G1 X202.657 Y132.525 E1.25000
G1 X202.684 Y132.867 E1.25803
G1 X202.770 Y133.225 E1.26666
G1 X202.911 Y133.565 E1.27529
G1 X203.103 Y133.878 E1.28392
G1 X203.342 Y134.158 E1.29255
G1 X203.555 Y134.340 E1.29912
G1 F3360
G1 X203.434 Y134.277 E1.18353
G1 X203.190 Y134.064 E0.90898
G1 X202.999 Y133.841 E0.65938
G1 X202.847 Y133.592 E0.41243
