; generated by Slic3r Prusa Edition 1.41.0+win64 on 2019-04-30 at 07:50:54

; 

; external perimeters extrusion width = 0.45mm
; perimeters extrusion width = 0.45mm
; infill extrusion width = 0.45mm
; solid infill extrusion width = 0.45mm
; top infill extrusion width = 0.40mm

M107
M80 ; turn on PSU
M190 S50
M104 S190 ; start E heating
M17; enable motors
G28 X Y Z ; Home
G29 ; Autolevel
M109 S190
G90
G0 X0 Y0 F5000
G0 Z0 F5000
G91
G1 E8 F200
G90
; Filament gcode
G21 ; set units to millimeters
G90 ; use absolute coordinates
M82 ; use absolute distances for extrusion
G92 E0
G1 Z0.150 F4800.000
G1 E-1.00000 F3000.00000
G92 E0
G1 X167.202 Y126.319 F4800.000
G1 E1.00000 F3000.00000
G1 F720
G1 X167.873 Y125.814 E1.02035
G1 X168.649 Y125.398 E1.04169
G1 X169.408 Y125.129 E1.06120
G1 X170.258 Y124.962 E1.08219
G1 X209.097 Y124.925 E2.02334
G1 X209.882 Y124.981 E2.04241
G1 X210.747 Y125.173 E2.06387
G1 X211.574 Y125.502 E2.08544
G1 X212.266 Y125.906 E2.10485
G1 X213.021 Y126.524 E2.12851
G1 X213.951 Y127.541 E2.16191
G1 X215.025 Y128.997 E2.20574
G1 X215.750 Y130.254 E2.24090
G1 X216.297 Y131.465 E2.27309
G1 X216.869 Y133.178 E2.31686
G1 X217.171 Y134.610 E2.35232
G1 X217.321 Y135.959 E2.38522
G1 X217.316 Y137.924 E2.43284
G1 X217.174 Y139.207 E2.46412
G1 X216.904 Y140.506 E2.49626
G1 X216.370 Y142.193 E2.53914
G1 X204.842 Y169.924 E3.26685
G1 X204.223 Y171.240 E3.30211
G1 X203.316 Y172.766 E3.34513
G1 X202.339 Y174.068 E3.38457
G1 X201.204 Y175.294 E3.42504
G1 X200.115 Y176.256 E3.46026
G1 X198.394 Y177.474 E3.51136
G1 X197.104 Y178.190 E3.54710
G1 X195.449 Y178.890 E3.59064
G1 X194.049 Y179.328 E3.62618
G1 X192.434 Y179.661 E3.66616
G1 X190.817 Y179.826 E3.70554
G1 X189.148 Y179.824 E3.74597
G1 X187.536 Y179.656 E3.78526
G1 X185.923 Y179.321 E3.82517
G1 X184.356 Y178.823 E3.86501
G1 X182.863 Y178.174 E3.90447
G1 X181.214 Y177.226 E3.95054
G1 X180.045 Y176.389 E3.98538
G1 X178.823 Y175.320 E4.02473
G1 X177.720 Y174.137 E4.06393
G1 X176.843 Y172.990 E4.09890
G1 X175.850 Y171.383 E4.14470
G1 X175.158 Y169.925 E4.18379
G1 X163.626 Y142.181 E4.91184
G1 X163.146 Y140.708 E4.94939
G1 X162.827 Y139.210 E4.98649
G1 X162.666 Y137.688 E5.02358
G1 X162.664 Y136.165 E5.06050
G1 X162.825 Y134.634 E5.09780
G1 X163.140 Y133.144 E5.13470
G1 X163.613 Y131.682 E5.17193
G1 X164.213 Y130.329 E5.20780
G1 X164.987 Y128.977 E5.24554
G1 X165.792 Y127.856 E5.27898
G1 X167.161 Y126.363 E5.32808
G1 X167.467 Y126.643 F4800.000
G1 F720
G1 X168.092 Y126.170 E5.34708
G1 X168.819 Y125.780 E5.36706
G1 X169.523 Y125.530 E5.38517
G1 X170.325 Y125.375 E5.40497
G1 X209.097 Y125.342 E6.34448
G1 X209.981 Y125.419 E6.36599
G1 X210.779 Y125.624 E6.38595
G1 X211.592 Y125.982 E6.40747
G1 X212.354 Y126.490 E6.42966
G1 X213.828 Y128.046 E6.48161
G1 X214.638 Y129.167 E6.51512
G1 X215.301 Y130.302 E6.54698
G1 X216.054 Y131.993 E6.59182
G1 X216.457 Y133.255 E6.62393
G1 X216.753 Y134.641 E6.65827
G1 X216.923 Y136.360 E6.70012
G1 X216.917 Y137.662 E6.73166
G1 X216.786 Y138.961 E6.76332
G1 X216.457 Y140.575 E6.80322
G1 X215.969 Y142.070 E6.84134
G1 X204.457 Y169.763 E7.56806
G1 X203.840 Y171.072 E7.60313
G1 X202.963 Y172.542 E7.64461
G1 X202.010 Y173.809 E7.68303
G1 X200.908 Y174.999 E7.72231
G1 X199.840 Y175.941 E7.75684
G1 X198.188 Y177.111 E7.80589
G1 X196.924 Y177.813 E7.84091
G1 X195.316 Y178.494 E7.88325
G1 X193.944 Y178.923 E7.91807
G1 X192.371 Y179.248 E7.95700
G1 X190.795 Y179.408 E7.99538
G1 X189.176 Y179.407 E8.03462
G1 X187.599 Y179.243 E8.07302
G1 X186.029 Y178.916 E8.11190
G1 X184.503 Y178.431 E8.15070
G1 X183.034 Y177.792 E8.18951
G1 X181.455 Y176.884 E8.23365
G1 X180.304 Y176.061 E8.26793
G1 X179.113 Y175.020 E8.30627
G1 X178.035 Y173.863 E8.34458
G1 X177.174 Y172.734 E8.37899
G1 X176.213 Y171.176 E8.42335
G1 X175.544 Y169.765 E8.46120
G1 X164.016 Y142.030 E9.18901
G1 X163.549 Y140.599 E9.22549
G1 X163.239 Y139.144 E9.26153
G1 X163.083 Y137.666 E9.29755
G1 X163.082 Y136.180 E9.33355
G1 X163.238 Y134.693 E9.36977
G1 X163.545 Y133.246 E9.40563
G1 X164.004 Y131.831 E9.44167
G1 X164.593 Y130.502 E9.47691
G1 X165.341 Y129.199 E9.51331
G1 X166.125 Y128.108 E9.54586
G1 X167.426 Y126.687 E9.59255
; PURGING FINISHED
G1 F3840
G1 X168.092 Y126.170 E8.96693
G1 X168.477 Y125.963 E8.64255
G1 E8.59255 F3000.00000
G92 E0
G1 X170.984 Y129.780 F4800.000
G1 E1.00000 F3000.00000
G1 F720
G1 X171.126 Y129.809 E1.00353
G1 X171.342 Y129.911 E1.00931
G1 X171.464 Y130.011 E1.01313
G1 X188.434 Y146.982 E1.59469
G1 X188.763 Y147.252 E1.60501
G1 X189.148 Y147.457 E1.61558
G1 X189.566 Y147.584 E1.62615
G1 X189.995 Y147.626 E1.63659
G1 X190.224 Y147.615 E1.64216
G1 X190.646 Y147.530 E1.65259
G1 X191.044 Y147.366 E1.66301
G1 X191.241 Y147.248 E1.66858
G1 X191.566 Y146.982 E1.67876
G1 X208.536 Y130.011 E2.26032
G1 X208.662 Y129.908 E2.26428
G1 X208.791 Y129.839 E2.26782
G1 X209.022 Y129.780 E2.27359
G1 X209.167 Y129.781 E2.27711
G1 X209.316 Y129.810 E2.28078
G1 X209.452 Y129.867 E2.28434
G1 X209.647 Y130.011 E2.29023
G1 X210.324 Y130.763 E2.31476
G1 X210.925 Y131.592 E2.33956
G1 X211.437 Y132.477 E2.36434
G1 X211.853 Y133.410 E2.38908
G1 X212.170 Y134.385 E2.41394
G1 X212.382 Y135.386 E2.43873
G1 X212.489 Y136.404 E2.46352
G1 X212.489 Y137.427 E2.48831
G1 X212.382 Y138.444 E2.51310
G1 X212.169 Y139.445 E2.53790
G1 X211.854 Y140.418 E2.56269
G1 X211.437 Y141.353 E2.58749
G1 X210.925 Y142.239 E2.61227
G1 X210.324 Y143.067 E2.63708
G1 X209.636 Y143.831 E2.66200
G1 X199.227 Y154.240 E3.01870
G1 X198.949 Y154.581 E3.02936
G1 X198.741 Y154.981 E3.04030
G1 X198.616 Y155.415 E3.05122
G1 X198.583 Y155.860 E3.06203
G1 X198.601 Y156.096 E3.06779
G1 X198.703 Y156.530 E3.07859
G1 X198.890 Y156.934 E3.08936
G1 X199.652 Y158.086 E3.12285
G1 X200.186 Y159.106 E3.15073
G1 X200.612 Y160.173 E3.17858
G1 X200.926 Y161.280 E3.20646
G1 X201.125 Y162.412 E3.23432
G1 X201.207 Y163.559 E3.26218
G1 X201.171 Y164.709 E3.29006
G1 X201.018 Y165.849 E3.31792
G1 X200.748 Y166.967 E3.34579
G1 X200.366 Y168.052 E3.37367
G1 X199.874 Y169.091 E3.40153
G1 X199.279 Y170.075 E3.42939
G1 X198.585 Y170.993 E3.45726
G1 X197.802 Y171.835 E3.48514
G1 X196.936 Y172.591 E3.51299
G1 X195.998 Y173.256 E3.54086
G1 X194.996 Y173.820 E3.56872
G1 X193.941 Y174.279 E3.59659
G1 X192.845 Y174.628 E3.62446
G1 X191.719 Y174.862 E3.65234
G1 X190.575 Y174.980 E3.68021
G1 X189.425 Y174.980 E3.70806
G1 X188.281 Y174.862 E3.73593
G1 X187.155 Y174.628 E3.76381
G1 X186.059 Y174.279 E3.79167
G1 X185.004 Y173.820 E3.81955
G1 X184.002 Y173.256 E3.84741
G1 X183.064 Y172.591 E3.87528
G1 X182.198 Y171.835 E3.90313
G1 X181.415 Y170.993 E3.93101
G1 X180.721 Y170.075 E3.95888
G1 X180.126 Y169.091 E3.98674
G1 X179.634 Y168.052 E4.01460
G1 X179.252 Y166.967 E4.04247
G1 X178.982 Y165.849 E4.07035
G1 X178.829 Y164.709 E4.09821
G1 X178.793 Y163.559 E4.12609
G1 X178.875 Y162.412 E4.15395
G1 X179.074 Y161.280 E4.18181
G1 X179.388 Y160.173 E4.20969
G1 X179.814 Y159.106 E4.23754
G1 X180.348 Y158.086 E4.26542
G1 X181.110 Y156.934 E4.29891
G1 X181.297 Y156.530 E4.30968
G1 X181.399 Y156.096 E4.32048
G1 X181.417 Y155.860 E4.32623
G1 X181.384 Y155.415 E4.33705
G1 X181.259 Y154.981 E4.34797
G1 X181.051 Y154.581 E4.35890
G1 X180.773 Y154.240 E4.36956
G1 X170.364 Y143.831 E4.72627
G1 X169.676 Y143.067 E4.75119
G1 X169.075 Y142.239 E4.77599
G1 X168.563 Y141.353 E4.80078
G1 X168.146 Y140.418 E4.82558
G1 X167.831 Y139.445 E4.85037
G1 X167.618 Y138.444 E4.87517
G1 X167.511 Y137.427 E4.89996
G1 X167.511 Y136.404 E4.92475
G1 X167.618 Y135.386 E4.94953
G1 X167.831 Y134.385 E4.97433
G1 X168.146 Y133.412 E4.99913
G1 X168.563 Y132.477 E5.02393
G1 X169.075 Y131.592 E5.04871
G1 X169.675 Y130.764 E5.07349
G1 X170.417 Y129.955 E5.10010
G1 X170.613 Y129.837 E5.10562
G1 X170.838 Y129.781 E5.11125
G1 X170.924 Y129.781 E5.11332
G1 X171.046 Y129.912 F4800.000
G1 X170.942 Y130.198
G1 F720
G1 X171.117 Y130.267 E5.11788
G1 X171.183 Y130.321 E5.11995
G1 X188.153 Y147.291 E5.70150
G1 X188.530 Y147.601 E5.71332
G1 X188.988 Y147.845 E5.72589
G1 X189.484 Y147.996 E5.73846
G1 X189.985 Y148.045 E5.75065
G1 X190.275 Y148.030 E5.75770
G1 X190.768 Y147.932 E5.76987
G1 X191.232 Y147.741 E5.78203
G1 X191.482 Y147.591 E5.78910
G1 X191.847 Y147.291 E5.80053
G1 X208.895 Y130.257 E6.38453
G1 X208.943 Y130.231 E6.38585
G1 X209.126 Y130.198 E6.39034
G1 X209.244 Y130.233 E6.39333
G1 X209.364 Y130.322 E6.39695
G1 X209.999 Y131.027 E6.41993
G1 X210.575 Y131.820 E6.44368
G1 X211.064 Y132.667 E6.46740
G1 X211.462 Y133.560 E6.49107
G1 X211.765 Y134.494 E6.51487
G1 X211.969 Y135.452 E6.53861
G1 X212.072 Y136.426 E6.56233
G1 X212.072 Y137.405 E6.58606
G1 X211.969 Y138.379 E6.60979
G1 X211.765 Y139.337 E6.63353
G1 X211.463 Y140.268 E6.65726
G1 X211.064 Y141.163 E6.68099
G1 X210.575 Y142.011 E6.70472
G1 X209.999 Y142.804 E6.72846
G1 X209.333 Y143.544 E6.75259
G1 X198.916 Y153.960 E7.10954
G1 X198.598 Y154.350 E7.12175
G1 X198.351 Y154.826 E7.13474
G1 X198.203 Y155.341 E7.14772
G1 X198.164 Y155.860 E7.16035
G1 X198.187 Y156.161 E7.16765
G1 X198.306 Y156.667 E7.18025
G1 X198.524 Y157.138 E7.19283
G1 X199.292 Y158.299 E7.22656
G1 X199.806 Y159.280 E7.25340
G1 X200.216 Y160.308 E7.28021
G1 X200.518 Y161.373 E7.30705
G1 X200.709 Y162.464 E7.33387
G1 X200.789 Y163.568 E7.36069
G1 X200.754 Y164.675 E7.38753
G1 X200.606 Y165.771 E7.41435
G1 X200.347 Y166.848 E7.44119
G1 X199.979 Y167.893 E7.46802
G1 X199.505 Y168.893 E7.49484
G1 X198.932 Y169.840 E7.52166
G1 X198.265 Y170.724 E7.54849
G1 X197.511 Y171.534 E7.57532
G1 X196.677 Y172.262 E7.60214
G1 X195.774 Y172.902 E7.62897
G1 X194.809 Y173.446 E7.65579
G1 X193.794 Y173.887 E7.68262
G1 X192.739 Y174.223 E7.70945
G1 X191.655 Y174.448 E7.73629
G1 X190.553 Y174.562 E7.76312
G1 X189.447 Y174.562 E7.78993
G1 X188.345 Y174.448 E7.81676
G1 X187.261 Y174.223 E7.84360
G1 X186.206 Y173.887 E7.87042
G1 X185.191 Y173.446 E7.89726
G1 X184.226 Y172.902 E7.92408
G1 X183.323 Y172.262 E7.95091
G1 X182.489 Y171.534 E7.97772
G1 X181.735 Y170.724 E8.00455
G1 X181.068 Y169.840 E8.03138
G1 X180.495 Y168.893 E8.05821
G1 X180.021 Y167.893 E8.08503
G1 X179.653 Y166.848 E8.11186
G1 X179.394 Y165.771 E8.13870
G1 X179.246 Y164.675 E8.16552
G1 X179.211 Y163.568 E8.19235
G1 X179.291 Y162.464 E8.21918
G1 X179.482 Y161.373 E8.24600
G1 X179.784 Y160.308 E8.27284
G1 X180.194 Y159.280 E8.29965
G1 X180.708 Y158.299 E8.32649
G1 X181.476 Y157.138 E8.36022
G1 X181.694 Y156.667 E8.37280
G1 X181.813 Y156.161 E8.38540
G1 X181.836 Y155.860 E8.39270
G1 X181.797 Y155.341 E8.40533
G1 X181.649 Y154.826 E8.41831
G1 X181.402 Y154.350 E8.43130
G1 X181.084 Y153.960 E8.44351
G1 X170.667 Y143.544 E8.80046
G1 X170.001 Y142.804 E8.82459
G1 X169.425 Y142.011 E8.84833
G1 X168.936 Y141.163 E8.87205
G1 X168.537 Y140.268 E8.89579
G1 X168.235 Y139.337 E8.91952
G1 X168.031 Y138.379 E8.94326
G1 X167.928 Y137.405 E8.96699
G1 X167.928 Y136.426 E8.99071
G1 X168.031 Y135.452 E9.01444
G1 X168.235 Y134.494 E9.03818
G1 X168.537 Y133.562 E9.06191
G1 X168.936 Y132.667 E9.08565
G1 X169.425 Y131.820 E9.10937
G1 X169.999 Y131.029 E9.13305
G1 X170.684 Y130.282 E9.15761
G1 X170.775 Y130.227 E9.16017
G1 X170.882 Y130.200 E9.16285
G1 X170.917 Y130.646 F4800.000
G1 F720
G1 X187.872 Y147.601 E9.74389
G1 X188.297 Y147.950 E9.75721
G1 X188.827 Y148.233 E9.77177
G1 X189.402 Y148.408 E9.78633
G1 X189.975 Y148.463 E9.80027
G1 X190.327 Y148.446 E9.80881
G1 X190.889 Y148.334 E9.82271
G1 X191.420 Y148.115 E9.83661
G1 X191.724 Y147.933 E9.84519
G1 X192.128 Y147.601 E9.85787
G1 X209.089 Y130.640 E10.43910
G1 X209.674 Y131.290 E10.46029
G1 X210.224 Y132.047 E10.48297
G1 X210.692 Y132.857 E10.50564
G1 X211.071 Y133.710 E10.52825
G1 X211.361 Y134.602 E10.55098
G1 X211.556 Y135.517 E10.57366
G1 X211.654 Y136.448 E10.59633
G1 X211.654 Y137.383 E10.61899
G1 X211.556 Y138.313 E10.64166
G1 X211.361 Y139.229 E10.66434
G1 X211.072 Y140.118 E10.68701
G1 X210.692 Y140.973 E10.70968
G1 X210.224 Y141.783 E10.73234
G1 X209.674 Y142.540 E10.75503
G1 X209.029 Y143.256 E10.77836
G1 X198.606 Y153.679 E11.13556
G1 X198.247 Y154.120 E11.14932
G1 X197.961 Y154.670 E11.16436
G1 X197.789 Y155.267 E11.17940
G1 X197.745 Y155.861 E11.19384
G1 X197.773 Y156.225 E11.20269
G1 X197.909 Y156.804 E11.21709
G1 X198.158 Y157.342 E11.23147
G1 X198.932 Y158.512 E11.26545
G1 X199.425 Y159.455 E11.29125
G1 X199.820 Y160.443 E11.31702
G1 X200.111 Y161.467 E11.34282
G1 X200.294 Y162.515 E11.36860
G1 X200.371 Y163.576 E11.39439
G1 X200.337 Y164.640 E11.42018
G1 X200.195 Y165.694 E11.44596
G1 X199.946 Y166.730 E11.47176
G1 X199.592 Y167.733 E11.49755
G1 X199.137 Y168.695 E11.52333
G1 X198.586 Y169.605 E11.54912
G1 X197.945 Y170.455 E11.57491
G1 X197.219 Y171.234 E11.60069
G1 X196.418 Y171.933 E11.62647
G1 X195.550 Y172.549 E11.65226
G1 X194.623 Y173.071 E11.67804
G1 X193.647 Y173.496 E11.70383
G1 X192.633 Y173.818 E11.72962
G1 X191.591 Y174.035 E11.75542
G1 X190.532 Y174.144 E11.78121
G1 X189.468 Y174.144 E11.80698
G1 X188.409 Y174.035 E11.83277
G1 X187.367 Y173.818 E11.85857
G1 X186.353 Y173.496 E11.88435
G1 X185.377 Y173.071 E11.91015
G1 X184.450 Y172.549 E11.93592
G1 X183.582 Y171.933 E11.96172
G1 X182.781 Y171.234 E11.98750
G1 X182.055 Y170.455 E12.01328
G1 X181.414 Y169.605 E12.03907
G1 X180.863 Y168.695 E12.06486
G1 X180.408 Y167.733 E12.09064
G1 X180.054 Y166.730 E12.11643
G1 X179.805 Y165.694 E12.14223
G1 X179.663 Y164.640 E12.16801
G1 X179.629 Y163.576 E12.19380
G1 X179.706 Y162.515 E12.21959
G1 X179.889 Y161.467 E12.24537
G1 X180.180 Y160.443 E12.27116
G1 X180.575 Y159.455 E12.29693
G1 X181.068 Y158.512 E12.32274
G1 X181.842 Y157.342 E12.35672
G1 X182.091 Y156.804 E12.37110
G1 X182.227 Y156.225 E12.38550
G1 X182.255 Y155.861 E12.39434
G1 X182.211 Y155.267 E12.40879
G1 X182.039 Y154.670 E12.42383
G1 X181.753 Y154.120 E12.43887
G1 X181.394 Y153.679 E12.45263
G1 X170.971 Y143.256 E12.80983
G1 X170.326 Y142.540 E12.83316
G1 X169.776 Y141.783 E12.85584
G1 X169.308 Y140.973 E12.87851
G1 X168.928 Y140.118 E12.90118
G1 X168.639 Y139.229 E12.92385
G1 X168.444 Y138.313 E12.94653
G1 X168.346 Y137.383 E12.96920
G1 X168.346 Y136.448 E12.99186
G1 X168.444 Y135.517 E13.01453
G1 X168.639 Y134.602 E13.03721
G1 X168.928 Y133.712 E13.05988
G1 X169.308 Y132.857 E13.08255
G1 X169.776 Y132.047 E13.10521
G1 X170.324 Y131.294 E13.12778
G1 X170.877 Y130.690 E13.14762
G1 F3840
G1 X171.784 Y131.593 E12.19762
G1 E12.14762 F3000.00000
G92 E0
G1 X169.387 Y140.709 F4800.000
G1 E1.00000 F3000.00000
G1 F720
G1 X198.193 Y169.515 E1.99106
G1 X198.428 Y169.156 E2.00149
G1 X169.282 Y140.011 E3.00425
G1 X168.993 Y139.129 E3.02682
G1 X198.651 Y168.787 E4.04720
G1 X198.866 Y168.408 E4.05779
G1 X168.834 Y138.376 E5.09105
G1 X168.749 Y137.698 E5.10766
G1 X199.056 Y168.005 E6.15038
G1 X199.247 Y167.603 E6.16121
G1 X168.714 Y137.070 E7.21171
G1 X168.714 Y136.476 E7.22614
G1 X199.403 Y167.165 E8.28198
G1 X199.557 Y166.726 E8.29329
G1 X168.770 Y135.939 E9.35254
G1 X168.841 Y135.417 E9.36534
G1 X199.681 Y166.257 E10.42639
G1 X199.797 Y165.779 E10.43835
G1 X168.945 Y134.928 E11.49979
G1 X168.994 Y134.697 E11.50554
G1 X169.071 Y134.461 E11.51158
G1 X199.881 Y165.271 E12.57160
G1 X199.952 Y164.748 E12.58443
G1 X169.216 Y134.013 E13.64188
G1 X169.385 Y133.588 E13.65300
G1 X199.984 Y164.187 E14.70574
G1 X200.002 Y163.612 E14.71974
G1 X169.568 Y133.178 E15.76681
G1 X169.772 Y132.789 E15.77749
G1 X199.959 Y162.976 E16.81605
G1 X199.929 Y162.560 E16.82619
G1 X199.885 Y162.308 E16.83240
G1 X169.990 Y132.413 E17.86094
G1 X170.225 Y132.055 E17.87136
G1 X199.759 Y161.589 E18.88747
G1 X199.529 Y160.766 E18.90826
G1 X170.475 Y131.712 E19.90788
G1 X170.740 Y131.384 E19.91814
G1 X199.511 Y160.155 E20.90802
G1 X199.023 Y159.074 F4800.000
G1 F720
G1 X188.338 Y148.389 E21.27563
G1 X188.686 Y148.574 E21.28522
G1 X189.305 Y148.762 E21.30096
G1 X197.639 Y157.097 E21.58769
G1 X197.559 Y156.924 E21.59232
G1 X197.408 Y156.272 E21.60859
G1 X189.968 Y148.832 E21.86458
G1 X190.372 Y148.812 E21.87443
G1 X190.513 Y148.784 E21.87793
G1 X197.391 Y155.662 E22.11457
G1 X197.426 Y155.201 E22.12580
G1 X197.447 Y155.125 E22.12773
G1 X191.006 Y148.684 E22.34935
G1 X191.426 Y148.510 E22.36041
G1 X197.580 Y154.664 E22.57213
G1 X197.617 Y154.533 E22.57545
