; generated by Slic3r Prusa Edition 1.41.0+win64 on 2019-06-28 at 18:55:52

; 

; external perimeters extrusion width = 0.45mm
; perimeters extrusion width = 0.45mm
; infill extrusion width = 0.45mm
; solid infill extrusion width = 0.45mm
; top infill extrusion width = 0.40mm

M107
M80 ; turn on PSU
M190 S50
M104 S190 ; start E heating
M17; enable motors
G28 X Y Z ; Home
G29 ; Autolevel
M109 S190
G90
G0 X0 Y0 F5000
G0 Z0 F5000
G91
G1 E8 F200
G90
; Filament gcode
G21 ; set units to millimeters
G90 ; use absolute coordinates
M82 ; use absolute distances for extrusion
G92 E0
G1 Z0.150 F4200.000
G1 E-1.00000 F3000.00000
G92 E0
G1 X132.297 Y124.966 F4200.000
G1 E1.00000 F3000.00000
G1 F720
G1 X133.160 Y124.225 E1.02755
G1 X134.016 Y123.669 E1.05228
G1 X163.734 Y106.761 E1.88080
G1 X164.778 Y106.331 E1.90816
G1 X165.625 Y106.182 E1.92899
G1 X203.687 Y103.134 E2.85427
G1 X212.009 Y103.123 E3.05592
G1 X213.124 Y103.261 E3.08315
G1 X214.173 Y103.664 E3.11038
G1 X215.094 Y104.307 E3.13762
G1 X215.836 Y105.159 E3.16498
G1 X248.872 Y157.407 E4.66289
G1 X249.408 Y158.402 E4.69029
G1 X249.941 Y160.016 E4.73148
G1 X250.121 Y161.374 E4.76466
G1 X250.114 Y179.267 E5.19825
G1 X249.926 Y180.544 E5.22953
G1 X249.378 Y182.163 E5.27095
G1 X248.743 Y183.287 E5.30224
G1 X247.710 Y184.534 E5.34147
G1 X246.604 Y185.447 E5.37621
G1 X245.052 Y186.283 E5.41892
G1 X243.758 Y186.681 E5.45174
G1 X242.007 Y186.877 E5.49443
G1 X137.908 Y186.876 E8.01695
G1 X136.224 Y186.677 E8.05803
G1 X134.961 Y186.286 E8.09007
G1 X133.431 Y185.465 E8.13214
G1 X132.374 Y184.610 E8.16508
G1 X131.734 Y183.921 E8.18788
G1 X131.170 Y183.148 E8.21108
G1 X130.687 Y182.286 E8.23502
G1 X130.369 Y181.525 E8.25500
G1 X129.990 Y180.093 E8.29089
G1 X129.877 Y178.257 E8.33546
G1 X129.888 Y130.322 E9.49701
G1 X130.073 Y128.987 E9.52968
G1 X130.618 Y127.361 E9.57123
G1 X131.261 Y126.217 E9.60303
G1 X132.259 Y125.012 E9.64094
G1 X132.580 Y125.279 F4200.000
G1 F720
G1 X133.415 Y124.556 E9.66769
G1 X134.223 Y124.032 E9.69103
G1 X163.935 Y107.127 E10.51939
G1 X164.894 Y106.733 E10.54451
G1 X165.661 Y106.598 E10.56340
G1 X203.718 Y103.551 E11.48853
G1 X212.009 Y103.541 E11.68942
G1 X213.027 Y103.667 E11.71429
G1 X213.985 Y104.037 E11.73916
G1 X214.825 Y104.627 E11.76403
G1 X215.497 Y105.402 E11.78890
G1 X248.519 Y157.630 E13.28622
G1 X249.024 Y158.568 E13.31205
G1 X249.534 Y160.112 E13.35144
G1 X249.703 Y161.391 E13.38272
G1 X249.697 Y179.233 E13.81506
G1 X249.521 Y180.441 E13.84464
G1 X248.998 Y181.990 E13.88426
G1 X248.397 Y183.053 E13.91385
G1 X247.401 Y184.252 E13.95162
G1 X246.368 Y185.101 E13.98402
G1 X244.884 Y185.900 E14.02486
G1 X243.674 Y186.272 E14.05554
G1 X242.003 Y186.459 E14.09627
G1 X137.922 Y186.458 E16.61835
G1 X136.309 Y186.268 E16.65771
G1 X135.119 Y185.899 E16.68790
G1 X133.657 Y185.113 E16.72813
G1 X132.657 Y184.303 E16.75930
G1 X132.055 Y183.653 E16.78079
G1 X131.514 Y182.911 E16.80303
G1 X130.754 Y181.362 E16.84484
G1 X130.402 Y180.020 E16.87845
G1 X130.295 Y178.255 E16.92131
G1 X130.305 Y130.347 E18.08221
G1 X130.479 Y129.088 E18.11300
G1 X131.000 Y127.528 E18.15286
G1 X131.607 Y126.451 E18.18281
G1 X132.542 Y125.325 E18.21828
; PURGING FINISHED
G1 F3360
G1 X133.382 Y124.584 E17.26828
G1 E17.21828 F3000.00000
G92 E0
G1 X179.211 Y135.957 F4200.000
G1 E1.00000 F3000.00000
G1 F720
G1 X183.796 Y135.957 E1.11112
G1 X183.796 Y177.543 E2.11882
G1 X179.211 Y177.543 E2.22993
G1 X179.211 Y136.017 E3.23618
G1 X179.628 Y136.375 F4200.000
G1 F720
G1 X183.378 Y136.375 E3.32705
G1 X183.378 Y177.125 E4.31449
G1 X179.628 Y177.125 E4.40536
G1 X179.628 Y136.435 E5.39136
G1 X179.616 Y135.975 F4200.000
G1 F3360
G1 X180.748 Y136.417 E4.44136
G1 E4.39136 F3000.00000
G92 E0
G1 X191.361 Y139.107 F4200.000
G1 E1.00000 F3000.00000
G1 F720
G1 X212.646 Y139.107 E1.51579
G1 X212.646 Y170.393 E2.27390
G1 X191.361 Y170.393 E2.78969
G1 X191.361 Y139.167 E3.54634
G1 X191.778 Y139.525 F4200.000
G1 F720
G1 X212.228 Y139.525 E4.04189
G1 X212.228 Y169.975 E4.77975
G1 X191.778 Y169.975 E5.27529
G1 X191.778 Y139.585 E6.01169
G1 X191.700 Y139.133 F4200.000
G1 F3360
G1 X192.898 Y139.582 E5.06169
G1 E5.01169 F3000.00000
G92 E0
G1 X144.361 Y139.107 F4200.000
G1 E1.00000 F3000.00000
G1 F720
G1 X165.646 Y139.107 E1.51579
G1 X165.646 Y170.393 E2.27390
G1 X144.361 Y170.393 E2.78969
G1 X144.361 Y139.167 E3.54634
G1 X144.778 Y139.525 F4200.000
G1 F720
G1 X165.228 Y139.525 E4.04189
G1 X165.228 Y169.975 E4.77975
G1 X144.778 Y169.975 E5.27529
G1 X144.778 Y139.585 E6.01169
G1 X144.700 Y139.133 F4200.000
G1 F3360
G1 X145.898 Y139.582 E5.06169
G1 E5.01169 F3000.00000
G92 E0
G1 X211.361 Y127.893 F4200.000
G1 E1.00000 F3000.00000
G1 F720
G1 X216.983 Y127.893 E1.13625
G1 X217.361 Y127.917 E1.14543
G1 X217.714 Y127.984 E1.15412
G1 X218.055 Y128.095 E1.16281
G1 X218.379 Y128.247 E1.17150
G1 X218.682 Y128.439 E1.18019
G1 X218.958 Y128.668 E1.18888
G1 X219.215 Y128.941 E1.19796
G1 X244.190 Y159.910 E2.16201
G1 X244.415 Y160.220 E2.17129
G1 X244.588 Y160.534 E2.17998
G1 X244.720 Y160.867 E2.18867
G1 X244.809 Y161.215 E2.19736
G1 X244.854 Y161.571 E2.20605
G1 X244.854 Y178.929 E2.62668
G1 X244.809 Y179.285 E2.63538
G1 X244.720 Y179.633 E2.64407
G1 X244.588 Y179.966 E2.65276
G1 X244.415 Y180.280 E2.66145
G1 X244.204 Y180.570 E2.67014
G1 X243.958 Y180.832 E2.67883
G1 X243.682 Y181.060 E2.68752
G1 X243.379 Y181.253 E2.69621
G1 X243.055 Y181.405 E2.70490
G1 X242.742 Y181.507 E2.71286
G1 X242.359 Y181.584 E2.72234
G1 X241.983 Y181.607 E2.73146
G1 X138.024 Y181.607 E5.25059
G1 X137.645 Y181.583 E5.25977
G1 X137.293 Y181.516 E5.26846
G1 X136.952 Y181.405 E5.27715
G1 X136.628 Y181.253 E5.28585
G1 X136.325 Y181.060 E5.29454
G1 X136.048 Y180.832 E5.30323
G1 X135.803 Y180.570 E5.31192
G1 X135.592 Y180.280 E5.32061
G1 X135.419 Y179.966 E5.32930
G1 X135.287 Y179.633 E5.33799
G1 X135.198 Y179.285 E5.34668
G1 X135.153 Y178.929 E5.35537
G1 X135.153 Y130.571 E6.52719
G1 X135.198 Y130.215 E6.53588
G1 X135.287 Y129.867 E6.54457
G1 X135.419 Y129.534 E6.55326
G1 X135.592 Y129.220 E6.56196
G1 X135.803 Y128.930 E6.57065
G1 X136.048 Y128.668 E6.57934
G1 X136.325 Y128.439 E6.58803
G1 X136.628 Y128.247 E6.59672
G1 X136.952 Y128.095 E6.60541
G1 X137.293 Y127.984 E6.61410
G1 X137.646 Y127.917 E6.62279
G1 X138.024 Y127.893 E6.63197
G1 X204.646 Y127.893 E8.24636
G1 X204.646 Y108.393 E8.71888
G1 X211.361 Y108.393 E8.88158
G1 X211.361 Y127.833 E9.35265
G1 X211.778 Y127.475 F4200.000
G1 F720
G1 X216.996 Y127.475 E9.47909
G1 X217.414 Y127.501 E9.48923
G1 X217.818 Y127.578 E9.49919
G1 X218.209 Y127.705 E9.50916
G1 X218.581 Y127.880 E9.51912
G1 X218.928 Y128.101 E9.52909
G1 X219.245 Y128.363 E9.53905
G1 X219.530 Y128.667 E9.54915
G1 X244.522 Y159.656 E10.51383
G1 X244.768 Y159.995 E10.52400
G1 X244.966 Y160.356 E10.53397
G1 X245.118 Y160.738 E10.54393
G1 X245.220 Y161.136 E10.55390
G1 X245.272 Y161.544 E10.56386
G1 X245.272 Y178.956 E10.98577
G1 X245.220 Y179.364 E10.99574
G1 X245.118 Y179.762 E11.00570
G1 X244.966 Y180.144 E11.01566
G1 X244.768 Y180.505 E11.02563
G1 X244.527 Y180.837 E11.03559
G1 X244.245 Y181.137 E11.04556
G1 X243.928 Y181.399 E11.05552
G1 X243.581 Y181.620 E11.06549
G1 X243.209 Y181.795 E11.07545
G1 X242.848 Y181.912 E11.08464
G1 X242.413 Y181.999 E11.09540
G1 X241.996 Y182.025 E11.10551
G1 X138.011 Y182.025 E13.62528
G1 X137.593 Y181.999 E13.63542
G1 X137.189 Y181.922 E13.64538
G1 X136.798 Y181.795 E13.65535
G1 X136.426 Y181.620 E13.66531
G1 X136.079 Y181.399 E13.67528
G1 X135.762 Y181.137 E13.68524
G1 X135.480 Y180.837 E13.69521
G1 X135.239 Y180.505 E13.70517
G1 X135.041 Y180.144 E13.71514
G1 X134.889 Y179.762 E13.72510
G1 X134.787 Y179.364 E13.73507
G1 X134.735 Y178.956 E13.74503
G1 X134.735 Y130.544 E14.91813
G1 X134.787 Y130.136 E14.92809
G1 X134.889 Y129.738 E14.93806
G1 X135.041 Y129.356 E14.94802
G1 X135.239 Y128.995 E14.95798
G1 X135.480 Y128.663 E14.96795
G1 X135.762 Y128.363 E14.97791
G1 X136.079 Y128.101 E14.98788
G1 X136.426 Y127.880 E14.99784
G1 X136.798 Y127.705 E15.00781
G1 X137.189 Y127.578 E15.01777
G1 X137.593 Y127.501 E15.02774
G1 X138.011 Y127.475 E15.03787
G1 X204.228 Y127.475 E16.64246
G1 X204.228 Y107.975 E17.11498
G1 X211.778 Y107.975 E17.29793
G1 X211.778 Y127.415 E17.76900
G1 X211.828 Y127.872 F4200.000
G1 X211.181 Y127.745
G1 F720
G1 X205.014 Y121.578 E17.98045
G1 X205.014 Y120.986 E17.99479
G1 X210.993 Y126.965 E18.19980
G1 X210.993 Y126.374 E18.21413
G1 X205.014 Y120.395 E18.41914
G1 X205.014 Y119.804 E18.43348
G1 X210.993 Y125.783 E18.63849
G1 X210.993 Y125.192 E18.65282
G1 X205.014 Y119.213 E18.85783
G1 X205.014 Y118.622 E18.87216
G1 X210.993 Y124.601 E19.07718
G1 X210.993 Y124.010 E19.09151
G1 X205.014 Y118.030 E19.29652
G1 X205.014 Y117.439 E19.31085
G1 X210.993 Y123.418 E19.51586
G1 X210.993 Y122.827 E19.53020
G1 X205.014 Y116.848 E19.73521
G1 X205.014 Y116.257 E19.74954
G1 X210.993 Y122.236 E19.95455
G1 X210.993 Y121.645 E19.96889
G1 X205.014 Y115.666 E20.17390
G1 X205.014 Y115.074 E20.18823
G1 X210.993 Y121.054 E20.39324
G1 X210.993 Y120.462 E20.40758
G1 X205.014 Y114.483 E20.61259
G1 X205.014 Y113.892 E20.62692
G1 X210.993 Y119.871 E20.83193
G1 X210.993 Y119.280 E20.84626
G1 X205.014 Y113.301 E21.05128
G1 X205.014 Y112.710 E21.06561
G1 X210.993 Y118.689 E21.27062
G1 X210.993 Y118.098 E21.28495
G1 X205.014 Y112.118 E21.48996
G1 X205.014 Y111.527 E21.50430
G1 X210.993 Y117.506 E21.70931
G1 X210.993 Y116.915 E21.72364
G1 X205.014 Y110.936 E21.92865
G1 X205.014 Y110.345 E21.94299
G1 X210.993 Y116.324 E22.14800
G1 X210.993 Y115.733 E22.16233
G1 X205.014 Y109.754 E22.36734
G1 X205.014 Y109.162 E22.38168
G1 X210.993 Y115.142 E22.58669
G1 X210.993 Y114.550 E22.60102
G1 X205.203 Y108.760 E22.79954
G1 X205.794 Y108.760 E22.81388
G1 X210.993 Y113.959 E22.99213
G1 X210.993 Y113.368 E23.00646
G1 X206.386 Y108.760 E23.16444
G1 X206.977 Y108.760 E23.17878
G1 X210.993 Y112.777 E23.31649
G1 X210.993 Y112.186 E23.33082
G1 X207.568 Y108.760 E23.44826
G1 X208.159 Y108.760 E23.46259
G1 X210.993 Y111.594 E23.55976
G1 X210.993 Y111.003 E23.57409
G1 X208.750 Y108.760 E23.65099
G1 X209.342 Y108.760 E23.66532
G1 X210.993 Y110.412 E23.72195
G1 X210.993 Y109.821 E23.73628
G1 X209.933 Y108.760 E23.77264
G1 X210.524 Y108.760 E23.78697
G1 X211.181 Y109.418 E23.80950
G1 F3360
G1 X210.524 Y108.760 E23.02130
G1 X210.333 Y108.760 E22.85950
G1 E22.80950 F3000.00000
G92 E0
G1 X211.509 Y128.072 F4200.000
G1 E1.00000 F3000.00000
G1 F720
G1 X244.614 Y161.177 E2.13510
G1 X244.674 Y161.829 F4200.000
G1 F720
G1 X205.014 Y122.169 E3.49497
G1 X205.014 Y122.760 E3.50931
G1 X244.486 Y162.232 E4.86273
G1 X244.486 Y162.823 E4.87706
G1 X205.014 Y123.351 E6.23048
G1 X205.014 Y123.942 E6.24482
G1 X244.486 Y163.415 E7.59824
G1 X244.486 Y164.006 E7.61257
G1 X205.014 Y124.534 E8.96599
G1 X205.014 Y125.125 E8.98033
G1 X244.486 Y164.597 E10.33375
G1 X244.486 Y165.188 E10.34808
G1 X205.014 Y125.716 E11.70151
G1 X205.014 Y126.307 E11.71584
G1 X244.486 Y165.779 E13.06926
G1 X244.486 Y166.371 E13.08360
G1 X205.014 Y126.898 E14.43702
G1 X205.014 Y127.490 E14.45135
G1 X244.486 Y166.962 E15.80477
G1 X244.486 Y167.553 E15.81911
G1 X205.014 Y128.081 E17.17253
G1 X205.014 Y128.260 E17.17689
G1 X204.602 Y128.260 E17.18686
G1 X244.486 Y168.144 E18.55440
G1 X244.486 Y168.735 E18.56873
G1 X204.011 Y128.260 E19.95654
G1 X203.420 Y128.260 E19.97087
G1 X244.486 Y169.327 E21.37894
G1 X244.486 Y169.918 E21.39328
G1 X202.829 Y128.260 E22.82162
G1 X202.238 Y128.260 E22.83596
G1 X244.486 Y170.509 E24.28458
G1 X244.486 Y171.100 E24.29891
G1 X213.014 Y139.628 E25.37803
G1 X213.014 Y140.219 E25.39236
G1 X244.486 Y171.691 E26.47148
G1 X244.486 Y172.283 E26.48581
G1 X213.014 Y140.810 E27.56493
G1 X213.014 Y141.402 E27.57927
G1 X244.486 Y172.874 E28.65838
G1 X244.486 Y173.465 E28.67272
G1 X213.014 Y141.993 E29.75184
G1 X213.014 Y142.584 E29.76617
G1 X244.486 Y174.056 E30.84529
G1 X244.486 Y174.647 E30.85962
G1 X213.014 Y143.175 E31.93874
G1 X213.014 Y143.766 E31.95307
G1 X244.486 Y175.239 E33.03219
G1 X244.486 Y175.830 E33.04652
G1 X213.014 Y144.358 E34.12564
G1 X213.014 Y144.949 E34.13998
G1 X244.486 Y176.421 E35.21909
G1 X244.486 Y177.012 E35.23343
G1 X213.014 Y145.540 E36.31255
G1 X213.014 Y146.131 E36.32688
G1 X244.486 Y177.603 E37.40600
G1 X244.486 Y178.195 E37.42033
G1 X213.014 Y146.722 E38.49945
G1 X213.014 Y147.314 E38.51378
G1 X244.486 Y178.786 E39.59290
G1 X244.486 Y178.906 E39.59582
G1 X244.422 Y179.313 E39.60581
G1 X213.014 Y147.905 E40.68273
G1 X213.014 Y148.496 E40.69706
G1 X244.275 Y179.757 E41.76894
G1 X244.064 Y180.137 E41.77948
G1 X213.014 Y149.087 E42.84413
G1 X213.014 Y149.678 E42.85847
G1 X243.800 Y180.464 E43.91404
G1 X243.488 Y180.744 E43.92419
G1 X213.014 Y150.270 E44.96909
G1 X213.014 Y150.861 E44.98343
G1 X243.121 Y180.968 E46.01574
G1 X242.919 Y181.063 E46.02115
G1 X242.697 Y181.135 E46.02681
G1 X213.014 Y151.452 E47.04458
G1 X213.014 Y152.043 E47.05892
G1 X242.196 Y181.225 E48.05952
G1 X241.619 Y181.240 E48.07351
G1 X213.014 Y152.634 E49.05433
G1 X213.014 Y153.226 E49.06866
G1 X241.028 Y181.240 E50.02920
G1 X240.437 Y181.240 E50.04354
G1 X213.014 Y153.817 E50.98381
G1 X213.014 Y154.408 E50.99814
G1 X239.845 Y181.240 E51.91814
G1 X239.254 Y181.240 E51.93248
G1 X213.014 Y154.999 E52.83221
G1 X213.014 Y155.590 E52.84654
G1 X238.663 Y181.240 E53.72600
G1 X238.072 Y181.240 E53.74033
G1 X213.014 Y156.182 E54.59952
G1 X213.014 Y156.773 E54.61385
G1 X237.481 Y181.240 E55.45277
G1 X236.889 Y181.240 E55.46710
G1 X213.014 Y157.364 E56.28575
G1 X213.014 Y157.955 E56.30008
G1 X236.298 Y181.240 E57.09845
G1 X235.707 Y181.240 E57.11279
G1 X213.014 Y158.546 E57.89089
G1 X213.014 Y159.138 E57.90522
G1 X235.116 Y181.240 E58.66306
G1 X234.525 Y181.240 E58.67739
G1 X213.014 Y159.729 E59.41495
G1 X213.014 Y160.320 E59.42928
G1 X233.933 Y181.240 E60.14657
G1 X233.342 Y181.240 E60.16091
G1 X213.014 Y160.911 E60.85793
G1 X213.014 Y161.502 E60.87226
G1 X232.751 Y181.240 E61.54901
G1 X232.160 Y181.240 E61.56334
G1 X213.014 Y162.094 E62.21982
G1 X213.014 Y162.685 E62.23415
G1 X231.569 Y181.240 E62.87036
G1 X230.977 Y181.240 E62.88469
G1 X213.014 Y163.276 E63.50063
G1 X213.014 Y163.867 E63.51496
G1 X230.386 Y181.240 E64.11062
G1 X229.795 Y181.240 E64.12496
G1 X213.014 Y164.458 E64.70035
G1 X213.014 Y165.050 E64.71468
G1 X229.204 Y181.240 E65.26981
G1 X228.613 Y181.240 E65.28414
G1 X213.014 Y165.641 E65.81899
G1 X213.014 Y166.232 E65.83332
G1 X228.021 Y181.240 E66.34790
G1 X227.430 Y181.240 E66.36224
G1 X213.014 Y166.823 E66.85655
G1 X213.014 Y167.414 E66.87088
G1 X226.839 Y181.240 E67.34492
G1 X226.248 Y181.240 E67.35925
G1 X213.014 Y168.006 E67.81302
G1 X213.014 Y168.597 E67.82735
G1 X225.657 Y181.240 E68.26085
G1 X225.065 Y181.240 E68.27518
G1 X213.014 Y169.188 E68.68840
G1 X213.014 Y169.779 E68.70274
G1 X224.474 Y181.240 E69.09569
G1 X223.883 Y181.240 E69.11002
G1 X213.014 Y170.370 E69.48271
G1 X213.014 Y170.760 E69.49216
G1 X212.813 Y170.760 E69.49704
G1 X223.292 Y181.240 E69.85635
G1 X222.701 Y181.240 E69.87068
G1 X212.222 Y170.760 E70.22999
G1 X211.630 Y170.760 E70.24432
G1 X222.109 Y181.240 E70.60363
G1 X221.518 Y181.240 E70.61796
G1 X211.039 Y170.760 E70.97727
G1 X210.448 Y170.760 E70.99160
G1 X220.927 Y181.240 E71.35091
G1 X220.336 Y181.240 E71.36524
G1 X209.857 Y170.760 E71.72455
G1 X209.266 Y170.760 E71.73888
G1 X219.745 Y181.240 E72.09819
G1 X219.153 Y181.240 E72.11252
G1 X208.674 Y170.760 E72.47183
G1 X208.083 Y170.760 E72.48616
G1 X218.562 Y181.240 E72.84547
G1 X217.971 Y181.240 E72.85980
G1 X207.492 Y170.760 E73.21911
G1 X206.901 Y170.760 E73.23344
G1 X217.380 Y181.240 E73.59275
G1 X216.789 Y181.240 E73.60709
G1 X206.310 Y170.760 E73.96639
G1 X205.718 Y170.760 E73.98073
G1 X216.197 Y181.240 E74.34003
G1 X215.606 Y181.240 E74.35437
G1 X205.127 Y170.760 E74.71367
G1 X204.536 Y170.760 E74.72801
G1 X215.015 Y181.240 E75.08731
G1 X214.424 Y181.240 E75.10165
G1 X203.945 Y170.760 E75.46095
G1 X203.354 Y170.760 E75.47529
G1 X213.833 Y181.240 E75.83459
G1 X213.241 Y181.240 E75.84893
G1 X202.762 Y170.760 E76.20823
G1 X202.171 Y170.760 E76.22257
G1 X212.650 Y181.240 E76.58187
G1 X212.059 Y181.240 E76.59621
G1 X201.580 Y170.760 E76.95552
