; generated by Slic3r Prusa Edition 1.41.0+win64 on 2019-04-20 at 20:28:31

; 

; external perimeters extrusion width = 0.45mm
; perimeters extrusion width = 0.45mm
; infill extrusion width = 0.45mm
; solid infill extrusion width = 0.45mm
; top infill extrusion width = 0.40mm

M107
M80 ; turn on PSU
M190 S50
M104 S190 ; start E heating
M17; enable motors
G28 X Y Z ; Home
G29 ; Autolevel
M109 S190
G90
G0 X0 Y0 F5000
G0 Z0 F5000
G91
G1 E8 F200
G90
; Filament gcode
G21 ; set units to millimeters
G90 ; use absolute coordinates
M82 ; use absolute distances for extrusion
G92 E0
G1 Z0.150 F4800.000
G1 E-1.00000 F3000.00000
G92 E0
G1 X127.103 Y100.234 F4800.000
G1 E1.00000 F3000.00000
G1 F720
G1 X132.351 Y93.753 E1.20209
G1 X138.071 Y88.023 E1.39827
G1 X144.924 Y82.474 E1.61194
G1 X151.725 Y78.066 E1.80834
G1 X159.359 Y74.198 E2.01570
G1 X166.924 Y71.301 E2.21200
G1 X174.980 Y69.143 E2.41409
G1 X183.207 Y67.840 E2.61593
G1 X191.535 Y67.404 E2.81802
G1 X199.853 Y67.841 E3.01986
G1 X208.085 Y69.145 E3.22182
G1 X216.131 Y71.300 E3.42366
G1 X223.907 Y74.285 E3.62550
G1 X231.338 Y78.071 E3.82759
G1 X238.324 Y82.607 E4.02943
G1 X244.802 Y87.851 E4.23139
G1 X250.535 Y93.575 E4.42769
G1 X256.084 Y100.427 E4.64136
G1 X260.493 Y107.229 E4.83777
G1 X264.361 Y114.862 E5.04513
G1 X267.259 Y122.432 E5.24156
G1 X269.416 Y130.483 E5.44352
G1 X270.718 Y138.705 E5.64523
G1 X271.154 Y147.028 E5.84719
G1 X270.718 Y155.351 E6.04916
G1 X269.416 Y163.578 E6.25099
G1 X267.260 Y171.629 E6.45296
G1 X264.361 Y179.199 E6.64939
G1 X260.493 Y186.832 E6.85674
G1 X256.084 Y193.635 E7.05317
G1 X250.535 Y200.487 E7.26684
G1 X244.807 Y206.207 E7.46299
G1 X238.325 Y211.455 E7.66509
G1 X231.339 Y215.991 E7.86692
G1 X223.908 Y219.777 E8.06902
G1 X216.137 Y222.759 E8.27072
G1 X208.081 Y224.918 E8.47281
G1 X199.849 Y226.222 E8.67478
G1 X191.525 Y226.658 E8.87675
G1 X183.207 Y226.222 E9.07858
G1 X174.981 Y224.919 E9.28042
G1 X166.930 Y222.763 E9.48238
G1 X159.359 Y219.864 E9.67881
G1 X151.726 Y215.996 E9.88617
G1 X144.924 Y211.587 E10.08260
G1 X138.071 Y206.038 E10.29627
G1 X132.352 Y200.310 E10.49242
G1 X127.104 Y193.828 E10.69451
G1 X122.570 Y186.847 E10.89622
G1 X118.782 Y179.411 E11.09844
G1 X115.799 Y171.640 E11.30015
G1 X113.640 Y163.584 E11.50224
G1 X112.337 Y155.352 E11.70421
G1 X111.901 Y147.034 E11.90604
G1 X112.337 Y138.711 E12.10801
G1 X113.641 Y130.473 E12.31010
G1 X115.797 Y122.428 E12.51194
G1 X118.782 Y114.652 E12.71377
G1 X122.567 Y107.220 E12.91587
G1 X127.071 Y100.285 E13.11625
G1 X127.421 Y100.512 F4800.000
G1 F720
G1 X132.659 Y94.035 E13.31809
G1 X138.367 Y88.319 E13.51384
G1 X145.151 Y82.825 E13.72540
G1 X151.934 Y78.428 E13.92127
G1 X159.510 Y74.587 E14.12708
G1 X167.053 Y71.698 E14.32282
G1 X175.062 Y69.552 E14.52373
G1 X183.246 Y68.256 E14.72451
G1 X191.530 Y67.822 E14.92554
G1 X199.805 Y68.256 E15.12632
G1 X207.994 Y69.552 E15.32723
G1 X216.002 Y71.698 E15.52813
G1 X223.738 Y74.667 E15.72891
G1 X231.130 Y78.433 E15.92994
G1 X238.079 Y82.945 E16.13072
G1 X244.523 Y88.162 E16.33163
G1 X250.240 Y93.870 E16.52738
G1 X255.734 Y100.655 E16.73893
G1 X260.131 Y107.438 E16.93481
G1 X263.971 Y115.013 E17.14061
G1 X266.861 Y122.557 E17.33636
G1 X269.006 Y130.565 E17.53726
G1 X270.302 Y138.749 E17.73805
G1 X270.737 Y147.034 E17.93907
G1 X270.303 Y155.308 E18.13985
G1 X269.006 Y163.497 E18.34076
G1 X266.860 Y171.506 E18.54167
G1 X263.892 Y179.241 E18.74245
G1 X260.126 Y186.633 E18.94347
G1 X255.613 Y193.583 E19.14426
G1 X250.396 Y200.026 E19.34516
G1 X244.689 Y205.743 E19.54091
G1 X237.904 Y211.237 E19.75246
G1 X231.121 Y215.634 E19.94834
G1 X223.546 Y219.474 E20.15414
G1 X216.002 Y222.364 E20.34989
G1 X207.994 Y224.509 E20.55079
G1 X199.810 Y225.806 E20.75158
G1 X191.525 Y226.240 E20.95261
G1 X183.250 Y225.806 E21.15339
G1 X175.062 Y224.509 E21.35429
G1 X167.053 Y222.364 E21.55520
G1 X159.317 Y219.395 E21.75598
G1 X151.925 Y215.629 E21.95701
G1 X144.976 Y211.117 E22.15779
G1 X138.532 Y205.900 E22.35870
G1 X132.816 Y200.192 E22.55445
G1 X127.321 Y193.407 E22.76600
G1 X122.924 Y186.624 E22.96187
G1 X119.084 Y179.049 E23.16768
G1 X116.195 Y171.505 E23.36342
G1 X114.049 Y163.497 E23.56433
G1 X112.752 Y155.308 E23.76524
G1 X112.319 Y147.028 E23.96614
G1 X112.752 Y138.754 E24.16692
G1 X114.049 Y130.565 E24.36783
G1 X116.195 Y122.556 E24.56873
G1 X119.164 Y114.821 E24.76951
G1 X122.930 Y107.429 E24.97054
G1 X127.388 Y100.562 E25.16892
G1 X128.635 Y101.378 F4800.000
G1 F720
G1 X133.737 Y95.070 E25.36551
G1 X139.468 Y89.329 E25.56209
G1 X145.785 Y84.203 E25.75920
G1 X152.603 Y79.766 E25.95632
G1 X159.847 Y76.066 E26.15344
G1 X167.438 Y73.143 E26.35055
G1 X175.294 Y71.030 E26.54767
G1 X183.327 Y69.749 E26.74479
G1 X191.442 Y69.316 E26.94171
G1 X191.757 Y69.324 E26.94934
G1 X199.728 Y69.749 E27.14278
G1 X207.762 Y71.030 E27.33990
G1 X215.617 Y73.143 E27.53702
G1 X223.208 Y76.066 E27.73413
G1 X230.414 Y79.744 E27.93017
G1 X237.199 Y84.151 E28.12622
G1 X243.505 Y89.255 E28.32280
G1 X249.230 Y94.972 E28.51885
G1 X254.355 Y101.288 E28.71596
G1 X258.792 Y108.106 E28.91308
G1 X262.493 Y115.350 E29.11020
G1 X265.353 Y122.778 E29.30307
G1 X265.465 Y123.097 E29.31127
G1 X267.561 Y130.949 E29.50819
G1 X268.825 Y138.985 E29.70531
G1 X269.243 Y147.108 E29.90242
G1 X268.812 Y155.210 E30.09901
G1 X267.538 Y163.222 E30.29559
G1 X265.436 Y171.057 E30.49217
G1 X262.529 Y178.631 E30.68875
G1 X258.848 Y185.860 E30.88533
G1 X254.433 Y192.666 E31.08191
G1 X249.319 Y198.992 E31.27903
G1 X243.587 Y204.733 E31.47561
G1 X237.270 Y209.858 E31.67272
G1 X230.453 Y214.296 E31.86984
G1 X223.208 Y217.996 E32.06696
G1 X215.617 Y220.919 E32.26408
G1 X207.610 Y223.064 E32.46494
G1 X199.574 Y224.329 E32.66207
G1 X191.450 Y224.746 E32.85918
G1 X183.349 Y224.315 E33.05576
G1 X175.337 Y223.041 E33.25234
G1 X167.502 Y220.939 E33.44893
G1 X159.928 Y218.032 E33.64551
G1 X152.698 Y214.351 E33.84209
G1 X145.892 Y209.937 E34.03867
G1 X139.583 Y204.837 E34.23525
G1 X133.826 Y199.090 E34.43236
G1 X128.700 Y192.774 E34.62948
G1 X124.263 Y185.956 E34.82660
G1 X120.563 Y178.711 E35.02372
G1 X117.703 Y171.284 E35.21659
G1 X117.590 Y170.965 E35.22478
G1 X115.494 Y163.113 E35.42171
G1 X114.230 Y155.077 E35.61882
G1 X113.812 Y146.953 E35.81594
G1 X114.244 Y138.853 E36.01252
G1 X115.517 Y130.840 E36.20910
G1 X117.619 Y123.005 E36.40569
G1 X120.527 Y115.431 E36.60227
G1 X124.207 Y108.202 E36.79885
G1 X128.602 Y101.428 E36.99451
G1 X128.953 Y101.656 F4800.000
G1 F720
G1 X134.055 Y95.341 E37.19121
G1 X139.756 Y89.632 E37.38674
G1 X146.040 Y84.535 E37.58279
G1 X152.821 Y80.122 E37.77885
G1 X160.027 Y76.443 E37.97491
G1 X167.578 Y73.537 E38.17096
G1 X175.392 Y71.436 E38.36702
G1 X183.382 Y70.164 E38.56308
G1 X191.456 Y69.734 E38.75900
G1 X191.743 Y69.741 E38.76596
G1 X199.673 Y70.164 E38.95841
G1 X207.664 Y71.436 E39.15447
G1 X215.477 Y73.537 E39.35053
G1 X223.028 Y76.443 E39.54657
G1 X230.196 Y80.100 E39.74157
G1 X236.962 Y84.496 E39.93709
G1 X243.233 Y89.573 E40.13261
G1 X248.927 Y95.259 E40.32760
G1 X254.024 Y101.543 E40.52366
G1 X258.436 Y108.325 E40.71971
G1 X262.116 Y115.531 E40.91577
G1 X264.962 Y122.926 E41.10779
G1 X265.064 Y123.213 E41.11518
G1 X267.150 Y131.025 E41.31110
G1 X268.409 Y139.017 E41.50716
G1 X268.825 Y147.097 E41.70321
G1 X268.397 Y155.155 E41.89874
G1 X267.127 Y163.145 E42.09479
G1 X265.035 Y170.938 E42.29031
G1 X262.143 Y178.471 E42.48584
G1 X258.480 Y185.661 E42.68136
G1 X254.089 Y192.430 E42.87688
G1 X249.001 Y198.720 E43.07294
G1 X243.299 Y204.430 E43.26847
G1 X237.016 Y209.527 E43.46452
G1 X230.234 Y213.939 E43.66058
G1 X223.028 Y217.619 E43.85664
G1 X215.477 Y220.525 E44.05269
G1 X207.534 Y222.653 E44.25196
G1 X199.541 Y223.912 E44.44802
G1 X191.461 Y224.329 E44.64407
G1 X183.404 Y223.900 E44.83959
G1 X175.435 Y222.635 E45.03512
G1 X167.620 Y220.538 E45.23118
G1 X160.088 Y217.646 E45.42670
G1 X152.898 Y213.984 E45.62223
G1 X146.129 Y209.592 E45.81775
G1 X139.855 Y204.519 E46.01327
G1 X134.129 Y198.802 E46.20932
G1 X129.032 Y192.519 E46.40538
G1 X124.619 Y185.737 E46.60144
G1 X120.940 Y178.531 E46.79750
G1 X118.093 Y171.136 E46.98952
G1 X117.991 Y170.849 E46.99690
G1 X115.905 Y163.037 E47.19282
G1 X114.647 Y155.045 E47.38888
G1 X114.230 Y146.965 E47.58493
G1 X114.658 Y138.907 E47.78046
G1 X115.928 Y130.917 E47.97651
G1 X118.020 Y123.124 E48.17204
G1 X120.913 Y115.591 E48.36756
G1 X124.575 Y108.401 E48.56309
G1 X128.920 Y101.706 E48.75650
G1 X129.270 Y101.933 F4800.000
G1 F720
G1 X134.373 Y95.613 E48.95333
G1 X140.044 Y89.935 E49.14780
G1 X146.294 Y84.866 E49.34279
G1 X153.040 Y80.479 E49.53779
G1 X160.207 Y76.820 E49.73279
G1 X167.718 Y73.931 E49.92778
G1 X175.489 Y71.842 E50.12278
G1 X183.437 Y70.578 E50.31778
G1 X191.469 Y70.151 E50.51269
G1 X199.619 Y70.578 E50.71045
G1 X207.566 Y71.842 E50.90544
G1 X215.337 Y73.931 E51.10044
G1 X222.848 Y76.820 E51.29543
G1 X229.977 Y80.457 E51.48937
G1 X236.708 Y84.827 E51.68383
G1 X242.946 Y89.876 E51.87830
G1 X248.624 Y95.547 E52.07276
G1 X253.692 Y101.797 E52.26776
G1 X258.080 Y108.543 E52.46276
G1 X261.738 Y115.711 E52.65775
G1 X264.571 Y123.074 E52.84893
G1 X264.663 Y123.330 E52.85551
G1 X266.739 Y131.101 E53.05042
G1 X267.992 Y139.050 E53.24542
G1 X268.407 Y147.086 E53.44041
G1 X267.983 Y155.100 E53.63488
G1 X266.721 Y163.047 E53.82988
G1 X264.641 Y170.799 E54.02434
G1 X261.756 Y178.311 E54.21933
G1 X258.113 Y185.461 E54.41380
G1 X253.744 Y192.193 E54.60826
G1 X248.683 Y198.449 E54.80326
G1 X243.011 Y204.127 E54.99773
G1 X236.761 Y209.196 E55.19273
G1 X230.015 Y213.583 E55.38772
G1 X222.848 Y217.242 E55.58272
G1 X215.337 Y220.131 E55.77772
G1 X207.458 Y222.242 E55.97538
G1 X199.509 Y223.495 E56.17038
G1 X191.473 Y223.911 E56.36538
G1 X183.459 Y223.486 E56.55984
G1 X175.532 Y222.228 E56.75431
G1 X167.760 Y220.144 E56.94931
G1 X160.268 Y217.269 E57.14377
G1 X153.097 Y213.616 E57.33877
G1 X146.366 Y209.247 E57.53323
G1 X140.126 Y204.201 E57.72770
G1 X134.432 Y198.515 E57.92269
G1 X129.363 Y192.264 E58.11769
G1 X124.975 Y185.519 E58.31269
G1 X121.317 Y178.351 E58.50769
G1 X118.484 Y170.988 E58.69886
G1 X118.393 Y170.732 E58.70544
G1 X116.316 Y162.961 E58.90035
G1 X115.063 Y155.012 E59.09535
G1 X114.648 Y146.976 E59.29034
G1 X115.072 Y138.962 E59.48481
G1 X116.335 Y131.015 E59.67980
G1 X118.414 Y123.263 E59.87427
G1 X121.299 Y115.751 E60.06926
G1 X124.942 Y108.601 E60.26373
G1 X129.238 Y101.984 E60.45490
G1 X129.587 Y102.211 F4800.000
G1 F720
G1 X129.656 Y102.105 E60.45793
G1 X134.690 Y95.884 E60.65187
G1 X140.332 Y90.238 E60.84528
G1 X146.549 Y85.198 E61.03922
G1 X153.259 Y80.835 E61.23315
G1 X160.388 Y77.197 E61.42709
G1 X167.858 Y74.325 E61.62103
G1 X175.587 Y72.249 E61.81497
G1 X183.491 Y70.992 E62.00891
G1 X191.482 Y70.569 E62.20280
G1 X199.564 Y70.992 E62.39891
G1 X207.468 Y72.249 E62.59285
G1 X215.198 Y74.325 E62.78679
G1 X222.668 Y77.197 E62.98072
G1 X229.778 Y80.824 E63.17413
G1 X236.471 Y85.172 E63.36753
G1 X242.674 Y90.194 E63.56094
G1 X248.321 Y95.835 E63.75435
G1 X253.361 Y102.052 E63.94828
G1 X257.724 Y108.762 E64.14222
G1 X261.361 Y115.891 E64.33616
G1 X264.180 Y123.222 E64.52649
G1 X264.261 Y123.446 E64.53227
G1 X266.328 Y131.177 E64.72617
G1 X267.575 Y139.082 E64.92011
G1 X267.990 Y147.075 E65.11404
G1 X267.568 Y155.045 E65.30745
G1 X266.314 Y162.950 E65.50139
G1 X264.247 Y170.659 E65.69479
G1 X261.379 Y178.131 E65.88873
G1 X257.757 Y185.243 E66.08213
G1 X253.400 Y191.956 E66.27607
G1 X248.365 Y198.178 E66.47001
G1 X242.723 Y203.824 E66.66342
G1 X236.506 Y208.864 E66.85736
G1 X229.797 Y213.227 E67.05129
G1 X222.668 Y216.865 E67.24523
G1 X215.198 Y219.737 E67.43917
G1 X207.382 Y221.831 E67.63524
G1 X199.476 Y223.079 E67.82917
G1 X191.484 Y223.493 E68.02311
G1 X183.513 Y223.072 E68.21652
G1 X175.609 Y221.818 E68.41046
G1 X167.879 Y219.744 E68.60439
G1 X160.428 Y216.882 E68.79780
G1 X153.297 Y213.249 E68.99174
G1 X146.602 Y208.903 E69.18514
G1 X140.397 Y203.883 E69.37855
G1 X134.735 Y198.227 E69.57249
G1 X129.694 Y192.010 E69.76643
G1 X125.332 Y185.300 E69.96036
G1 X121.694 Y178.171 E70.15430
G1 X118.875 Y170.840 E70.34463
G1 X118.794 Y170.615 E70.35041
G1 X116.727 Y162.885 E70.54431
G1 X115.480 Y154.980 E70.73825
G1 X115.066 Y146.987 E70.93218
G1 X115.487 Y139.017 E71.12559
G1 X116.741 Y131.112 E71.31952
G1 X118.808 Y123.403 E71.51293
G1 X121.676 Y115.931 E71.70687
G1 X125.299 Y108.819 E71.90028
G1 X129.555 Y102.261 E72.08972
G1 X129.905 Y102.488 F4800.000
G1 F720
G1 X130.000 Y102.342 E72.09395
G1 X135.008 Y96.156 E72.28682
G1 X140.620 Y90.541 E72.47918
G1 X146.803 Y85.529 E72.67205
G1 X153.477 Y81.191 E72.86493
G1 X160.568 Y77.574 E73.05781
G1 X167.997 Y74.719 E73.25069
G1 X175.685 Y72.655 E73.44357
G1 X183.546 Y71.407 E73.63644
G1 X191.494 Y70.987 E73.82931
G1 X199.509 Y71.407 E74.02379
G1 X207.370 Y72.655 E74.21667
G1 X215.058 Y74.719 E74.40955
G1 X222.488 Y77.574 E74.60243
G1 X229.559 Y81.180 E74.79477
G1 X236.234 Y85.516 E74.98765
G1 X242.403 Y90.512 E75.18000
G1 X248.018 Y96.123 E75.37235
G1 X253.029 Y102.307 E75.56523
G1 X257.367 Y108.980 E75.75811
G1 X260.984 Y116.071 E75.95098
G1 X263.790 Y123.371 E76.14049
G1 X263.860 Y123.564 E76.14546
G1 X265.917 Y131.253 E76.33833
G1 X267.159 Y139.115 E76.53121
G1 X267.572 Y147.064 E76.72409
G1 X267.152 Y155.012 E76.91697
G1 X265.903 Y162.874 E77.10985
G1 X263.847 Y170.540 E77.30219
G1 X260.993 Y177.971 E77.49507
G1 X257.389 Y185.043 E77.68742
G1 X253.055 Y191.720 E77.88029
G1 X248.047 Y197.906 E78.07317
G1 X242.436 Y203.521 E78.26552
G1 X236.252 Y208.533 E78.45840
G1 X229.578 Y212.871 E78.65128
G1 X222.488 Y216.487 E78.84416
G1 X215.058 Y219.343 E79.03704
G1 X207.306 Y221.420 E79.23151
G1 X199.444 Y222.662 E79.42439
G1 X191.495 Y223.075 E79.61726
G1 X183.568 Y222.657 E79.80961
G1 X175.706 Y221.411 E80.00249
G1 X168.018 Y219.350 E80.19537
G1 X160.608 Y216.505 E80.38772
G1 X153.515 Y212.893 E80.58060
G1 X146.857 Y208.571 E80.77294
G1 X140.669 Y203.565 E80.96582
G1 X135.038 Y197.939 E81.15870
G1 X130.026 Y191.755 E81.35158
G1 X125.688 Y185.081 E81.54445
G1 X122.071 Y177.991 E81.73733
G1 X119.265 Y170.691 E81.92683
G1 X119.195 Y170.498 E81.93181
G1 X117.138 Y162.809 E82.12468
G1 X115.897 Y154.947 E82.31756
G1 X115.483 Y146.998 E82.51044
G1 X115.901 Y139.071 E82.70278
G1 X117.147 Y131.210 E82.89566
G1 X119.209 Y123.522 E83.08854
G1 X122.062 Y116.091 E83.28142
G1 X125.666 Y109.018 E83.47376
G1 X129.872 Y102.539 E83.66096
G1 X130.332 Y102.596 F4800.000
G1 F720
G1 X135.312 Y96.443 E83.85278
G1 X140.907 Y90.844 E84.04460
G1 X147.058 Y85.861 E84.23642
G1 X153.695 Y81.547 E84.42824
G1 X160.748 Y77.952 E84.62006
G1 X168.137 Y75.113 E84.81187
G1 X175.783 Y73.062 E85.00369
G1 X183.601 Y71.821 E85.19551
G1 X191.506 Y71.404 E85.38734
G1 X191.677 Y71.411 E85.39148
G1 X199.454 Y71.821 E85.58021
G1 X207.273 Y73.062 E85.77203
G1 X214.918 Y75.113 E85.96385
G1 X222.308 Y77.952 E86.15566
G1 X229.341 Y81.536 E86.34695
G1 X235.980 Y85.848 E86.53877
G1 X242.115 Y90.815 E86.73006
G1 X247.714 Y96.411 E86.92188
G1 X252.698 Y102.561 E87.11370
G1 X257.011 Y109.199 E87.30552
G1 X260.607 Y116.251 E87.49734
G1 X263.400 Y123.520 E87.68602
G1 X263.459 Y123.681 E87.69020
G1 X265.506 Y131.329 E87.88203
G1 X266.742 Y139.148 E88.07385
G1 X267.154 Y147.053 E88.26567
G1 X266.737 Y154.958 E88.45749
G1 X265.497 Y162.776 E88.64931
G1 X263.453 Y170.401 E88.84059
G1 X260.616 Y177.791 E89.03241
G1 X257.033 Y184.825 E89.22370
G1 X252.724 Y191.465 E89.41552
G1 X247.744 Y197.619 E89.60734
G1 X242.148 Y203.218 E89.79916
G1 X235.997 Y208.201 E89.99098
G1 X229.360 Y212.514 E90.18280
G1 X222.308 Y216.110 E90.37461
G1 X214.918 Y218.949 E90.56643
G1 X207.230 Y221.009 E90.75931
G1 X199.411 Y222.245 E90.95113
G1 X191.506 Y222.657 E91.14295
G1 X183.622 Y222.243 E91.33424
G1 X175.804 Y221.005 E91.52606
G1 X168.158 Y218.956 E91.71787
G1 X160.768 Y216.119 E91.90969
G1 X153.714 Y212.525 E92.10151
G1 X147.093 Y208.227 E92.29280
G1 X140.940 Y203.247 E92.48462
G1 X135.341 Y197.651 E92.67644
G1 X130.357 Y191.501 E92.86825
G1 X126.044 Y184.863 E93.06007
G1 X122.448 Y177.811 E93.25189
G1 X119.656 Y170.542 E93.44058
G1 X119.596 Y170.380 E93.44475
G1 X117.549 Y162.733 E93.63659
G1 X116.313 Y154.914 E93.82841
