; generated by Slic3r Prusa Edition 1.41.0+win64 on 2019-05-27 at 20:31:48

; 

; external perimeters extrusion width = 0.45mm
; perimeters extrusion width = 0.45mm
; infill extrusion width = 0.45mm
; solid infill extrusion width = 0.45mm
; top infill extrusion width = 0.40mm

M107
M80 ; turn on PSU
M190 S50
M104 S190 ; start E heating
M17; enable motors
G28 X Y Z ; Home
G29 ; Autolevel
M109 S190
G90
G0 X0 Y0 F5000
G0 Z0 F5000
G91
G1 E8 F200
G90
; Filament gcode
G21 ; set units to millimeters
G90 ; use absolute coordinates
M82 ; use absolute distances for extrusion
G92 E0
G1 Z0.150 F4800.000
G1 E-1.00000 F3000.00000
G92 E0
G1 X77.143 Y80.808 F4800.000
G1 E1.00000 F3000.00000
G1 F720
G1 X79.968 Y80.373 E1.06928
G1 X300.005 Y80.373 E6.40118
G1 X302.317 Y80.683 E6.45771
G1 X303.153 Y80.907 E6.47866
G1 X305.254 Y81.950 E6.53551
G1 X306.193 Y82.667 E6.56414
G1 X307.798 Y84.355 E6.62058
G1 X308.934 Y86.469 E6.67874
G1 X309.289 Y87.535 E6.70597
G1 X309.625 Y89.889 E6.76358
G1 X309.620 Y195.255 E9.31680
G1 X308.924 Y199.480 E9.42055
G1 X308.666 Y200.125 E9.43740
G1 X307.145 Y203.106 E9.51848
G1 X306.495 Y204.010 E9.54545
G1 X304.142 Y206.369 E9.62621
G1 X303.075 Y207.162 E9.65842
G1 X300.124 Y208.666 E9.73867
G1 X299.448 Y208.934 E9.75629
G1 X295.052 Y209.626 E9.86414
G1 X84.915 Y209.626 E14.95614
G1 X80.545 Y208.931 E15.06336
G1 X79.879 Y208.668 E15.08073
G1 X76.918 Y207.158 E15.16127
G1 X75.994 Y206.499 E15.18876
G1 X73.638 Y204.150 E15.26938
G1 X72.838 Y203.075 E15.30184
G1 X71.331 Y200.119 E15.38224
G1 X71.068 Y199.453 E15.39961
G1 X70.374 Y195.099 E15.50643
G1 X70.374 Y89.926 E18.05499
G1 X70.815 Y87.120 E18.12381
G1 X71.065 Y86.471 E18.14067
G1 X71.915 Y84.806 E18.18595
G1 X72.488 Y83.997 E18.20998
G1 X73.806 Y82.668 E18.25534
G1 X74.861 Y81.885 E18.28717
G1 X76.478 Y81.062 E18.33113
G1 X77.087 Y80.830 E18.34692
G1 X77.253 Y81.211 F4800.000
G1 F720
G1 X79.971 Y80.791 E18.41356
G1 X300.005 Y80.791 E23.74539
G1 X302.244 Y81.095 E23.80015
G1 X303.003 Y81.297 E23.81916
G1 X305.036 Y82.307 E23.87419
G1 X305.901 Y82.965 E23.90052
G1 X307.457 Y84.597 E23.95517
G1 X308.555 Y86.644 E24.01145
G1 X308.882 Y87.628 E24.03656
G1 X309.208 Y89.906 E24.09232
G1 X309.203 Y195.228 E26.64448
G1 X308.526 Y199.354 E26.74580
G1 X306.783 Y202.897 E26.84147
G1 X306.181 Y203.734 E26.86646
G1 X303.850 Y206.070 E26.94641
G1 X302.873 Y206.796 E26.97591
G1 X299.942 Y208.290 E27.05563
G1 X299.330 Y208.533 E27.07158
G1 X295.048 Y209.209 E27.17664
G1 X84.929 Y209.208 E32.26821
G1 X80.665 Y208.531 E32.37284
G1 X80.058 Y208.290 E32.38866
G1 X77.121 Y206.793 E32.46854
G1 X76.269 Y206.185 E32.49390
G1 X73.934 Y203.854 E32.57385
G1 X73.204 Y202.874 E32.60346
G1 X71.710 Y199.942 E32.68320
G1 X71.469 Y199.335 E32.69903
G1 X70.792 Y195.088 E32.80324
G1 X70.792 Y89.934 E35.35131
G1 X71.216 Y87.238 E35.41745
G1 X72.276 Y85.017 E35.47709
G1 X72.809 Y84.266 E35.49940
G1 X74.097 Y82.967 E35.54373
G1 X75.067 Y82.249 E35.57298
G1 X77.199 Y81.237 E35.63016
; PURGING FINISHED
G1 F3840
G1 X78.463 Y81.034 E34.68016
G1 E34.63016 F3000.00000
G92 E0
G1 X180.433 Y141.042 F4800.000
G1 E1.00000 F3000.00000
G1 F720
G1 X180.835 Y140.282 E1.02083
G1 X181.396 Y139.722 E1.04004
G1 X182.135 Y139.345 E1.06015
G1 X182.904 Y139.223 E1.07900
G1 X236.378 Y139.223 E2.37478
G1 X237.147 Y139.345 E2.39364
G1 X237.884 Y139.722 E2.41372
G1 X238.472 Y140.308 E2.43383
G1 X238.847 Y141.047 E2.45392
G1 X238.970 Y141.815 E2.47277
G1 X238.970 Y198.051 E3.83547
G1 X238.847 Y198.819 E3.85432
G1 X238.472 Y199.558 E3.87441
G1 X237.884 Y200.145 E3.89452
G1 X237.147 Y200.521 E3.91460
G1 X236.378 Y200.643 E3.93346
G1 X182.904 Y200.643 E5.22923
G1 X182.135 Y200.521 E5.24809
G1 X181.396 Y200.145 E5.26819
G1 X180.809 Y199.558 E5.28829
G1 X180.433 Y198.819 E5.30839
G1 X180.311 Y198.050 E5.32725
G1 X180.311 Y141.816 E6.68992
G1 X180.424 Y141.101 E6.70744
G1 X180.835 Y141.176 F4800.000
G1 F720
G1 X181.175 Y140.533 E6.72506
G1 X181.644 Y140.064 E6.74115
G1 X182.266 Y139.747 E6.75804
G1 X182.936 Y139.641 E6.77450
G1 X236.345 Y139.641 E8.06868
G1 X237.016 Y139.747 E8.08514
G1 X237.636 Y140.064 E8.10201
G1 X238.130 Y140.557 E8.11892
G1 X238.445 Y141.178 E8.13580
G1 X238.552 Y141.848 E8.15226
G1 X238.552 Y198.018 E9.51335
G1 X238.445 Y198.689 E9.52981
G1 X238.130 Y199.310 E9.54669
G1 X237.636 Y199.802 E9.56359
G1 X237.016 Y200.119 E9.58046
G1 X236.345 Y200.225 E9.59692
G1 X182.936 Y200.225 E10.89111
G1 X182.266 Y200.119 E10.90756
G1 X181.644 Y199.802 E10.92446
G1 X181.152 Y199.310 E10.94134
G1 X180.835 Y198.689 E10.95824
G1 X180.729 Y198.018 E10.97470
G1 X180.729 Y141.849 E12.33578
G1 X180.826 Y141.235 E12.35082
G1 X180.571 Y140.876 F4800.000
G1 F3840
G1 X181.175 Y140.533 E11.76893
G1 X181.526 Y140.182 E11.40082
G1 E11.35082 F3000.00000
G92 E0
G1 X182.135 Y138.388 F4800.000
G1 E1.00000 F3000.00000
G1 F720
G1 X181.396 Y138.011 E1.02010
G1 X180.809 Y137.425 E1.04020
G1 X180.433 Y136.685 E1.06030
G1 X180.311 Y135.917 E1.07916
G1 X180.311 Y91.950 E2.14456
G1 X180.433 Y91.181 E2.16342
G1 X180.809 Y90.442 E2.18353
G1 X181.396 Y89.855 E2.20362
G1 X182.135 Y89.479 E2.22372
G1 X182.904 Y89.357 E2.24258
G1 X236.378 Y89.357 E3.53835
G1 X237.147 Y89.479 E3.55722
G1 X237.884 Y89.855 E3.57729
G1 X238.472 Y90.442 E3.59741
G1 X238.847 Y91.181 E3.61749
G1 X238.970 Y91.949 E3.63635
G1 X238.970 Y135.917 E4.70177
G1 X238.847 Y136.685 E4.72063
G1 X238.472 Y137.425 E4.74071
G1 X237.884 Y138.011 E4.76083
G1 X237.147 Y138.388 E4.78090
G1 X236.378 Y138.509 E4.79977
G1 X182.904 Y138.509 E6.09554
G1 X182.194 Y138.397 E6.11295
G1 X182.266 Y137.985 F4800.000
G1 F720
G1 X181.644 Y137.669 E6.12984
G1 X181.152 Y137.176 E6.14673
G1 X180.835 Y136.555 E6.16362
G1 X180.729 Y135.884 E6.18008
G1 X180.729 Y91.982 E7.24389
G1 X180.835 Y91.311 E7.26035
G1 X181.152 Y90.690 E7.27725
G1 X181.644 Y90.198 E7.29413
G1 X182.266 Y89.881 E7.31103
G1 X182.936 Y89.775 E7.32748
G1 X236.345 Y89.775 E8.62167
G1 X237.016 Y89.881 E8.63813
G1 X237.636 Y90.198 E8.65500
G1 X238.130 Y90.690 E8.67190
G1 X238.445 Y91.311 E8.68878
G1 X238.552 Y91.982 E8.70524
G1 X238.552 Y135.884 E9.76907
G1 X238.445 Y136.555 E9.78553
G1 X238.130 Y137.176 E9.80241
G1 X237.636 Y137.669 E9.81931
G1 X237.016 Y137.985 E9.83618
G1 X236.345 Y138.091 E9.85264
G1 X182.936 Y138.091 E11.14683
G1 X182.325 Y137.995 E11.16183
G1 X181.968 Y138.253 F4800.000
G1 F3840
G1 X181.644 Y137.669 E10.60189
G1 X181.273 Y137.297 E10.21183
G1 E10.16183 F3000.00000
G92 E0
G1 X132.809 Y91.176 F4800.000
G1 E1.00000 F3000.00000
G1 F720
G1 X133.210 Y90.416 E1.02082
G1 X133.771 Y89.855 E1.04004
G1 X134.510 Y89.479 E1.06014
G1 X135.279 Y89.357 E1.07900
G1 X177.005 Y89.357 E2.09010
G1 X177.773 Y89.479 E2.10896
G1 X178.512 Y89.855 E2.12906
G1 X179.099 Y90.442 E2.14916
G1 X179.475 Y91.181 E2.16926
G1 X179.597 Y91.950 E2.18812
G1 X179.597 Y198.050 E4.75914
G1 X179.475 Y198.819 E4.77800
G1 X179.099 Y199.558 E4.79810
G1 X178.512 Y200.145 E4.81820
G1 X177.773 Y200.521 E4.83830
G1 X177.005 Y200.643 E4.85716
G1 X135.279 Y200.643 E5.86825
G1 X134.510 Y200.521 E5.88711
G1 X133.771 Y200.145 E5.90721
G1 X133.184 Y199.558 E5.92731
G1 X132.808 Y198.819 E5.94741
G1 X132.686 Y198.050 E5.96627
G1 X132.686 Y91.950 E8.53729
G1 X132.799 Y91.235 E8.55482
G1 X133.210 Y91.310 F4800.000
G1 F720
G1 X133.550 Y90.667 E8.57243
G1 X134.019 Y90.198 E8.58852
G1 X134.641 Y89.881 E8.60541
G1 X135.311 Y89.775 E8.62187
G1 X176.972 Y89.775 E9.63138
G1 X177.643 Y89.881 E9.64784
G1 X178.264 Y90.198 E9.66473
G1 X178.757 Y90.690 E9.68162
G1 X179.073 Y91.311 E9.69851
G1 X179.179 Y91.982 E9.71497
G1 X179.179 Y198.018 E12.28440
G1 X179.073 Y198.689 E12.30086
G1 X178.757 Y199.310 E12.31775
G1 X178.264 Y199.802 E12.33464
G1 X177.643 Y200.119 E12.35153
G1 X176.972 Y200.225 E12.36799
G1 X135.311 Y200.225 E13.37750
G1 X134.641 Y200.119 E13.39396
G1 X134.019 Y199.802 E13.41085
G1 X133.527 Y199.310 E13.42774
G1 X133.210 Y198.689 E13.44463
G1 X133.104 Y198.018 E13.46109
G1 X133.104 Y91.982 E16.03052
G1 X133.201 Y91.369 E16.04557
G1 X132.946 Y91.010 F4800.000
G1 X131.850 Y91.181
G1 F720
G1 X131.972 Y91.950 E16.06443
G1 X131.972 Y198.050 E18.63545
G1 X131.850 Y198.819 E18.65431
G1 X131.474 Y199.558 E18.67441
G1 X130.887 Y200.145 E18.69451
G1 X130.148 Y200.521 E18.71461
G1 X129.380 Y200.643 E18.73347
G1 X89.949 Y200.643 E19.68893
G1 X86.709 Y200.130 E19.76844
G1 X83.739 Y198.616 E19.84920
G1 X81.384 Y196.260 E19.92993
G1 X79.870 Y193.291 E20.01070
G1 X79.357 Y190.051 E20.09019
G1 X79.357 Y92.950 E22.44313
G1 X79.527 Y91.872 E22.46956
G1 X80.047 Y90.854 E22.49727
G1 X80.853 Y90.047 E22.52492
G1 X81.872 Y89.527 E22.55262
G1 X82.950 Y89.357 E22.57906
G1 X129.380 Y89.357 E23.70414
G1 X130.148 Y89.479 E23.72300
G1 X130.887 Y89.855 E23.74311
G1 X131.474 Y90.442 E23.76320
G1 X131.823 Y91.127 E23.78185
G1 X131.448 Y91.311 F4800.000
G1 F720
G1 X131.554 Y91.982 E23.79831
G1 X131.554 Y198.018 E26.36774
G1 X131.448 Y198.689 E26.38420
G1 X131.132 Y199.310 E26.40109
G1 X130.639 Y199.802 E26.41798
G1 X130.018 Y200.119 E26.43487
G1 X129.347 Y200.225 E26.45133
G1 X89.982 Y200.225 E27.40520
G1 X86.840 Y199.727 E27.48231
G1 X83.988 Y198.274 E27.55986
G1 X81.726 Y196.012 E27.63739
G1 X80.272 Y193.160 E27.71494
G1 X79.775 Y190.018 E27.79204
G1 X79.775 Y92.982 E30.14339
G1 X79.929 Y92.003 E30.16742
G1 X80.389 Y91.102 E30.19191
G1 X81.102 Y90.389 E30.21636
G1 X82.003 Y89.930 E30.24085
G1 X82.982 Y89.775 E30.26489
G1 X129.347 Y89.775 E31.38839
G1 X130.018 Y89.881 E31.40484
G1 X130.639 Y90.198 E31.42174
G1 X131.132 Y90.690 E31.43862
G1 X131.421 Y91.258 E31.45406
G1 X131.839 Y91.395 F4800.000
G1 F3840
G1 X131.554 Y91.982 E30.90744
G1 X131.554 Y92.526 E30.50406
G1 E30.45406 F3000.00000
G92 E0
G1 X239.806 Y91.181 F4800.000
G1 E1.00000 F3000.00000
G1 F720
G1 X240.183 Y90.442 E1.02010
G1 X240.769 Y89.855 E1.04020
G1 X241.508 Y89.479 E1.06030
G1 X242.277 Y89.357 E1.07915
G1 X297.050 Y89.357 E2.40643
G1 X298.128 Y89.527 E2.43286
G1 X299.147 Y90.047 E2.46057
G1 X299.953 Y90.854 E2.48822
G1 X300.473 Y91.872 E2.51592
G1 X300.643 Y92.950 E2.54236
G1 X300.643 Y190.051 E4.89529
G1 X300.130 Y193.291 E4.97479
G1 X298.616 Y196.260 E5.05555
G1 X296.261 Y198.616 E5.13629
G1 X293.291 Y200.130 E5.21705
G1 X290.051 Y200.643 E5.29655
G1 X242.277 Y200.643 E6.45420
G1 X241.508 Y200.521 E6.47306
G1 X240.769 Y200.145 E6.49316
G1 X240.183 Y199.558 E6.51325
G1 X239.806 Y198.819 E6.53336
G1 X239.684 Y198.050 E6.55222
G1 X239.684 Y91.950 E9.12324
G1 X239.796 Y91.240 E9.14065
G1 X240.208 Y91.311 F4800.000
G1 F720
G1 X240.525 Y90.690 E9.15754
G1 X241.017 Y90.198 E9.17443
G1 X241.639 Y89.881 E9.19132
G1 X242.309 Y89.775 E9.20778
G1 X297.018 Y89.775 E10.53346
G1 X297.997 Y89.930 E10.55749
G1 X298.898 Y90.389 E10.58199
G1 X299.611 Y91.102 E10.60644
G1 X300.071 Y92.003 E10.63093
G1 X300.225 Y92.982 E10.65496
G1 X300.225 Y190.018 E13.00631
G1 X299.728 Y193.160 E13.08340
G1 X298.274 Y196.012 E13.16096
G1 X296.012 Y198.274 E13.23849
G1 X293.160 Y199.727 E13.31604
G1 X290.018 Y200.225 E13.39314
G1 X242.309 Y200.225 E14.54920
G1 X241.639 Y200.119 E14.56566
G1 X241.017 Y199.802 E14.58255
G1 X240.525 Y199.310 E14.59944
G1 X240.208 Y198.689 E14.61633
G1 X240.102 Y198.018 E14.63279
G1 X240.102 Y91.982 E17.20223
G1 X240.199 Y91.371 E17.21723
G1 X239.941 Y91.014 F4800.000
G1 F3840
G1 X240.525 Y90.690 E16.65729
G1 X240.896 Y90.319 E16.26723
G1 E16.21723 F3000.00000
G92 E0
G1 X301.344 Y85.864 F4800.000
G1 E1.00000 F3000.00000
G1 F720
G1 X302.556 Y86.482 E1.03296
G1 X303.518 Y87.444 E1.06595
G1 X304.136 Y88.656 E1.09891
G1 X304.357 Y90.051 E1.13312
G1 X304.357 Y194.949 E3.67502
G1 X303.892 Y197.889 E3.74713
G1 X302.564 Y200.495 E3.81802
G1 X300.495 Y202.563 E3.88889
G1 X297.889 Y203.892 E3.95978
G1 X294.949 Y204.357 E4.03190
G1 X85.051 Y204.357 E9.11814
G1 X82.111 Y203.892 E9.19025
G1 X79.505 Y202.563 E9.26115
G1 X77.436 Y200.495 E9.33202
G1 X76.108 Y197.889 E9.40291
G1 X75.643 Y194.949 E9.47502
G1 X75.643 Y90.051 E12.01691
G1 X75.864 Y88.656 E12.05112
G1 X76.481 Y87.444 E12.08409
G1 X77.444 Y86.482 E12.11708
G1 X78.656 Y85.864 E12.15004
G1 X80.051 Y85.643 E12.18425
G1 X300.027 Y85.655 E17.51468
G1 X301.285 Y85.855 E17.54554
G1 F3840
G1 X302.432 Y86.421 E16.59554
G1 E16.54554 F3000.00000
G92 E0
G1 X303.861 Y87.195 F4800.000
G1 E1.00000 F3000.00000
G1 F720
G1 X304.538 Y88.526 E1.03617
G1 X304.775 Y90.018 E1.07278
G1 X304.775 Y194.982 E3.61627
G1 X304.294 Y198.019 E3.69078
G1 X302.906 Y200.744 E3.76488
G1 X300.744 Y202.906 E3.83896
G1 X298.020 Y204.294 E3.91306
G1 X294.982 Y204.775 E3.98757
G1 X85.018 Y204.775 E9.07541
G1 X81.980 Y204.294 E9.14992
G1 X79.256 Y202.906 E9.22402
G1 X77.094 Y200.744 E9.29810
G1 X75.706 Y198.019 E9.37220
G1 X75.225 Y194.982 E9.44671
G1 X75.225 Y90.018 E11.99020
G1 X75.462 Y88.526 E12.02681
G1 X76.139 Y87.195 E12.06298
G1 X77.196 Y86.139 E12.09918
G1 X78.525 Y85.462 E12.13534
G1 X80.018 Y85.225 E12.17195
G1 X300.060 Y85.237 E17.50398
G1 X301.475 Y85.462 E17.53869
G1 X302.804 Y86.139 E17.57486
G1 X303.818 Y87.153 E17.60960
G1 X303.698 Y87.561 F4800.000
G1 X303.648 Y88.093
G1 F720
G1 X301.907 Y86.353 E17.66927
G1 F3840
G1 X302.812 Y87.258 E16.71927
G1 E16.66927 F3000.00000
G92 E0
G1 X304.017 Y89.054 F4800.000
G1 E1.00000 F3000.00000
G1 F720
G1 X301.172 Y86.209 E1.09753
G1 X300.470 Y86.098 E1.11477
G1 X303.902 Y89.530 E1.23244
G1 X303.990 Y90.080 E1.24593
G1 X303.990 Y90.208 E1.24905
G1 X299.804 Y86.023 E1.39254
G1 X299.213 Y86.023 E1.40687
G1 X303.990 Y90.800 E1.57062
G1 X303.990 Y91.391 E1.58495
G1 X298.622 Y86.023 E1.76897
G1 X298.030 Y86.023 E1.78330
G1 X303.990 Y91.982 E1.98758
G1 X303.990 Y92.573 E2.00191
G1 X297.439 Y86.023 E2.22645
G1 X296.848 Y86.023 E2.24078
G1 X303.990 Y93.164 E2.48559
G1 X303.990 Y93.755 E2.49991
G1 X296.257 Y86.023 E2.76498
G1 X295.666 Y86.022 E2.77931
G1 X303.990 Y94.346 E3.06465
G1 X303.990 Y94.937 E3.07897
G1 X300.830 Y91.778 E3.18727
G1 X300.941 Y92.480 E3.20449
G1 X303.990 Y95.528 E3.30900
G1 X303.990 Y96.119 E3.32332
G1 X301.010 Y93.140 E3.42545
G1 X301.010 Y93.731 E3.43978
G1 X303.990 Y96.710 E3.54190
G1 X303.990 Y97.301 E3.55623
G1 X301.010 Y94.322 E3.65835
G1 X301.010 Y94.913 E3.67268
G1 X303.990 Y97.892 E3.77480
G1 X303.990 Y98.483 E3.78913
G1 X301.010 Y95.504 E3.89126
G1 X301.010 Y96.095 E3.90558
G1 X303.990 Y99.075 E4.00771
G1 X303.990 Y99.666 E4.02204
G1 X301.010 Y96.687 E4.12416
G1 X301.010 Y97.278 E4.13849
G1 X303.990 Y100.257 E4.24061
G1 X303.990 Y100.848 E4.25494
G1 X301.010 Y97.869 E4.35706
G1 X301.010 Y98.460 E4.37139
G1 X303.990 Y101.439 E4.47352
G1 X303.990 Y102.030 E4.48784
G1 X301.010 Y99.051 E4.58997
G1 X301.010 Y99.642 E4.60430
G1 X303.990 Y102.621 E4.70642
G1 X303.990 Y103.212 E4.72075
G1 X301.010 Y100.233 E4.82287
G1 X301.010 Y100.824 E4.83720
G1 X303.990 Y103.803 E4.93932
G1 X303.990 Y104.394 E4.95365
G1 X301.010 Y101.415 E5.05578
G1 X301.010 Y102.006 E5.07010
G1 X303.990 Y104.985 E5.17223
G1 X303.990 Y105.576 E5.18656
G1 X301.010 Y102.597 E5.28868
G1 X301.010 Y103.188 E5.30301
G1 X303.990 Y106.167 E5.40513
G1 X303.990 Y106.758 E5.41946
G1 X301.010 Y103.779 E5.52158
G1 X301.010 Y104.370 E5.53591
G1 X303.990 Y107.350 E5.63804
G1 X303.990 Y107.941 E5.65236
G1 X301.010 Y104.962 E5.75449
G1 X301.010 Y105.553 E5.76882
G1 X303.990 Y108.532 E5.87094
G1 X303.990 Y109.123 E5.88527
G1 X301.010 Y106.144 E5.98739
G1 X301.010 Y106.735 E6.00172
G1 X303.990 Y109.714 E6.10384
G1 X303.990 Y110.305 E6.11817
G1 X301.010 Y107.326 E6.22030
G1 X301.010 Y107.917 E6.23462
G1 X303.990 Y110.896 E6.33675
G1 X303.990 Y111.487 E6.35108
G1 X301.010 Y108.508 E6.45320
G1 X301.010 Y109.099 E6.46753
G1 X303.990 Y112.078 E6.56965
G1 X303.990 Y112.669 E6.58398
G1 X301.010 Y109.690 E6.68610
G1 X301.010 Y110.281 E6.70043
G1 X303.990 Y113.260 E6.80256
G1 X303.990 Y113.851 E6.81688
G1 X301.010 Y110.872 E6.91901
G1 X301.010 Y111.463 E6.93334
G1 X303.990 Y114.442 E7.03546
G1 X303.990 Y115.033 E7.04979
G1 X301.010 Y112.054 E7.15191
G1 X301.010 Y112.645 E7.16624
G1 X303.990 Y115.625 E7.26836
G1 X303.990 Y116.216 E7.28269
G1 X301.010 Y113.237 E7.38482
G1 X301.010 Y113.828 E7.39914
G1 X303.990 Y116.807 E7.50127
G1 X303.990 Y117.398 E7.51560
G1 X301.010 Y114.419 E7.61772
