; generated by Slic3r Prusa Edition 1.41.0+win64 on 2019-06-11 at 21:08:20

; 

; external perimeters extrusion width = 0.45mm
; perimeters extrusion width = 0.45mm
; infill extrusion width = 0.45mm
; solid infill extrusion width = 0.45mm
; top infill extrusion width = 0.40mm

M107
M80 ; turn on PSU
M190 S50
M104 S190 ; start E heating
M17; enable motors
G28 X Y Z ; Home
G29 ; Autolevel
M109 S190
G90
G0 X0 Y0 F5000
G0 Z0 F5000
G91
G1 E8 F200
G90
; Filament gcode
G21 ; set units to millimeters
G90 ; use absolute coordinates
M82 ; use absolute distances for extrusion
G92 E0
G1 Z0.150 F4200.000
G1 E-1.00000 F3000.00000
G92 E0
G1 X166.546 Y138.567 F4200.000
G1 E1.00000 F3000.00000
G1 F720
G1 X167.339 Y137.636 E1.02964
G1 X182.385 Y122.591 E1.54523
G1 X183.227 Y121.811 E1.57305
G1 X184.148 Y121.132 E1.60076
G1 X185.720 Y120.278 E1.64413
G1 X186.764 Y119.878 E1.67120
G1 X188.005 Y119.562 E1.70224
G1 X189.281 Y119.398 E1.73341
G1 X190.382 Y119.385 E1.76010
G1 X191.972 Y119.558 E1.79886
G1 X193.491 Y119.966 E1.83697
G1 X194.521 Y120.383 E1.86389
G1 X195.476 Y120.898 E1.89019
G1 X196.759 Y121.799 E1.92817
G1 X212.675 Y137.651 E2.47252
G1 X213.748 Y138.974 E2.51379
G1 X214.336 Y139.924 E2.54085
G1 X214.879 Y141.085 E2.57191
G1 X215.280 Y142.307 E2.60308
G1 X215.500 Y143.397 E2.63001
G1 X215.626 Y145.076 E2.67082
G1 X215.503 Y146.591 E2.70765
G1 X215.291 Y147.649 E2.73381
G1 X214.957 Y148.704 E2.76062
G1 X214.312 Y150.121 E2.79834
G1 X213.454 Y151.433 E2.83633
G1 X212.660 Y152.364 E2.86597
G1 X197.611 Y167.413 E3.38168
G1 X196.773 Y168.189 E3.40938
G1 X195.848 Y168.871 E3.43721
G1 X194.265 Y169.728 E3.48084
G1 X193.231 Y170.123 E3.50765
G1 X191.979 Y170.441 E3.53895
G1 X190.709 Y170.603 E3.56999
G1 X189.549 Y170.614 E3.59809
G1 X188.002 Y170.437 E3.63583
G1 X186.494 Y170.028 E3.67368
G1 X185.479 Y169.617 E3.70022
G1 X184.519 Y169.100 E3.72665
G1 X183.237 Y168.197 E3.76463
G1 X167.321 Y152.345 E4.30897
G1 X166.252 Y151.026 E4.35012
G1 X165.664 Y150.076 E4.37718
G1 X165.121 Y148.915 E4.40824
G1 X164.720 Y147.693 E4.43941
G1 X164.500 Y146.603 E4.46634
G1 X164.374 Y144.924 E4.50715
G1 X164.497 Y143.409 E4.54398
G1 X164.709 Y142.350 E4.57014
G1 X165.043 Y141.296 E4.59696
G1 X165.688 Y139.879 E4.63467
G1 X166.513 Y138.617 E4.67120
G1 X166.862 Y138.845 F4200.000
G1 F720
G1 X167.638 Y137.928 E4.70032
G1 X182.675 Y122.892 E5.21561
G1 X183.492 Y122.134 E5.24260
G1 X184.381 Y121.479 E5.26937
G1 X185.880 Y120.664 E5.31071
G1 X186.883 Y120.279 E5.33676
G1 X188.086 Y119.972 E5.36683
G1 X189.312 Y119.814 E5.39679
G1 X190.382 Y119.803 E5.42271
G1 X191.897 Y119.969 E5.45965
G1 X193.350 Y120.360 E5.49610
G1 X194.341 Y120.760 E5.52200
G1 X195.274 Y121.263 E5.54768
G1 X196.503 Y122.130 E5.58413
G1 X212.375 Y137.942 E6.12702
G1 X213.396 Y139.199 E6.16627
G1 X213.965 Y140.117 E6.19243
G1 X214.490 Y141.237 E6.22240
G1 X214.876 Y142.416 E6.25247
G1 X215.090 Y143.474 E6.27863
G1 X215.208 Y145.070 E6.31741
G1 X215.092 Y146.514 E6.35251
G1 X214.887 Y147.543 E6.37793
G1 X214.562 Y148.567 E6.40398
G1 X213.944 Y149.922 E6.44005
G1 X213.121 Y151.181 E6.47650
G1 X212.362 Y152.072 E6.50487
G1 X197.321 Y167.112 E7.02029
G1 X196.508 Y167.866 E7.04715
G1 X195.615 Y168.524 E7.07404
G1 X194.110 Y169.340 E7.11551
G1 X193.112 Y169.723 E7.14143
G1 X191.904 Y170.030 E7.17162
G1 X190.673 Y170.187 E7.20170
G1 X189.552 Y170.197 E7.22885
G1 X188.083 Y170.027 E7.26470
G1 X186.636 Y169.635 E7.30102
G1 X185.654 Y169.238 E7.32668
G1 X184.722 Y168.735 E7.35236
G1 X183.493 Y167.867 E7.38881
G1 X167.622 Y152.055 E7.93169
G1 X166.604 Y150.801 E7.97082
G1 X166.035 Y149.883 E7.99699
G1 X165.510 Y148.764 E8.02695
G1 X165.124 Y147.584 E8.05702
G1 X164.910 Y146.526 E8.08319
G1 X164.792 Y144.930 E8.12197
G1 X164.908 Y143.486 E8.15706
G1 X165.113 Y142.457 E8.18249
G1 X165.438 Y141.433 E8.20853
G1 X166.056 Y140.078 E8.24461
G1 X166.829 Y138.895 E8.27885
; PURGING FINISHED
G1 F3360
G1 X167.548 Y138.037 E7.32885
G1 E7.27885 F3000.00000
G92 E0
G1 X186.601 Y156.808 F4200.000
G1 E1.00000 F3000.00000
G1 F720
G1 X187.028 Y156.407 E1.01419
G1 X187.502 Y156.063 E1.02838
G1 X188.015 Y155.781 E1.04257
G1 X188.559 Y155.565 E1.05676
G1 X189.126 Y155.420 E1.07094
G1 X189.707 Y155.346 E1.08513
G1 X190.293 Y155.346 E1.09932
G1 X190.874 Y155.420 E1.11351
G1 X191.441 Y155.565 E1.12770
G1 X191.985 Y155.781 E1.14189
G1 X192.498 Y156.063 E1.15608
G1 X192.972 Y156.407 E1.17027
G1 X193.399 Y156.808 E1.18445
G1 X193.772 Y157.259 E1.19864
G1 X194.086 Y157.754 E1.21283
G1 X194.335 Y158.284 E1.22702
G1 X194.517 Y158.844 E1.24130
G1 X194.628 Y159.445 E1.25611
G1 X194.663 Y160.000 E1.26958
G1 X194.626 Y160.584 E1.28377
G1 X194.516 Y161.160 E1.29796
G1 X194.335 Y161.716 E1.31215
G1 X194.086 Y162.246 E1.32634
G1 X193.772 Y162.741 E1.34053
G1 X193.399 Y163.192 E1.35472
G1 X192.972 Y163.593 E1.36890
G1 X192.498 Y163.937 E1.38309
G1 X191.985 Y164.219 E1.39728
G1 X191.441 Y164.435 E1.41147
G1 X190.874 Y164.580 E1.42566
G1 X190.293 Y164.654 E1.43985
G1 X189.707 Y164.654 E1.45404
G1 X189.126 Y164.580 E1.46823
G1 X188.559 Y164.435 E1.48242
G1 X188.015 Y164.219 E1.49660
G1 X187.502 Y163.937 E1.51080
G1 X187.028 Y163.593 E1.52498
G1 X186.601 Y163.192 E1.53917
G1 X186.228 Y162.741 E1.55336
G1 X185.914 Y162.246 E1.56755
G1 X185.665 Y161.716 E1.58174
G1 X185.483 Y161.156 E1.59601
G1 X185.372 Y160.555 E1.61083
G1 X185.337 Y160.000 E1.62430
G1 X185.374 Y159.416 E1.63849
G1 X185.484 Y158.840 E1.65268
G1 X185.665 Y158.284 E1.66687
G1 X185.914 Y157.754 E1.68106
G1 X186.228 Y157.259 E1.69524
G1 X186.563 Y156.854 E1.70798
G1 X186.885 Y157.121 F4200.000
G1 F720
G1 X187.295 Y156.730 E1.72171
G1 X187.726 Y156.417 E1.73462
G1 X188.193 Y156.160 E1.74754
G1 X188.689 Y155.964 E1.76045
G1 X189.205 Y155.831 E1.77337
G1 X189.733 Y155.764 E1.78628
G1 X190.267 Y155.764 E1.79920
G1 X190.795 Y155.831 E1.81211
G1 X191.311 Y155.964 E1.82502
G1 X191.807 Y156.160 E1.83794
G1 X192.274 Y156.417 E1.85086
G1 X192.705 Y156.730 E1.86377
G1 X193.094 Y157.095 E1.87668
G1 X193.434 Y157.505 E1.88960
G1 X193.719 Y157.955 E1.90252
G1 X193.946 Y158.438 E1.91543
G1 X194.111 Y158.947 E1.92840
G1 X194.212 Y159.496 E1.94194
G1 X194.244 Y160.000 E1.95417
G1 X194.211 Y160.532 E1.96709
G1 X194.111 Y161.055 E1.98000
G1 X193.946 Y161.562 E1.99291
G1 X193.719 Y162.045 E2.00583
G1 X193.434 Y162.495 E2.01874
G1 X193.094 Y162.905 E2.03166
G1 X192.705 Y163.270 E2.04457
G1 X192.274 Y163.583 E2.05749
G1 X191.807 Y163.840 E2.07041
G1 X191.311 Y164.036 E2.08332
G1 X190.795 Y164.169 E2.09624
G1 X190.267 Y164.236 E2.10915
G1 X189.733 Y164.236 E2.12207
G1 X189.205 Y164.169 E2.13498
G1 X188.689 Y164.036 E2.14789
G1 X188.193 Y163.840 E2.16081
G1 X187.726 Y163.583 E2.17373
G1 X187.295 Y163.270 E2.18664
G1 X186.906 Y162.905 E2.19955
G1 X186.566 Y162.495 E2.21247
G1 X186.281 Y162.045 E2.22539
G1 X186.054 Y161.562 E2.23830
G1 X185.889 Y161.053 E2.25127
G1 X185.788 Y160.504 E2.26481
G1 X185.756 Y160.000 E2.27704
G1 X185.789 Y159.468 E2.28996
G1 X185.889 Y158.945 E2.30287
G1 X186.054 Y158.438 E2.31578
G1 X186.281 Y157.955 E2.32870
G1 X186.566 Y157.505 E2.34161
G1 X186.847 Y157.167 E2.35226
G1 X187.168 Y157.433 F4200.000
G1 F720
G1 X187.562 Y157.052 E2.36552
G1 X187.950 Y156.770 E2.37716
G1 X188.371 Y156.539 E2.38881
G1 X188.818 Y156.362 E2.40045
G1 X189.283 Y156.242 E2.41209
G1 X189.760 Y156.182 E2.42373
G1 X190.240 Y156.182 E2.43537
G1 X190.717 Y156.242 E2.44701
G1 X191.182 Y156.362 E2.45865
G1 X191.629 Y156.539 E2.47029
G1 X192.050 Y156.770 E2.48193
G1 X192.438 Y157.052 E2.49357
G1 X192.789 Y157.381 E2.50521
G1 X193.095 Y157.751 E2.51686
G1 X193.352 Y158.157 E2.52850
G1 X193.557 Y158.592 E2.54014
G1 X193.705 Y159.049 E2.55180
G1 X193.797 Y159.547 E2.56407
G1 X193.825 Y160.000 E2.57506
G1 X193.795 Y160.479 E2.58670
G1 X193.705 Y160.951 E2.59834
G1 X193.557 Y161.408 E2.60998
G1 X193.352 Y161.843 E2.62162
G1 X193.095 Y162.249 E2.63326
G1 X192.789 Y162.619 E2.64490
G1 X192.438 Y162.948 E2.65654
G1 X192.050 Y163.230 E2.66818
G1 X191.629 Y163.461 E2.67983
G1 X191.182 Y163.638 E2.69147
G1 X190.717 Y163.758 E2.70311
G1 X190.240 Y163.818 E2.71475
G1 X189.760 Y163.818 E2.72639
G1 X189.283 Y163.758 E2.73803
G1 X188.818 Y163.638 E2.74967
G1 X188.371 Y163.461 E2.76131
G1 X187.950 Y163.230 E2.77295
G1 X187.562 Y162.948 E2.78460
G1 X187.211 Y162.619 E2.79624
G1 X186.905 Y162.249 E2.80788
G1 X186.648 Y161.843 E2.81952
G1 X186.443 Y161.408 E2.83116
G1 X186.295 Y160.951 E2.84282
G1 X186.203 Y160.453 E2.85509
G1 X186.175 Y160.000 E2.86608
G1 X186.205 Y159.521 E2.87772
G1 X186.295 Y159.049 E2.88936
G1 X186.443 Y158.592 E2.90100
G1 X186.648 Y158.157 E2.91264
G1 X186.905 Y157.751 E2.92428
G1 X187.130 Y157.479 E2.93284
G1 X187.048 Y157.052 F4200.000
G1 X186.275 Y156.772
G1 F720
G1 X186.401 Y156.620 E2.93762
G1 X186.853 Y156.196 E2.95264
G1 X187.354 Y155.831 E2.96766
G1 X187.898 Y155.533 E2.98269
G1 X188.474 Y155.304 E2.99771
G1 X189.075 Y155.150 E3.01274
G1 X189.686 Y155.073 E3.02767
G1 X190.350 Y155.077 E3.04374
G1 X190.925 Y155.150 E3.05780
G1 X191.526 Y155.304 E3.07283
G1 X192.102 Y155.533 E3.08785
G1 X192.646 Y155.831 E3.10288
G1 X193.147 Y156.196 E3.11790
G1 X193.599 Y156.620 E3.13293
G1 X193.994 Y157.098 E3.14795
G1 X194.327 Y157.621 E3.16297
G1 X194.591 Y158.183 E3.17800
G1 X194.782 Y158.772 E3.19303
G1 X194.898 Y159.381 E3.20805
G1 X194.935 Y159.960 E3.22211
G1 X194.898 Y160.622 E3.23818
G1 X194.782 Y161.228 E3.25311
G1 X194.591 Y161.817 E3.26814
G1 X194.327 Y162.379 E3.28316
G1 X193.994 Y162.902 E3.29819
G1 X193.625 Y163.349 E3.31225
G1 X193.144 Y163.806 E3.32832
G1 X192.646 Y164.169 E3.34325
G1 X192.102 Y164.467 E3.35828
G1 X191.526 Y164.696 E3.37330
G1 X190.925 Y164.850 E3.38833
G1 X190.310 Y164.928 E3.40335
G1 X189.690 Y164.928 E3.41837
G1 X189.075 Y164.850 E3.43340
G1 X188.474 Y164.696 E3.44842
G1 X187.898 Y164.467 E3.46345
G1 X187.354 Y164.169 E3.47847
G1 X186.853 Y163.804 E3.49350
G1 X186.401 Y163.380 E3.50852
G1 X186.006 Y162.902 E3.52355
G1 X185.673 Y162.379 E3.53857
G1 X185.409 Y161.817 E3.55360
G1 X185.230 Y161.266 E3.56766
G1 X185.101 Y160.615 E3.58372
G1 X185.063 Y160.000 E3.59866
G1 X185.102 Y159.381 E3.61368
G1 X185.218 Y158.772 E3.62871
G1 X185.409 Y158.183 E3.64373
G1 X185.673 Y157.621 E3.65876
G1 X186.006 Y157.098 E3.67378
G1 X186.237 Y156.818 E3.68258
G1 X186.096 Y156.334 F4200.000
G1 F720
G1 X186.586 Y155.873 E3.69887
G1 X187.130 Y155.478 E3.71517
G1 X187.720 Y155.154 E3.73147
G1 X188.345 Y154.906 E3.74777
G1 X188.996 Y154.739 E3.76407
G1 X189.662 Y154.655 E3.78031
G1 X190.377 Y154.660 E3.79766
G1 X191.004 Y154.739 E3.81295
G1 X191.655 Y154.906 E3.82925
G1 X192.280 Y155.154 E3.84555
G1 X192.870 Y155.478 E3.86185
G1 X193.414 Y155.873 E3.87815
G1 X193.904 Y156.334 E3.89445
G1 X194.333 Y156.852 E3.91074
G1 X194.693 Y157.420 E3.92704
G1 X194.980 Y158.028 E3.94334
G1 X195.188 Y158.668 E3.95964
G1 X195.314 Y159.329 E3.97594
G1 X195.353 Y159.959 E3.99124
G1 X195.313 Y160.673 E4.00858
G1 X195.188 Y161.332 E4.02482
G1 X194.980 Y161.972 E4.04112
G1 X194.693 Y162.580 E4.05742
G1 X194.333 Y163.148 E4.07372
G1 X193.931 Y163.635 E4.08902
G1 X193.412 Y164.128 E4.10636
G1 X192.870 Y164.522 E4.12261
G1 X192.280 Y164.846 E4.13891
G1 X191.655 Y165.094 E4.15520
G1 X191.004 Y165.261 E4.17150
G1 X190.336 Y165.345 E4.18780
G1 X189.664 Y165.345 E4.20410
G1 X188.996 Y165.261 E4.22040
G1 X188.345 Y165.094 E4.23670
G1 X187.720 Y164.846 E4.25300
G1 X187.130 Y164.522 E4.26929
G1 X186.586 Y164.127 E4.28559
G1 X186.096 Y163.666 E4.30189
G1 X185.667 Y163.148 E4.31819
G1 X185.307 Y162.580 E4.33449
G1 X185.020 Y161.972 E4.35079
G1 X184.825 Y161.371 E4.36608
G1 X184.686 Y160.669 E4.38343
G1 X184.644 Y160.000 E4.39967
G1 X184.686 Y159.329 E4.41597
G1 X184.812 Y158.668 E4.43227
G1 X185.020 Y158.028 E4.44857
G1 X185.307 Y157.420 E4.46487
G1 X185.667 Y156.852 E4.48116
G1 X186.057 Y156.380 E4.49601
G1 X185.736 Y156.114 F4200.000
G1 F720
G1 X186.319 Y155.551 E4.51566
G1 X186.906 Y155.124 E4.53323
G1 X187.541 Y154.775 E4.55080
G1 X188.216 Y154.508 E4.56837
G1 X188.918 Y154.328 E4.58595
G1 X189.637 Y154.237 E4.60350
G1 X190.405 Y154.242 E4.62212
G1 X191.082 Y154.328 E4.63866
G1 X191.784 Y154.508 E4.65623
G1 X192.459 Y154.775 E4.67380
G1 X193.094 Y155.124 E4.69137
G1 X193.681 Y155.551 E4.70894
G1 X194.209 Y156.047 E4.72652
G1 X194.672 Y156.606 E4.74409
G1 X195.060 Y157.218 E4.76166
G1 X195.369 Y157.874 E4.77924
G1 X195.593 Y158.564 E4.79681
G1 X195.729 Y159.276 E4.81438
G1 X195.772 Y159.957 E4.83092
G1 X195.729 Y160.725 E4.84953
G1 X195.593 Y161.436 E4.86709
G1 X195.369 Y162.126 E4.88466
G1 X195.060 Y162.782 E4.90223
G1 X194.672 Y163.394 E4.91980
G1 X194.237 Y163.920 E4.93634
G1 X193.680 Y164.450 E4.95496
G1 X193.094 Y164.876 E4.97251
G1 X192.459 Y165.225 E4.99009
G1 X191.784 Y165.492 E5.00766
G1 X191.082 Y165.672 E5.02523
G1 X190.363 Y165.763 E5.04280
G1 X189.637 Y165.763 E5.06038
G1 X188.918 Y165.672 E5.07795
G1 X188.216 Y165.492 E5.09552
G1 X187.541 Y165.225 E5.11309
G1 X186.906 Y164.876 E5.13066
G1 X186.319 Y164.449 E5.14824
G1 X185.791 Y163.953 E5.16581
G1 X185.328 Y163.394 E5.18338
G1 X184.940 Y162.782 E5.20095
G1 X184.631 Y162.126 E5.21853
G1 X184.420 Y161.477 E5.23507
G1 X184.271 Y160.723 E5.25368
G1 X184.225 Y160.000 E5.27124
G1 X184.271 Y159.276 E5.28881
G1 X184.407 Y158.564 E5.30638
G1 X184.631 Y157.874 E5.32395
G1 X184.940 Y157.218 E5.34152
G1 X185.328 Y156.606 E5.35910
G1 X185.697 Y156.160 E5.37312
G1 X186.126 Y156.201 F4200.000
G1 F3360
G1 X186.319 Y155.551 E4.63475
G1 X186.521 Y155.404 E4.42313
G1 E4.37312 F3000.00000
G92 E0
G1 X188.387 Y149.366 F4200.000
G1 E1.00000 F3000.00000
G1 F720
G1 X188.015 Y149.219 E1.00970
G1 X187.502 Y148.937 E1.02389
G1 X187.028 Y148.593 E1.03808
G1 X186.601 Y148.192 E1.05227
G1 X186.228 Y147.741 E1.06646
G1 X185.914 Y147.246 E1.08065
G1 X185.665 Y146.716 E1.09484
G1 X185.484 Y146.160 E1.10903
G1 X185.374 Y145.584 E1.12322
G1 X185.337 Y145.000 E1.13741
G1 X185.374 Y144.416 E1.15159
G1 X185.484 Y143.837 E1.16586
G1 X185.676 Y143.260 E1.18059
G1 X185.914 Y142.754 E1.19416
G1 X186.228 Y142.259 E1.20835
G1 X186.601 Y141.808 E1.22253
G1 X187.028 Y141.407 E1.23672
G1 X187.502 Y141.063 E1.25091
G1 X188.015 Y140.781 E1.26510
G1 X188.559 Y140.565 E1.27929
G1 X189.126 Y140.420 E1.29348
G1 X189.707 Y140.346 E1.30767
G1 X190.293 Y140.346 E1.32186
G1 X190.874 Y140.420 E1.33605
G1 X191.441 Y140.565 E1.35023
G1 X191.985 Y140.781 E1.36442
G1 X192.498 Y141.063 E1.37861
G1 X192.972 Y141.407 E1.39280
G1 X193.399 Y141.808 E1.40699
G1 X193.772 Y142.259 E1.42118
G1 X194.086 Y142.754 E1.43537
G1 X194.335 Y143.284 E1.44956
G1 X194.516 Y143.840 E1.46375
G1 X194.626 Y144.416 E1.47793
G1 X194.663 Y145.000 E1.49212
G1 X194.626 Y145.584 E1.50631
G1 X194.516 Y146.160 E1.52050
G1 X194.335 Y146.716 E1.53469
G1 X194.085 Y147.249 E1.54896
G1 X193.756 Y147.761 E1.56369
G1 X193.399 Y148.192 E1.57725
G1 X192.972 Y148.593 E1.59144
G1 X192.498 Y148.937 E1.60563
G1 X191.985 Y149.219 E1.61982
G1 X191.441 Y149.435 E1.63401
G1 X190.874 Y149.580 E1.64820
G1 X190.293 Y149.654 E1.66239
G1 X189.707 Y149.654 E1.67658
G1 X189.126 Y149.580 E1.69076
G1 X188.559 Y149.435 E1.70495
G1 X188.443 Y149.388 E1.70798
G1 X188.597 Y149.000 F4200.000
G1 F720
G1 X188.193 Y148.840 E1.71850
G1 X187.726 Y148.583 E1.73142
G1 X187.295 Y148.270 E1.74434
G1 X186.906 Y147.905 E1.75725
G1 X186.566 Y147.495 E1.77017
G1 X186.281 Y147.045 E1.78308
G1 X186.054 Y146.562 E1.79599
G1 X185.889 Y146.055 E1.80891
G1 X185.789 Y145.532 E1.82183
G1 X185.756 Y145.000 E1.83474
G1 X185.789 Y144.468 E1.84765
G1 X185.890 Y143.943 E1.86062
G1 X186.064 Y143.415 E1.87408
G1 X186.281 Y142.955 E1.88640
G1 X186.566 Y142.505 E1.89931
G1 X186.906 Y142.095 E1.91223
G1 X187.295 Y141.730 E1.92514
G1 X187.726 Y141.417 E1.93806
G1 X188.193 Y141.160 E1.95097
G1 X188.689 Y140.964 E1.96389
G1 X189.205 Y140.831 E1.97680
G1 X189.734 Y140.764 E1.98972
G1 X190.266 Y140.764 E2.00263
G1 X190.795 Y140.831 E2.01555
G1 X191.311 Y140.964 E2.02846
G1 X191.807 Y141.160 E2.04138
G1 X192.274 Y141.417 E2.05429
G1 X192.705 Y141.730 E2.06721
G1 X193.094 Y142.095 E2.08012
G1 X193.434 Y142.505 E2.09304
G1 X193.719 Y142.955 E2.10595
G1 X193.946 Y143.438 E2.11886
