; generated by Slic3r Prusa Edition 1.41.0+win64 on 2019-04-30 at 18:13:16

; 

; external perimeters extrusion width = 0.45mm
; perimeters extrusion width = 0.45mm
; infill extrusion width = 0.45mm
; solid infill extrusion width = 0.45mm
; top infill extrusion width = 0.40mm

M107
M80 ; turn on PSU
M190 S50
M104 S190 ; start E heating
M17; enable motors
G28 X Y Z ; Home
G29 ; Autolevel
M109 S190
G90
G0 X0 Y0 F5000
G0 Z0 F5000
G91
G1 E8 F200
G90
; Filament gcode
G21 ; set units to millimeters
G90 ; use absolute coordinates
M82 ; use absolute distances for extrusion
G92 E0
G1 Z0.150 F4800.000
G1 E-1.00000 F3000.00000
G92 E0
G1 X123.730 Y82.558 F4800.000
G1 E1.00000 F3000.00000
G1 F720
G1 X124.563 Y81.384 E1.03489
G1 X125.451 Y80.400 E1.06700
G1 X126.509 Y79.467 E1.10118
G1 X128.220 Y78.343 E1.15079
G1 X129.509 Y77.735 E1.18532
G1 X130.718 Y77.326 E1.21625
G1 X187.029 Y62.259 E2.62876
G1 X188.389 Y61.988 E2.66237
G1 X190.372 Y61.883 E2.71049
G1 X191.760 Y62.007 E2.74426
G1 X192.986 Y62.263 E2.77461
G1 X249.297 Y77.330 E4.18712
G1 X250.626 Y77.793 E4.22125
G1 X252.454 Y78.737 E4.27110
G1 X253.614 Y79.562 E4.30559
G1 X254.589 Y80.438 E4.33735
G1 X255.523 Y81.498 E4.37158
G1 X256.655 Y83.217 E4.42146
G1 X257.259 Y84.496 E4.45572
G1 X257.670 Y85.706 E4.48668
G1 X272.741 Y142.029 E5.89951
G1 X273.010 Y143.380 E5.93289
G1 X273.117 Y145.387 E5.98160
G1 X272.992 Y146.765 E6.01513
G1 X272.737 Y147.986 E6.04535
G1 X257.670 Y204.297 E7.45787
G1 X257.207 Y205.626 E7.49199
G1 X256.270 Y207.442 E7.54149
G1 X255.440 Y208.612 E7.57625
G1 X254.562 Y209.589 E7.60809
G1 X253.491 Y210.533 E7.64267
G1 X251.780 Y211.657 E7.69228
G1 X250.491 Y212.265 E7.72681
G1 X249.282 Y212.674 E7.75774
G1 X192.971 Y227.741 E9.17026
G1 X191.611 Y228.012 E9.20386
G1 X189.613 Y228.117 E9.25236
G1 X188.235 Y227.992 E9.28588
G1 X187.014 Y227.737 E9.31610
G1 X130.703 Y212.670 E10.72862
G1 X129.374 Y212.207 E10.76274
G1 X127.546 Y211.263 E10.81259
G1 X126.386 Y210.438 E10.84708
G1 X125.411 Y209.562 E10.87884
G1 X124.477 Y208.502 E10.91307
G1 X123.345 Y206.783 E10.96295
G1 X122.741 Y205.504 E10.99721
G1 X122.330 Y204.294 E11.02818
G1 X107.259 Y147.971 E12.44100
G1 X106.988 Y146.611 E12.47461
G1 X106.883 Y144.613 E12.52311
G1 X107.007 Y143.244 E12.55641
G1 X107.261 Y142.024 E12.58660
G1 X122.330 Y85.703 E13.99936
G1 X122.788 Y84.387 E14.03313
G1 X123.703 Y82.612 E14.08152
G1 X124.074 Y82.803 F4800.000
G1 F720
G1 X124.889 Y81.646 E14.11583
G1 X125.745 Y80.696 E14.14681
G1 X126.761 Y79.800 E14.17963
G1 X128.431 Y78.704 E14.22803
G1 X129.669 Y78.121 E14.26120
G1 X130.836 Y77.727 E14.29104
G1 X187.130 Y62.665 E15.70313
G1 X188.435 Y62.403 E15.73538
G1 X190.371 Y62.301 E15.78237
G1 X191.703 Y62.421 E15.81477
G1 X192.879 Y62.667 E15.84388
G1 X249.180 Y77.731 E17.25614
G1 X250.461 Y78.177 E17.28900
G1 X252.243 Y79.098 E17.33762
G1 X253.357 Y79.891 E17.37076
G1 X254.293 Y80.734 E17.40128
G1 X255.190 Y81.750 E17.43414
G1 X256.295 Y83.429 E17.48282
G1 X256.873 Y84.656 E17.51570
G1 X257.268 Y85.820 E17.54547
G1 X272.337 Y142.135 E18.95811
G1 X272.595 Y143.431 E18.99013
G1 X272.699 Y145.386 E19.03758
G1 X272.578 Y146.708 E19.06974
G1 X272.333 Y147.879 E19.09874
G1 X257.269 Y204.180 E20.51099
G1 X256.826 Y205.456 E20.54373
G1 X255.912 Y207.226 E20.59200
G1 X255.114 Y208.351 E20.62542
G1 X254.266 Y209.293 E20.65613
G1 X253.239 Y210.200 E20.68934
G1 X251.569 Y211.296 E20.73774
G1 X250.331 Y211.879 E20.77090
G1 X249.169 Y212.272 E20.80063
G1 X192.865 Y227.337 E22.21296
G1 X191.560 Y227.597 E22.24521
G1 X189.614 Y227.699 E22.29244
G1 X188.292 Y227.578 E22.32460
G1 X187.121 Y227.333 E22.35359
G1 X130.820 Y212.269 E23.76585
G1 X129.539 Y211.823 E23.79871
G1 X127.757 Y210.902 E23.84733
G1 X126.643 Y210.109 E23.88046
G1 X125.707 Y209.266 E23.91099
G1 X124.813 Y208.254 E23.94372
G1 X123.705 Y206.571 E23.99252
G1 X123.127 Y205.344 E24.02541
G1 X122.732 Y204.180 E24.05518
G1 X107.663 Y147.865 E25.46781
G1 X107.403 Y146.560 E25.50007
G1 X107.301 Y144.614 E25.54729
G1 X107.421 Y143.301 E25.57923
G1 X107.665 Y142.130 E25.60821
G1 X122.731 Y85.820 E27.02070
G1 X123.170 Y84.558 E27.05309
G1 X124.046 Y82.856 E27.09947
; PURGING FINISHED
G1 F3840
G1 X124.778 Y81.806 E26.14947
G1 E26.09947 F3000.00000
G92 E0
G1 X188.198 Y212.452 F4800.000
G1 E1.00000 F3000.00000
G1 F720
G1 X188.631 Y212.286 E1.01124
G1 X189.079 Y212.166 E1.02248
G1 X189.537 Y212.093 E1.03372
G1 X189.993 Y212.070 E1.04479
G1 X190.483 Y212.097 E1.05667
G1 X190.921 Y212.166 E1.06743
G1 X191.369 Y212.286 E1.07867
G1 X191.802 Y212.452 E1.08991
G1 X192.215 Y212.663 E1.10114
G1 X192.604 Y212.915 E1.11238
G1 X192.965 Y213.207 E1.12362
G1 X193.293 Y213.535 E1.13486
G1 X193.585 Y213.896 E1.14610
G1 X193.837 Y214.285 E1.15734
G1 X194.048 Y214.698 E1.16857
G1 X194.214 Y215.131 E1.17981
G1 X194.334 Y215.579 E1.19105
G1 X194.407 Y216.037 E1.20229
G1 X194.431 Y216.501 E1.21356
G1 X194.405 Y216.973 E1.22500
G1 X194.334 Y217.421 E1.23600
G1 X194.214 Y217.869 E1.24724
G1 X194.048 Y218.302 E1.25848
G1 X193.837 Y218.715 E1.26972
G1 X193.585 Y219.104 E1.28096
G1 X193.293 Y219.465 E1.29220
G1 X192.965 Y219.793 E1.30343
G1 X192.604 Y220.085 E1.31467
G1 X192.215 Y220.337 E1.32591
G1 X191.802 Y220.548 E1.33715
G1 X191.369 Y220.714 E1.34838
G1 X190.921 Y220.834 E1.35963
G1 X190.463 Y220.907 E1.37086
G1 X190.000 Y220.931 E1.38210
G1 X189.537 Y220.907 E1.39334
G1 X189.079 Y220.834 E1.40458
G1 X188.631 Y220.714 E1.41582
G1 X188.198 Y220.548 E1.42706
G1 X187.785 Y220.337 E1.43829
G1 X187.396 Y220.085 E1.44953
G1 X187.035 Y219.793 E1.46077
G1 X186.707 Y219.465 E1.47201
G1 X186.415 Y219.104 E1.48325
G1 X186.163 Y218.715 E1.49448
G1 X185.952 Y218.302 E1.50572
G1 X185.786 Y217.869 E1.51696
G1 X185.666 Y217.421 E1.52820
G1 X185.594 Y216.968 E1.53932
G1 X185.569 Y216.500 E1.55068
G1 X185.594 Y216.032 E1.56203
G1 X185.666 Y215.579 E1.57315
G1 X185.786 Y215.131 E1.58439
G1 X185.952 Y214.698 E1.59563
G1 X186.163 Y214.285 E1.60687
G1 X186.415 Y213.896 E1.61811
G1 X186.707 Y213.535 E1.62934
G1 X187.035 Y213.207 E1.64058
G1 X187.396 Y212.915 E1.65182
G1 X187.785 Y212.663 E1.66306
G1 X188.144 Y212.480 E1.67284
G1 X188.334 Y212.852 F4800.000
G1 F720
G1 X188.760 Y212.684 E1.68394
G1 X189.166 Y212.575 E1.69412
G1 X189.581 Y212.510 E1.70429
G1 X189.993 Y212.488 E1.71429
G1 X190.438 Y212.513 E1.72511
G1 X190.834 Y212.575 E1.73482
G1 X191.240 Y212.684 E1.74500
G1 X191.632 Y212.834 E1.75518
G1 X192.006 Y213.025 E1.76535
G1 X192.358 Y213.254 E1.77553
G1 X192.685 Y213.518 E1.78571
G1 X192.982 Y213.815 E1.79588
G1 X193.246 Y214.142 E1.80606
G1 X193.475 Y214.494 E1.81624
G1 X193.666 Y214.868 E1.82641
G1 X193.816 Y215.260 E1.83659
G1 X193.925 Y215.666 E1.84677
G1 X193.990 Y216.081 E1.85695
G1 X194.012 Y216.501 E1.86714
G1 X193.989 Y216.928 E1.87752
G1 X193.925 Y217.334 E1.88748
G1 X193.816 Y217.740 E1.89765
G1 X193.666 Y218.132 E1.90783
G1 X193.475 Y218.506 E1.91801
G1 X193.246 Y218.858 E1.92819
G1 X192.982 Y219.185 E1.93836
G1 X192.685 Y219.482 E1.94854
G1 X192.358 Y219.746 E1.95872
G1 X192.006 Y219.975 E1.96889
G1 X191.632 Y220.166 E1.97907
G1 X191.240 Y220.316 E1.98925
G1 X190.834 Y220.425 E1.99943
G1 X190.419 Y220.490 E2.00960
G1 X190.000 Y220.512 E2.01978
G1 X189.581 Y220.490 E2.02996
G1 X189.166 Y220.425 E2.04013
G1 X188.760 Y220.316 E2.05031
G1 X188.368 Y220.166 E2.06049
G1 X187.994 Y219.975 E2.07067
G1 X187.642 Y219.746 E2.08084
G1 X187.315 Y219.482 E2.09102
G1 X187.018 Y219.185 E2.10120
G1 X186.754 Y218.858 E2.11137
G1 X186.525 Y218.506 E2.12155
G1 X186.334 Y218.132 E2.13173
G1 X186.184 Y217.740 E2.14191
G1 X186.075 Y217.334 E2.15208
G1 X186.010 Y216.924 E2.16215
G1 X185.988 Y216.500 E2.17244
G1 X186.010 Y216.076 E2.18272
G1 X186.075 Y215.666 E2.19279
G1 X186.184 Y215.260 E2.20297
G1 X186.334 Y214.868 E2.21315
G1 X186.525 Y214.494 E2.22332
G1 X186.754 Y214.142 E2.23350
G1 X187.018 Y213.815 E2.24368
G1 X187.315 Y213.518 E2.25385
G1 X187.642 Y213.254 E2.26403
G1 X187.994 Y213.025 E2.27421
G1 X188.281 Y212.879 E2.28201
G1 X188.470 Y213.251 F4800.000
G1 F720
G1 X188.889 Y213.082 E2.29296
G1 X189.253 Y212.984 E2.30208
G1 X189.624 Y212.926 E2.31119
G1 X189.992 Y212.906 E2.32012
G1 X190.394 Y212.929 E2.32987
G1 X190.747 Y212.984 E2.33854
G1 X191.111 Y213.082 E2.34765
G1 X191.462 Y213.217 E2.35677
G1 X191.797 Y213.387 E2.36589
G1 X192.113 Y213.592 E2.37500
G1 X192.405 Y213.829 E2.38412
G1 X192.671 Y214.095 E2.39323
G1 X192.908 Y214.387 E2.40235
G1 X193.113 Y214.703 E2.41147
G1 X193.283 Y215.038 E2.42058
G1 X193.418 Y215.389 E2.42970
G1 X193.516 Y215.753 E2.43881
G1 X193.574 Y216.124 E2.44793
G1 X193.594 Y216.500 E2.45705
G1 X193.573 Y216.884 E2.46637
G1 X193.516 Y217.247 E2.47528
G1 X193.418 Y217.611 E2.48439
G1 X193.283 Y217.962 E2.49351
G1 X193.113 Y218.297 E2.50262
G1 X192.908 Y218.613 E2.51174
G1 X192.671 Y218.905 E2.52086
G1 X192.405 Y219.171 E2.52997
G1 X192.113 Y219.408 E2.53909
G1 X191.797 Y219.613 E2.54820
G1 X191.462 Y219.783 E2.55732
G1 X191.111 Y219.918 E2.56644
G1 X190.747 Y220.016 E2.57555
G1 X190.376 Y220.074 E2.58467
G1 X190.000 Y220.094 E2.59378
G1 X189.624 Y220.074 E2.60290
G1 X189.253 Y220.016 E2.61201
G1 X188.889 Y219.918 E2.62113
G1 X188.538 Y219.783 E2.63025
G1 X188.203 Y219.613 E2.63936
G1 X187.887 Y219.408 E2.64848
G1 X187.595 Y219.171 E2.65759
G1 X187.329 Y218.905 E2.66671
G1 X187.092 Y218.613 E2.67583
G1 X186.887 Y218.297 E2.68494
G1 X186.717 Y217.962 E2.69406
G1 X186.582 Y217.611 E2.70317
G1 X186.484 Y217.247 E2.71229
G1 X186.426 Y216.880 E2.72130
G1 X186.406 Y216.500 E2.73052
G1 X186.426 Y216.120 E2.73974
G1 X186.484 Y215.753 E2.74875
G1 X186.582 Y215.389 E2.75787
G1 X186.717 Y215.038 E2.76699
G1 X186.887 Y214.703 E2.77610
G1 X187.092 Y214.387 E2.78522
G1 X187.329 Y214.095 E2.79433
G1 X187.595 Y213.829 E2.80345
G1 X187.887 Y213.592 E2.81257
G1 X188.203 Y213.387 E2.82168
G1 X188.417 Y213.279 E2.82750
G1 X188.507 Y212.853 F4800.000
G1 F3840
G1 X188.889 Y213.082 E2.44759
G1 X189.253 Y212.984 E2.16836
G1 X189.624 Y212.926 E1.88917
G1 X189.640 Y212.925 E1.87750
G1 E1.82750 F3000.00000
G92 E0
G1 X243.083 Y201.948 F4800.000
G1 E1.00000 F3000.00000
G1 F720
G1 X242.956 Y201.347 E1.01488
G1 X242.938 Y201.000 E1.02330
G1 X242.956 Y200.653 E1.03173
G1 X243.083 Y200.052 E1.04660
G1 X243.344 Y199.466 E1.06214
G1 X243.721 Y198.949 E1.07766
G1 X244.197 Y198.519 E1.09319
G1 X244.753 Y198.198 E1.10875
G1 X245.362 Y198.001 E1.12426
G1 X245.966 Y197.937 E1.13898
G1 X246.346 Y197.956 E1.14820
G1 X246.948 Y198.083 E1.16310
G1 X247.534 Y198.344 E1.17865
G1 X248.051 Y198.721 E1.19416
G1 X248.481 Y199.197 E1.20970
G1 X248.802 Y199.753 E1.22525
G1 X248.999 Y200.362 E1.24077
G1 X249.067 Y201.000 E1.25631
G1 X248.999 Y201.638 E1.27185
G1 X248.802 Y202.247 E1.28737
G1 X248.481 Y202.803 E1.30292
G1 X248.051 Y203.279 E1.31845
G1 X247.534 Y203.656 E1.33397
G1 X246.948 Y203.917 E1.34952
G1 X246.347 Y204.044 E1.36439
G1 X245.971 Y204.063 E1.37351
G1 X245.362 Y203.999 E1.38835
G1 X244.753 Y203.802 E1.40387
G1 X244.197 Y203.481 E1.41943
G1 X243.721 Y203.051 E1.43496
G1 X243.344 Y202.534 E1.45048
G1 X243.108 Y202.002 E1.46457
G1 X243.490 Y201.833 F4800.000
G1 F720
G1 X243.371 Y201.293 E1.47796
G1 X243.356 Y201.000 E1.48506
G1 X243.371 Y200.707 E1.49216
G1 X243.483 Y200.182 E1.50517
G1 X243.708 Y199.677 E1.51858
G1 X244.033 Y199.230 E1.53198
G1 X244.444 Y198.859 E1.54538
G1 X244.924 Y198.582 E1.55880
G1 X245.449 Y198.412 E1.57219
G1 X245.978 Y198.356 E1.58507
G1 X246.292 Y198.371 E1.59270
G1 X246.818 Y198.483 E1.60572
G1 X247.323 Y198.708 E1.61913
G1 X247.770 Y199.033 E1.63252
G1 X248.141 Y199.444 E1.64593
G1 X248.418 Y199.924 E1.65935
G1 X248.588 Y200.450 E1.67274
G1 X248.646 Y201.000 E1.68616
G1 X248.588 Y201.550 E1.69957
G1 X248.418 Y202.076 E1.71296
G1 X248.141 Y202.556 E1.72638
G1 X247.770 Y202.967 E1.73979
G1 X247.323 Y203.292 E1.75318
G1 X246.818 Y203.517 E1.76659
G1 X246.293 Y203.629 E1.77960
G1 X245.983 Y203.645 E1.78713
G1 X245.450 Y203.588 E1.80011
G1 X244.924 Y203.418 E1.81351
G1 X244.444 Y203.141 E1.82693
G1 X244.033 Y202.770 E1.84034
G1 X243.708 Y202.323 E1.85373
G1 X243.514 Y201.887 E1.86530
G1 X243.896 Y201.718 F4800.000
G1 F720
G1 X243.787 Y201.238 E1.87720
G1 X243.775 Y201.000 E1.88299
G1 X243.787 Y200.762 E1.88877
G1 X243.883 Y200.312 E1.89991
G1 X244.072 Y199.887 E1.91119
G1 X244.346 Y199.511 E1.92246
G1 X244.691 Y199.199 E1.93374
G1 X245.095 Y198.966 E1.94502
G1 X245.537 Y198.823 E1.95629
G1 X245.990 Y198.775 E1.96733
G1 X246.238 Y198.787 E1.97335
G1 X246.688 Y198.883 E1.98450
G1 X247.113 Y199.072 E1.99578
G1 X247.489 Y199.346 E2.00705
G1 X247.801 Y199.691 E2.01833
G1 X248.034 Y200.095 E2.02961
G1 X248.177 Y200.537 E2.04088
G1 X248.226 Y201.000 E2.05217
G1 X248.177 Y201.463 E2.06345
G1 X248.034 Y201.905 E2.07472
G1 X247.801 Y202.309 E2.08600
G1 X247.489 Y202.654 E2.09729
G1 X247.113 Y202.928 E2.10856
G1 X246.688 Y203.117 E2.11983
G1 X246.238 Y203.213 E2.13098
G1 X245.994 Y203.226 E2.13691
G1 X245.537 Y203.177 E2.14804
G1 X245.095 Y203.034 E2.15931
G1 X244.691 Y202.801 E2.17060
G1 X244.346 Y202.489 E2.18188
G1 X244.072 Y202.113 E2.19315
G1 X243.920 Y201.772 E2.20219
G1 X243.504 Y201.639 F4800.000
G1 F3840
G1 X243.787 Y201.238 E1.79369
G1 X243.775 Y201.000 E1.61659
G1 X243.787 Y200.762 E1.43946
G1 X243.839 Y200.515 E1.25219
G1 E1.20219 F3000.00000
G92 E0
G1 X260.131 Y149.214 F4800.000
G1 E1.00000 F3000.00000
G1 F720
G1 X259.698 Y149.048 E1.01124
G1 X259.285 Y148.837 E1.02248
G1 X258.896 Y148.585 E1.03372
G1 X258.535 Y148.293 E1.04495
G1 X258.207 Y147.965 E1.05619
G1 X257.914 Y147.603 E1.06747
G1 X257.657 Y147.205 E1.07895
G1 X257.452 Y146.802 E1.08991
G1 X257.286 Y146.369 E1.10114
G1 X257.166 Y145.921 E1.11238
G1 X257.093 Y145.463 E1.12362
G1 X257.069 Y145.000 E1.13486
G1 X257.093 Y144.537 E1.14610
G1 X257.166 Y144.079 E1.15733
G1 X257.286 Y143.631 E1.16857
G1 X257.452 Y143.198 E1.17981
G1 X257.663 Y142.785 E1.19105
G1 X257.915 Y142.396 E1.20229
G1 X258.207 Y142.035 E1.21353
G1 X258.535 Y141.707 E1.22477
G1 X258.896 Y141.415 E1.23600
G1 X259.285 Y141.163 E1.24724
G1 X259.698 Y140.952 E1.25848
G1 X260.131 Y140.786 E1.26972
G1 X260.581 Y140.665 E1.28102
G1 X261.058 Y140.592 E1.29270
G1 X261.500 Y140.569 E1.30343
G1 X261.963 Y140.593 E1.31467
G1 X262.421 Y140.666 E1.32591
G1 X262.869 Y140.786 E1.33715
G1 X263.302 Y140.952 E1.34839
G1 X263.715 Y141.163 E1.35962
G1 X264.104 Y141.415 E1.37086
G1 X264.465 Y141.707 E1.38210
G1 X264.793 Y142.035 E1.39334
G1 X265.086 Y142.397 E1.40461
G1 X265.342 Y142.795 E1.41610
G1 X265.548 Y143.198 E1.42705
G1 X265.714 Y143.631 E1.43829
G1 X265.834 Y144.079 E1.44953
G1 X265.907 Y144.537 E1.46077
G1 X265.931 Y145.000 E1.47201
G1 X265.907 Y145.463 E1.48324
G1 X265.834 Y145.921 E1.49448
G1 X265.714 Y146.369 E1.50572
G1 X265.548 Y146.802 E1.51696
G1 X265.337 Y147.215 E1.52820
G1 X265.085 Y147.604 E1.53943
G1 X264.803 Y147.952 E1.55028
G1 X264.466 Y148.291 E1.56186
G1 X264.104 Y148.585 E1.57315
G1 X263.715 Y148.837 E1.58439
G1 X263.302 Y149.048 E1.59562
G1 X262.869 Y149.214 E1.60686
G1 X262.421 Y149.334 E1.61810
G1 X261.963 Y149.407 E1.62934
G1 X261.500 Y149.431 E1.64058
G1 X261.037 Y149.407 E1.65182
G1 X260.579 Y149.334 E1.66305
G1 X260.189 Y149.230 E1.67284
G1 X260.297 Y148.826 F4800.000
G1 F720
G1 X259.868 Y148.666 E1.68394
G1 X259.494 Y148.475 E1.69411
G1 X259.142 Y148.246 E1.70429
G1 X258.815 Y147.982 E1.71447
G1 X258.518 Y147.685 E1.72465
G1 X258.253 Y147.358 E1.73484
G1 X258.020 Y146.996 E1.74526
G1 X257.834 Y146.632 E1.75517
G1 X257.684 Y146.240 E1.76535
G1 X257.575 Y145.834 E1.77553
G1 X257.510 Y145.419 E1.78571
G1 X257.488 Y145.000 E1.79588
G1 X257.510 Y144.581 E1.80606
G1 X257.575 Y144.166 E1.81624
G1 X257.684 Y143.760 E1.82642
G1 X257.834 Y143.368 E1.83659
G1 X258.025 Y142.994 E1.84677
G1 X258.254 Y142.642 E1.85694
G1 X258.518 Y142.315 E1.86712
G1 X258.815 Y142.018 E1.87730
G1 X259.142 Y141.754 E1.88748
G1 X259.494 Y141.525 E1.89765
G1 X259.868 Y141.334 E1.90783
G1 X260.260 Y141.184 E1.91801
G1 X260.667 Y141.075 E1.92823
G1 X261.100 Y141.008 E1.93884
G1 X261.500 Y140.988 E1.94854
G1 X261.919 Y141.010 E1.95872
G1 X262.334 Y141.075 E1.96889
G1 X262.740 Y141.184 E1.97907
G1 X263.132 Y141.334 E1.98925
