;Project AngleSide_Panel
;Created by Estlcam version 10 build 11.006
;Machining time about 00:05:43 hours

G90
G92 X0 Y0 Z0
M03 S24000
G00 Z1.0000 F500


;No. 1: Part 1
G00 X9.5098 Y12.1146 F3000
G00 Z0.5000 F500
G01 Z-1.1800 F120
G01 X9.3088 Y12.0288 F300
G01 X9.1225 Y11.9145
G01 X8.9549 Y11.7744
G01 X8.8095 Y11.6113
G01 X8.6894 Y11.4287
G01 X8.5972 Y11.2306
G01 X8.5349 Y11.0211
G01 X8.5038 Y10.8048
G01 X8.5000 Y10.6787
G01 Y6.1987
G01 X0.4497
G01 X0.2626 Y6.1870
G01 X0.0785 Y6.1521
G01 X-0.0998 Y6.0945
G01 X-0.2695 Y6.0151
G01 X-0.4280 Y5.9152
G01 X-0.5728 Y5.7963
G01 X-0.7017 Y5.6602
G01 X-0.8126 Y5.5092
G01 X-0.9037 Y5.3455
G01 X-0.9738 Y5.1717
G01 X-1.0217 Y4.9906
G01 X-1.0466 Y4.8048
G01 X-1.0497 Y4.6549
G01 X-1.0362 Y4.4934
G01 X-1.0053 Y4.3342
G01 X-0.9575 Y4.1793
G01 X-0.8932 Y4.0304
G01 X-0.8133 Y3.8894
G01 X-0.7186 Y3.7578
G01 X-0.6102 Y3.6372
G01 X-0.4895 Y3.5290
G01 X5.1905 Y-1.1571
G01 X5.2958 Y-1.2364
G01 X5.4076 Y-1.3061
G01 X5.5251 Y-1.3658
G01 X5.6474 Y-1.4150
G01 X5.7735 Y-1.4533
G01 X5.9025 Y-1.4803
G01 X6.0334 Y-1.4959
G01 X6.1651 Y-1.5000
G01 X80.0000
G01 X80.1974 Y-1.4869
G01 X80.3915 Y-1.4480
G01 X80.5786 Y-1.3839
G01 X80.7558 Y-1.2957
G01 X80.9198 Y-1.1849
G01 X81.0677 Y-1.0535
G01 X81.1971 Y-0.9038
G01 X81.3057 Y-0.7384
G01 X81.3915 Y-0.5601
G01 X81.4532 Y-0.3721
G01 X81.4896 Y-0.1776
G01 X81.5000 Y0.0200
G01 Y10.6987
G01 X81.4869 Y10.8962
G01 X81.4480 Y11.0902
G01 X81.3839 Y11.2774
G01 X81.2957 Y11.4545
G01 X81.1849 Y11.6185
G01 X81.0535 Y11.7665
G01 X80.9038 Y11.8959
G01 X80.7384 Y12.0044
G01 X80.5601 Y12.0903
G01 X80.3721 Y12.1519
G01 X80.1776 Y12.1883
G01 X79.9800 Y12.1987
G01 X10.0200
G01 X9.8901 Y12.1952
G01 X9.7611 Y12.1799
G01 X9.6339 Y12.1529
G01 X9.5098 Y12.1146
G01 Z-2.3600 F120
G01 X9.3088 Y12.0288 F300
G01 X9.1225 Y11.9145
G01 X8.9549 Y11.7744
G01 X8.8095 Y11.6113
G01 X8.6894 Y11.4287
G01 X8.5972 Y11.2306
G01 X8.5349 Y11.0211
G01 X8.5038 Y10.8048
G01 X8.5000 Y10.6787
G01 Y6.1987
G01 X0.4497
G01 X0.2626 Y6.1870
G01 X0.0785 Y6.1521
G01 X-0.0998 Y6.0945
G01 X-0.2695 Y6.0151
G01 X-0.4280 Y5.9152
G01 X-0.5728 Y5.7963
G01 X-0.7017 Y5.6602
G01 X-0.8126 Y5.5092
G01 X-0.9037 Y5.3455
G01 X-0.9738 Y5.1717
G01 X-1.0217 Y4.9906
G01 X-1.0466 Y4.8048
G01 X-1.0497 Y4.6549
G01 X-1.0362 Y4.4934
G01 X-1.0053 Y4.3342
G01 X-0.9575 Y4.1793
G01 X-0.8932 Y4.0304
G01 X-0.8133 Y3.8894
G01 X-0.7186 Y3.7578
G01 X-0.6102 Y3.6372
G01 X-0.4895 Y3.5290
G01 X5.1905 Y-1.1571
G01 X5.2958 Y-1.2364
G01 X5.4076 Y-1.3061
G01 X5.5251 Y-1.3658
G01 X5.6474 Y-1.4150
G01 X5.7735 Y-1.4533
G01 X5.9025 Y-1.4803
G01 X6.0334 Y-1.4959
G01 X6.1651 Y-1.5000
G01 X80.0000
G01 X80.1974 Y-1.4869
G01 X80.3915 Y-1.4480
G01 X80.5786 Y-1.3839
G01 X80.7558 Y-1.2957
G01 X80.9198 Y-1.1849
G01 X81.0677 Y-1.0535
G01 X81.1971 Y-0.9038
G01 X81.3057 Y-0.7384
G01 X81.3915 Y-0.5601
G01 X81.4532 Y-0.3721
G01 X81.4896 Y-0.1776
G01 X81.5000 Y0.0200
G01 Y10.6987
G01 X81.4869 Y10.8962
G01 X81.4480 Y11.0902
G01 X81.3839 Y11.2774
G01 X81.2957 Y11.4545
G01 X81.1849 Y11.6185
G01 X81.0535 Y11.7665
G01 X80.9038 Y11.8959
G01 X80.7384 Y12.0044
G01 X80.5601 Y12.0903
G01 X80.3721 Y12.1519
G01 X80.1776 Y12.1883
G01 X79.9800 Y12.1987
G01 X10.0200
G01 X9.8901 Y12.1952
G01 X9.7611 Y12.1799
G01 X9.6339 Y12.1529
G01 X9.5098 Y12.1146
G01 Z-3.5400 F120
G01 X9.3088 Y12.0288 F300
G01 X9.1225 Y11.9145
G01 X8.9549 Y11.7744
G01 X8.8095 Y11.6113
G01 X8.6894 Y11.4287
G01 X8.5972 Y11.2306
G01 X8.5349 Y11.0211
G01 X8.5038 Y10.8048
G01 X8.5000 Y10.6787
G01 Y6.1987
G01 X0.4497
G01 X0.2626 Y6.1870
G01 X0.0785 Y6.1521
G01 X-0.0998 Y6.0945
G01 X-0.2695 Y6.0151
G01 X-0.4280 Y5.9152
G01 X-0.5728 Y5.7963
G01 X-0.7017 Y5.6602
G01 X-0.8126 Y5.5092
G01 X-0.9037 Y5.3455
G01 X-0.9738 Y5.1717
G01 X-1.0217 Y4.9906
G01 X-1.0466 Y4.8048
G01 X-1.0497 Y4.6549
G01 X-1.0362 Y4.4934
G01 X-1.0053 Y4.3342
G01 X-0.9575 Y4.1793
G01 X-0.8932 Y4.0304
G01 X-0.8133 Y3.8894
G01 X-0.7186 Y3.7578
G01 X-0.6102 Y3.6372
G01 X-0.4895 Y3.5290
G01 X5.1905 Y-1.1571
G01 X5.2958 Y-1.2364
G01 X5.4076 Y-1.3061
G01 X5.5251 Y-1.3658
G01 X5.6474 Y-1.4150
G01 X5.7735 Y-1.4533
G01 X5.9025 Y-1.4803
G01 X6.0334 Y-1.4959
G01 X6.1651 Y-1.5000
G01 X80.0000
G01 X80.1974 Y-1.4869
G01 X80.3915 Y-1.4480
G01 X80.5786 Y-1.3839
G01 X80.7558 Y-1.2957
G01 X80.9198 Y-1.1849
G01 X81.0677 Y-1.0535
G01 X81.1971 Y-0.9038
G01 X81.3057 Y-0.7384
G01 X81.3915 Y-0.5601
G01 X81.4532 Y-0.3721
G01 X81.4896 Y-0.1776
G01 X81.5000 Y0.0200
G01 Y10.6987
G01 X81.4869 Y10.8962
G01 X81.4480 Y11.0902
G01 X81.3839 Y11.2774
G01 X81.2957 Y11.4545
G01 X81.1849 Y11.6185
G01 X81.0535 Y11.7665
G01 X80.9038 Y11.8959
G01 X80.7384 Y12.0044
G01 X80.5601 Y12.0903
G01 X80.3721 Y12.1519
G01 X80.1776 Y12.1883
G01 X79.9800 Y12.1987
G01 X10.0200
G01 X9.8901 Y12.1952
G01 X9.7611 Y12.1799
G01 X9.6339 Y12.1529
G01 X9.5098 Y12.1146
G01 Z-4.7200 F120
G01 X9.3088 Y12.0288 F300
G01 X9.1225 Y11.9145
G01 X8.9549 Y11.7744
G01 X8.8095 Y11.6113
G01 X8.6894 Y11.4287
G01 X8.5972 Y11.2306
G01 X8.5349 Y11.0211
G01 X8.5038 Y10.8048
G01 X8.5000 Y10.6787
G01 Y6.1987
G01 X0.4497
G01 X0.2626 Y6.1870
G01 X0.0785 Y6.1521
G01 X-0.0998 Y6.0945
G01 X-0.2695 Y6.0151
G01 X-0.4280 Y5.9152
G01 X-0.5728 Y5.7963
G01 X-0.7017 Y5.6602
G01 X-0.8126 Y5.5092
G01 X-0.9037 Y5.3455
G01 X-0.9738 Y5.1717
G01 X-1.0217 Y4.9906
G01 X-1.0466 Y4.8048
G01 X-1.0497 Y4.6549
G01 X-1.0362 Y4.4934
G01 X-1.0053 Y4.3342
G01 X-0.9575 Y4.1793
G01 X-0.8932 Y4.0304
G01 X-0.8133 Y3.8894
G01 X-0.7186 Y3.7578
G01 X-0.6102 Y3.6372
G01 X-0.4895 Y3.5290
G01 X5.1905 Y-1.1571
G01 X5.2958 Y-1.2364
G01 X5.4076 Y-1.3061
G01 X5.5251 Y-1.3658
G01 X5.6474 Y-1.4150
G01 X5.7735 Y-1.4533
G01 X5.9025 Y-1.4803
G01 X6.0334 Y-1.4959
G01 X6.1651 Y-1.5000
G01 X80.0000
G01 X80.1974 Y-1.4869
G01 X80.3915 Y-1.4480
G01 X80.5786 Y-1.3839
G01 X80.7558 Y-1.2957
G01 X80.9198 Y-1.1849
G01 X81.0677 Y-1.0535
G01 X81.1971 Y-0.9038
G01 X81.3057 Y-0.7384
G01 X81.3915 Y-0.5601
G01 X81.4532 Y-0.3721
G01 X81.4896 Y-0.1776
G01 X81.5000 Y0.0200
G01 Y10.6987
G01 X81.4869 Y10.8962
G01 X81.4480 Y11.0902
G01 X81.3839 Y11.2774
G01 X81.2957 Y11.4545
G01 X81.1849 Y11.6185
G01 X81.0535 Y11.7665
G01 X80.9038 Y11.8959
G01 X80.7384 Y12.0044
G01 X80.5601 Y12.0903
G01 X80.3721 Y12.1519
G01 X80.1776 Y12.1883
G01 X79.9800 Y12.1987
G01 X10.0200
G01 X9.8901 Y12.1952
G01 X9.7611 Y12.1799
G01 X9.6339 Y12.1529
G01 X9.5098 Y12.1146
G01 Z-5.9000 F120
G01 X9.3088 Y12.0288 F300
G01 X9.1225 Y11.9145
G01 X8.9549 Y11.7744
G01 X8.8095 Y11.6113
G01 X8.6894 Y11.4287
G01 X8.5972 Y11.2306
G01 X8.5349 Y11.0211
G01 X8.5038 Y10.8048
G01 X8.5000 Y10.6787
G01 Y6.1987
G01 X0.4497
G01 X0.2626 Y6.1870
G01 X0.0785 Y6.1521
G01 X-0.0998 Y6.0945
G01 X-0.2695 Y6.0151
G01 X-0.4280 Y5.9152
G01 X-0.5728 Y5.7963
G01 X-0.7017 Y5.6602
G01 X-0.8126 Y5.5092
G01 X-0.9037 Y5.3455
G01 X-0.9738 Y5.1717
G01 X-1.0217 Y4.9906
G01 X-1.0466 Y4.8048
G01 X-1.0497 Y4.6549
G01 X-1.0362 Y4.4934
G01 X-1.0053 Y4.3342
G01 X-0.9575 Y4.1793
G01 X-0.8932 Y4.0304
G01 X-0.8133 Y3.8894
G01 X-0.7186 Y3.7578
G01 X-0.6102 Y3.6372
G01 X-0.4895 Y3.5290
G01 X5.1905 Y-1.1571
G01 X5.2958 Y-1.2364
G01 X5.4076 Y-1.3061
G01 X5.5251 Y-1.3658
G01 X5.6474 Y-1.4150
G01 X5.7735 Y-1.4533
G01 X5.9025 Y-1.4803
G01 X6.0334 Y-1.4959
G01 X6.1651 Y-1.5000
G01 X80.0000
G01 X80.1974 Y-1.4869
G01 X80.3915 Y-1.4480
G01 X80.5786 Y-1.3839
G01 X80.7558 Y-1.2957
G01 X80.9198 Y-1.1849
G01 X81.0677 Y-1.0535
G01 X81.1971 Y-0.9038
G01 X81.3057 Y-0.7384
G01 X81.3915 Y-0.5601
G01 X81.4532 Y-0.3721
G01 X81.4896 Y-0.1776
G01 X81.5000 Y0.0200
G01 Y10.6987
G01 X81.4869 Y10.8962
G01 X81.4480 Y11.0902
G01 X81.3839 Y11.2774
G01 X81.2957 Y11.4545
G01 X81.1849 Y11.6185
G01 X81.0535 Y11.7665
G01 X80.9038 Y11.8959
G01 X80.7384 Y12.0044
G01 X80.5601 Y12.0903
G01 X80.3721 Y12.1519
G01 X80.1776 Y12.1883
G01 X79.9800 Y12.1987
G01 X10.0200
G01 X9.8901 Y12.1952
G01 X9.7611 Y12.1799
G01 X9.6339 Y12.1529
G01 X9.5098 Y12.1146
G01 Z-7.0800 F120
G01 X9.3088 Y12.0288 F300
G01 X9.1225 Y11.9145
G01 X8.9549 Y11.7744
G01 X8.8095 Y11.6113
G01 X8.6894 Y11.4287
G01 X8.5972 Y11.2306
G01 X8.5349 Y11.0211
G01 X8.5038 Y10.8048
G01 X8.5000 Y10.6787
G01 Y6.1987
G01 X0.4497
G01 X0.2626 Y6.1870
G01 X0.0785 Y6.1521
G01 X-0.0998 Y6.0945
G01 X-0.2695 Y6.0151
G01 X-0.4280 Y5.9152
G01 X-0.5728 Y5.7963
G01 X-0.7017 Y5.6602
G01 X-0.8126 Y5.5092
G01 X-0.9037 Y5.3455
G01 X-0.9738 Y5.1717
G01 X-1.0217 Y4.9906
G01 X-1.0466 Y4.8048
G01 X-1.0497 Y4.6549
G01 X-1.0362 Y4.4934
G01 X-1.0053 Y4.3342
G01 X-0.9575 Y4.1793
G01 X-0.8932 Y4.0304
G01 X-0.8133 Y3.8894
G01 X-0.7186 Y3.7578
G01 X-0.6102 Y3.6372
G01 X-0.4895 Y3.5290
G01 X5.1905 Y-1.1571
G01 X5.2958 Y-1.2364
G01 X5.4076 Y-1.3061
G01 X5.5251 Y-1.3658
G01 X5.6474 Y-1.4150
G01 X5.7735 Y-1.4533
G01 X5.9025 Y-1.4803
G01 X6.0334 Y-1.4959
G01 X6.1651 Y-1.5000
G01 X80.0000
G01 X80.1974 Y-1.4869
G01 X80.3915 Y-1.4480
G01 X80.5786 Y-1.3839
G01 X80.7558 Y-1.2957
G01 X80.9198 Y-1.1849
G01 X81.0677 Y-1.0535
G01 X81.1971 Y-0.9038
G01 X81.3057 Y-0.7384
G01 X81.3915 Y-0.5601
G01 X81.4532 Y-0.3721
G01 X81.4896 Y-0.1776
G01 X81.5000 Y0.0200
G01 Y10.6987
G01 X81.4869 Y10.8962
G01 X81.4480 Y11.0902
G01 X81.3839 Y11.2774
G01 X81.2957 Y11.4545
G01 X81.1849 Y11.6185
G01 X81.0535 Y11.7665
G01 X80.9038 Y11.8959
G01 X80.7384 Y12.0044
G01 X80.5601 Y12.0903
G01 X80.3721 Y12.1519
G01 X80.1776 Y12.1883
G01 X79.9800 Y12.1987
G01 X10.0200
G01 X9.8901 Y12.1952
G01 X9.7611 Y12.1799
G01 X9.6339 Y12.1529
G01 X9.5098 Y12.1146
G01 Z-8.2600 F120
G01 X9.3088 Y12.0288 F300
G01 X9.1225 Y11.9145
G01 X8.9549 Y11.7744
G01 X8.8095 Y11.6113
G01 X8.6894 Y11.4287
G01 X8.5972 Y11.2306
G01 X8.5349 Y11.0211
G01 X8.5038 Y10.8048
G01 X8.5000 Y10.6787
G01 Y6.1987
G01 X0.4497
G01 X0.2626 Y6.1870
G01 X0.0785 Y6.1521
G01 X-0.0998 Y6.0945
G01 X-0.2695 Y6.0151
G01 X-0.4280 Y5.9152
G01 X-0.5728 Y5.7963
G01 X-0.7017 Y5.6602
G01 X-0.8126 Y5.5092
G01 X-0.9037 Y5.3455
G01 X-0.9738 Y5.1717
G01 X-1.0217 Y4.9906
G01 X-1.0466 Y4.8048
G01 X-1.0497 Y4.6549
G01 X-1.0362 Y4.4934
G01 X-1.0053 Y4.3342
G01 X-0.9575 Y4.1793
G01 X-0.8932 Y4.0304
G01 X-0.8133 Y3.8894
G01 X-0.7186 Y3.7578
G01 X-0.6102 Y3.6372
G01 X-0.4895 Y3.5290
G01 X5.1905 Y-1.1571
G01 X5.2958 Y-1.2364
G01 X5.4076 Y-1.3061
G01 X5.5251 Y-1.3658
G01 X5.6474 Y-1.4150
G01 X5.7735 Y-1.4533
G01 X5.9025 Y-1.4803
G01 X6.0334 Y-1.4959
G01 X6.1651 Y-1.5000
G01 X80.0000
G01 X80.1974 Y-1.4869
G01 X80.3915 Y-1.4480
G01 X80.5786 Y-1.3839
G01 X80.7558 Y-1.2957
G01 X80.9198 Y-1.1849
G01 X81.0677 Y-1.0535
G01 X81.1971 Y-0.9038
G01 X81.3057 Y-0.7384
G01 X81.3915 Y-0.5601
G01 X81.4532 Y-0.3721
G01 X81.4896 Y-0.1776
G01 X81.5000 Y0.0200
G01 Y10.6987
G01 X81.4869 Y10.8962
G01 X81.4480 Y11.0902
G01 X81.3839 Y11.2774
G01 X81.2957 Y11.4545
G01 X81.1849 Y11.6185
G01 X81.0535 Y11.7665
G01 X80.9038 Y11.8959
G01 X80.7384 Y12.0044
G01 X80.5601 Y12.0903
G01 X80.3721 Y12.1519
G01 X80.1776 Y12.1883
G01 X79.9800 Y12.1987
G01 X10.0200
G01 X9.8901 Y12.1952
G01 X9.7611 Y12.1799
G01 X9.6339 Y12.1529
G01 X9.5098 Y12.1146
G01 Z-9.4400 F120
G01 X9.3088 Y12.0288 F300
G01 X9.1225 Y11.9145
G01 X8.9549 Y11.7744
G01 X8.8095 Y11.6113
G01 X8.6894 Y11.4287
G01 X8.5972 Y11.2306
G01 X8.5349 Y11.0211
G01 X8.5038 Y10.8048
G01 X8.5000 Y10.6787
G01 Y6.1987
G01 X0.4497
G01 X0.2626 Y6.1870
G01 X0.0785 Y6.1521
G01 X-0.0998 Y6.0945
G01 X-0.2695 Y6.0151
G01 X-0.4280 Y5.9152
G01 X-0.5728 Y5.7963
G01 X-0.7017 Y5.6602
G01 X-0.8126 Y5.5092
G01 X-0.9037 Y5.3455
G01 X-0.9738 Y5.1717
G01 X-1.0217 Y4.9906
G01 X-1.0466 Y4.8048
G01 X-1.0497 Y4.6549
G01 X-1.0362 Y4.4934
G01 X-1.0053 Y4.3342
G01 X-0.9575 Y4.1793
G01 X-0.8932 Y4.0304
G01 X-0.8133 Y3.8894
G01 X-0.7186 Y3.7578
G01 X-0.6102 Y3.6372
G01 X-0.4895 Y3.5290
G01 X5.1905 Y-1.1571
G01 X5.2958 Y-1.2364
G01 X5.4076 Y-1.3061
G01 X5.5251 Y-1.3658
G01 X5.6474 Y-1.4150
G01 X5.7735 Y-1.4533
G01 X5.9025 Y-1.4803
G01 X6.0334 Y-1.4959
G01 X6.1651 Y-1.5000
G01 X80.0000
G01 X80.1974 Y-1.4869
G01 X80.3915 Y-1.4480
G01 X80.5786 Y-1.3839
G01 X80.7558 Y-1.2957
G01 X80.9198 Y-1.1849
G01 X81.0677 Y-1.0535
G01 X81.1971 Y-0.9038
G01 X81.3057 Y-0.7384
G01 X81.3915 Y-0.5601
G01 X81.4532 Y-0.3721
G01 X81.4896 Y-0.1776
G01 X81.5000 Y0.0200
G01 Y10.6987
G01 X81.4869 Y10.8962
G01 X81.4480 Y11.0902
G01 X81.3839 Y11.2774
G01 X81.2957 Y11.4545
G01 X81.1849 Y11.6185
G01 X81.0535 Y11.7665
G01 X80.9038 Y11.8959
G01 X80.7384 Y12.0044
G01 X80.5601 Y12.0903
G01 X80.3721 Y12.1519
G01 X80.1776 Y12.1883
G01 X79.9800 Y12.1987
G01 X10.0200
G01 X9.8901 Y12.1952
G01 X9.7611 Y12.1799
G01 X9.6339 Y12.1529
G01 X9.5098 Y12.1146
G01 Z-10.0000 F120
G01 X9.3088 Y12.0288 F300
G01 X9.1225 Y11.9145
G01 X8.9549 Y11.7744
G01 X8.8095 Y11.6113
G01 X8.6894 Y11.4287
G01 X8.5972 Y11.2306
G01 X8.5349 Y11.0211
G01 X8.5038 Y10.8048
G01 X8.5000 Y10.6787
G01 Y6.1987
G01 X0.4497
G01 X0.2626 Y6.1870
G01 X0.0785 Y6.1521
G01 X-0.0998 Y6.0945
G01 X-0.2695 Y6.0151
G01 X-0.4280 Y5.9152
G01 X-0.5728 Y5.7963
G01 X-0.7017 Y5.6602
G01 X-0.8126 Y5.5092
G01 X-0.9037 Y5.3455
G01 X-0.9738 Y5.1717
G01 X-1.0217 Y4.9906
G01 X-1.0466 Y4.8048
G01 X-1.0497 Y4.6549
G01 X-1.0362 Y4.4934
G01 X-1.0053 Y4.3342
G01 X-0.9575 Y4.1793
G01 X-0.8932 Y4.0304
G01 X-0.8133 Y3.8894
G01 X-0.7186 Y3.7578
G01 X-0.6102 Y3.6372
G01 X-0.4895 Y3.5290
G01 X5.1905 Y-1.1571
G01 X5.2958 Y-1.2364
G01 X5.4076 Y-1.3061
G01 X5.5251 Y-1.3658
G01 X5.6474 Y-1.4150
G01 X5.7735 Y-1.4533
G01 X5.9025 Y-1.4803
G01 X6.0334 Y-1.4959
G01 X6.1651 Y-1.5000
G01 X80.0000
G01 X80.1974 Y-1.4869
G01 X80.3915 Y-1.4480
G01 X80.5786 Y-1.3839
G01 X80.7558 Y-1.2957
G01 X80.9198 Y-1.1849
G01 X81.0677 Y-1.0535
G01 X81.1971 Y-0.9038
G01 X81.3057 Y-0.7384
G01 X81.3915 Y-0.5601
G01 X81.4532 Y-0.3721
G01 X81.4896 Y-0.1776
G01 X81.5000 Y0.0200
G01 Y10.6987
G01 X81.4869 Y10.8962
G01 X81.4480 Y11.0902
G01 X81.3839 Y11.2774
G01 X81.2957 Y11.4545
G01 X81.1849 Y11.6185
G01 X81.0535 Y11.7665
G01 X80.9038 Y11.8959
G01 X80.7384 Y12.0044
G01 X80.5601 Y12.0903
G01 X80.3721 Y12.1519
G01 X80.1776 Y12.1883
G01 X79.9800 Y12.1987
G01 X10.0200
G01 X9.8901 Y12.1952
G01 X9.7611 Y12.1799
G01 X9.6339 Y12.1529
G01 X9.5098 Y12.1146
G00 Z1.0000 F500
G00 X0.0000 Y0.0000 F3000

M05
