;Project AngleTop_PanelV2
;Created by Estlcam version 10 build 11.006
;Machining time about 02:06:49 hours

G90
G92 X0 Y0 Z0
M03 S24000
G00 Z1.0000 F500


;No. 1: Part 1
G00 X-31.2466 Y0.6476 F3000
G00 Z0.5000 F500
G01 Z-1.1000 F120
G01 X-1.7628 F300
G01 Y3.2826
G01 X-31.2466
G01 Y5.9176
G01 X-1.7628
G01 Y8.5526
G01 X-31.2466
G01 Y11.1876
G01 X-1.7628
G01 Y13.8226
G01 X-31.2466
G01 Y16.4576
G01 X-1.7628
G01 Y19.0926
G01 X-31.2466
G01 Y21.7276
G01 X-1.7628
G01 Y24.3626
G01 X-31.2466
G01 Y26.9976
G01 X-1.7628
G01 Y29.6326
G01 X-31.2466
G01 Y32.2676
G01 X-1.7628
G01 Y34.9026
G01 X-31.2466
G01 Y37.5376
G01 X-1.7628
G01 Y40.1726
G01 X-31.2466
G01 Y42.8076
G01 X-1.7628
G01 Y45.4426
G01 X-31.2466
G01 Y48.0776
G01 X-1.7628
G01 Y50.7126
G01 X-31.2466
G01 Y53.3476
G01 X-1.7628
G01 Y55.9826
G01 X-31.2466
G01 Y58.6176
G01 X-1.7628
G01 Y61.2526
G01 X-31.2466
G01 Y63.8876
G01 X-1.7628
G01 Y66.5226
G01 X-31.2466
G01 Y69.1576
G01 X-1.7628
G01 Y71.7926
G01 X-31.2466
G01 Y74.4276
G01 X-1.7628
G01 Y77.0626
G01 X-31.2466
G01 Y79.6976
G01 X-1.7628
G01 Y82.3326
G01 X-31.2466
G01 Y84.9676
G01 X-1.7628
G01 Y87.6026
G01 X-31.2466
G01 Y90.2376
G01 X-1.7628
G01 Y92.8726
G01 X-31.2466
G01 Y95.5076
G01 X-1.7628
G01 Y98.1426
G01 X-31.2466
G01 Y100.7776
G01 X-1.7628
G01 Y103.4126
G01 X-31.2466
G01 Y106.0476
G01 X-1.7628
G01 Y108.6826
G01 X-31.2466
G01 Y111.3176
G01 X-1.7628
G01 Y113.9526
G01 X-31.2466
G01 Y116.5876
G01 X-1.7628
G01 Y119.2226
G01 X-31.2466
G01 Y121.8576
G01 X-1.7628
G01 Y124.4926
G01 X-31.2466
G01 Y127.1276
G01 X-1.7628
G01 Y129.7626
G01 X-31.2466
G01 Y132.3976
G01 X-1.7628
G01 Y135.0326
G01 X-31.2466
G01 Y137.6676
G01 X-1.7628
G01 Y140.3026
G01 X-31.2466
G01 Y142.9376
G01 X-1.7628
G01 Y145.5726
G01 X-31.2466
G01 Y148.2076
G01 X-1.7628
G01 Y150.8426
G01 X-31.2466
G01 Y153.4776
G01 X-1.7628
G01 Y156.1126
G01 X-31.2466
G01 Y158.7476
G01 X-1.7628
G01 Y161.3826
G01 X-31.2466
G01 Y164.0176
G01 X-1.7628
G01 Y166.6526
G01 X-31.2466
G01 Y169.2876
G01 X-1.7628
G01 Y171.9226
G01 X-31.2466
G01 Y174.5576
G01 X-1.7628
G01 Y177.1926
G01 X-31.2466
G01 Y179.8276
G01 X-1.7628
G01 Y182.4626
G01 X-31.2466
G01 Y185.0976
G01 X-1.7628
G01 Y187.7326
G01 X-31.2466
G01 Y190.3676
G01 X-1.7628
G01 Y193.0026
G01 X-31.2466
G01 Y195.6376
G01 X-1.7628
G01 Y198.2726
G01 X-31.2466
G01 Y200.9076
G01 X-1.7628
G01 Y203.5426
G01 X-31.2466
G01 Y206.1776
G01 X-1.7628
G01 Y208.8126
G01 X-31.2466
G01 Y211.4476
G01 X-1.7628
G01 Y214.0826
G01 X-31.2466
G01 Y216.7176
G01 X-1.7628
G01 Y219.3526
G01 X-31.2466
G00 Z1.0000 F500
G00 Z0.5000
G01 Z-1.1000 F120
G01 X-31.5566 F300
G01 Y0.0032
G01 X-31.5489 Y-0.1515
G01 X-31.5180 Y-0.3405
G01 X-31.4641 Y-0.5243
G01 X-31.3879 Y-0.7000
G01 X-31.2907 Y-0.8649
G01 X-31.1738 Y-1.0167
G01 X-31.0392 Y-1.1528
G01 X-30.8887 Y-1.2713
G01 X-30.7249 Y-1.3704
G01 X-30.5500 Y-1.4485
G01 X-30.3669 Y-1.5044
G01 X-30.1782 Y-1.5374
G01 X-29.9870 Y-1.5468
G01 X-3.0032 Y-1.5530
G01 X-2.7992 Y-1.5395
G01 X-2.5987 Y-1.4994
G01 X-2.4053 Y-1.4331
G01 X-2.2222 Y-1.3421
G01 X-2.0528 Y-1.2277
G01 X-1.8999 Y-1.0920
G01 X-1.7661 Y-0.9374
G01 X-1.6539 Y-0.7665
G01 X-1.5651 Y-0.5823
G01 X-1.5013 Y-0.3881
G01 X-1.4637 Y-0.1871
G01 X-1.4528 Y0.0170
G01 Y219.9970
G01 X-1.4663 Y220.2010
G01 X-1.5065 Y220.4014
G01 X-1.5727 Y220.5947
G01 X-1.6638 Y220.7777
G01 X-1.7781 Y220.9471
G01 X-1.9138 Y221.1000
G01 X-2.0684 Y221.2337
G01 X-2.2392 Y221.3459
G01 X-2.4233 Y221.4347
G01 X-2.6175 Y221.4984
G01 X-2.8184 Y221.5361
G01 X-3.0225 Y221.5470
G01 X-30.0063 Y221.5532
G01 X-30.1995 Y221.5411
G01 X-30.3898 Y221.5051
G01 X-30.5740 Y221.4456
G01 X-30.7494 Y221.3636
G01 X-30.9132 Y221.2604
G01 X-31.0629 Y221.1376
G01 X-31.1961 Y220.9970
G01 X-31.3107 Y220.8410
G01 X-31.4050 Y220.6718
G01 X-31.4774 Y220.4923
G01 X-31.5269 Y220.3051
G01 X-31.5527 Y220.1132
G01 X-31.5566 Y219.9832
G01 Y219.3526
G01 X-31.2466
G00 Z1.0000 F500
G00 Y0.6476 F3000
G00 Z-0.6000 F500
G01 Z-2.2000 F120
G01 X-1.7628 F300
G01 Y3.2826
G01 X-31.2466
G01 Y5.9176
G01 X-1.7628
G01 Y8.5526
G01 X-31.2466
G01 Y11.1876
G01 X-1.7628
G01 Y13.8226
G01 X-31.2466
G01 Y16.4576
G01 X-1.7628
G01 Y19.0926
G01 X-31.2466
G01 Y21.7276
G01 X-1.7628
G01 Y24.3626
G01 X-31.2466
G01 Y26.9976
G01 X-1.7628
G01 Y29.6326
G01 X-31.2466
G01 Y32.2676
G01 X-1.7628
G01 Y34.9026
G01 X-31.2466
G01 Y37.5376
G01 X-1.7628
G01 Y40.1726
G01 X-31.2466
G01 Y42.8076
G01 X-1.7628
G01 Y45.4426
G01 X-31.2466
G01 Y48.0776
G01 X-1.7628
G01 Y50.7126
G01 X-31.2466
G01 Y53.3476
G01 X-1.7628
G01 Y55.9826
G01 X-31.2466
G01 Y58.6176
G01 X-1.7628
G01 Y61.2526
G01 X-31.2466
G01 Y63.8876
G01 X-1.7628
G01 Y66.5226
G01 X-31.2466
G01 Y69.1576
G01 X-1.7628
G01 Y71.7926
G01 X-31.2466
G01 Y74.4276
G01 X-1.7628
G01 Y77.0626
G01 X-31.2466
G01 Y79.6976
G01 X-1.7628
G01 Y82.3326
G01 X-31.2466
G01 Y84.9676
G01 X-1.7628
G01 Y87.6026
G01 X-31.2466
G01 Y90.2376
G01 X-1.7628
G01 Y92.8726
G01 X-31.2466
G01 Y95.5076
G01 X-1.7628
G01 Y98.1426
G01 X-31.2466
G01 Y100.7776
G01 X-1.7628
G01 Y103.4126
G01 X-31.2466
G01 Y106.0476
G01 X-1.7628
G01 Y108.6826
G01 X-31.2466
G01 Y111.3176
G01 X-1.7628
G01 Y113.9526
G01 X-31.2466
G01 Y116.5876
G01 X-1.7628
G01 Y119.2226
G01 X-31.2466
G01 Y121.8576
G01 X-1.7628
G01 Y124.4926
G01 X-31.2466
G01 Y127.1276
G01 X-1.7628
G01 Y129.7626
G01 X-31.2466
G01 Y132.3976
G01 X-1.7628
G01 Y135.0326
G01 X-31.2466
G01 Y137.6676
G01 X-1.7628
G01 Y140.3026
G01 X-31.2466
G01 Y142.9376
G01 X-1.7628
G01 Y145.5726
G01 X-31.2466
G01 Y148.2076
G01 X-1.7628
G01 Y150.8426
G01 X-31.2466
G01 Y153.4776
G01 X-1.7628
G01 Y156.1126
G01 X-31.2466
G01 Y158.7476
G01 X-1.7628
G01 Y161.3826
G01 X-31.2466
G01 Y164.0176
G01 X-1.7628
G01 Y166.6526
G01 X-31.2466
G01 Y169.2876
G01 X-1.7628
G01 Y171.9226
G01 X-31.2466
G01 Y174.5576
G01 X-1.7628
G01 Y177.1926
G01 X-31.2466
G01 Y179.8276
G01 X-1.7628
G01 Y182.4626
G01 X-31.2466
G01 Y185.0976
G01 X-1.7628
G01 Y187.7326
G01 X-31.2466
G01 Y190.3676
G01 X-1.7628
G01 Y193.0026
G01 X-31.2466
G01 Y195.6376
G01 X-1.7628
G01 Y198.2726
G01 X-31.2466
G01 Y200.9076
G01 X-1.7628
G01 Y203.5426
G01 X-31.2466
G01 Y206.1776
G01 X-1.7628
G01 Y208.8126
G01 X-31.2466
G01 Y211.4476
G01 X-1.7628
G01 Y214.0826
G01 X-31.2466
G01 Y216.7176
G01 X-1.7628
G01 Y219.3526
G01 X-31.2466
G00 Z1.0000 F500
G00 Z-0.6000
G01 Z-2.2000 F120
G01 X-31.5566 F300
G01 Y0.0032
G01 X-31.5489 Y-0.1515
G01 X-31.5180 Y-0.3405
G01 X-31.4641 Y-0.5243
G01 X-31.3879 Y-0.7000
G01 X-31.2907 Y-0.8649
G01 X-31.1738 Y-1.0167
G01 X-31.0392 Y-1.1528
G01 X-30.8887 Y-1.2713
G01 X-30.7249 Y-1.3704
G01 X-30.5500 Y-1.4485
G01 X-30.3669 Y-1.5044
G01 X-30.1782 Y-1.5374
G01 X-29.9870 Y-1.5468
G01 X-3.0032 Y-1.5530
G01 X-2.7992 Y-1.5395
G01 X-2.5987 Y-1.4994
G01 X-2.4053 Y-1.4331
G01 X-2.2222 Y-1.3421
G01 X-2.0528 Y-1.2277
G01 X-1.8999 Y-1.0920
G01 X-1.7661 Y-0.9374
G01 X-1.6539 Y-0.7665
G01 X-1.5651 Y-0.5823
G01 X-1.5013 Y-0.3881
G01 X-1.4637 Y-0.1871
G01 X-1.4528 Y0.0170
G01 Y219.9970
G01 X-1.4663 Y220.2010
G01 X-1.5065 Y220.4014
G01 X-1.5727 Y220.5947
G01 X-1.6638 Y220.7777
G01 X-1.7781 Y220.9471
G01 X-1.9138 Y221.1000
G01 X-2.0684 Y221.2337
G01 X-2.2392 Y221.3459
G01 X-2.4233 Y221.4347
G01 X-2.6175 Y221.4984
G01 X-2.8184 Y221.5361
G01 X-3.0225 Y221.5470
G01 X-30.0063 Y221.5532
G01 X-30.1995 Y221.5411
G01 X-30.3898 Y221.5051
G01 X-30.5740 Y221.4456
G01 X-30.7494 Y221.3636
G01 X-30.9132 Y221.2604
G01 X-31.0629 Y221.1376
G01 X-31.1961 Y220.9970
G01 X-31.3107 Y220.8410
G01 X-31.4050 Y220.6718
G01 X-31.4774 Y220.4923
G01 X-31.5269 Y220.3051
G01 X-31.5527 Y220.1132
G01 X-31.5566 Y219.9832
G01 Y219.3526
G01 X-31.2466
G00 Z1.0000 F500
G00 Y0.6476 F3000
G00 Z-1.7000 F500
G01 Z-3.3000 F120
G01 X-1.7628 F300
G01 Y3.2826
G01 X-31.2466
G01 Y5.9176
G01 X-1.7628
G01 Y8.5526
G01 X-31.2466
G01 Y11.1876
G01 X-1.7628
G01 Y13.8226
G01 X-31.2466
G01 Y16.4576
G01 X-1.7628
G01 Y19.0926
G01 X-31.2466
G01 Y21.7276
G01 X-1.7628
G01 Y24.3626
G01 X-31.2466
G01 Y26.9976
G01 X-1.7628
G01 Y29.6326
G01 X-31.2466
G01 Y32.2676
G01 X-1.7628
G01 Y34.9026
G01 X-31.2466
G01 Y37.5376
G01 X-1.7628
G01 Y40.1726
G01 X-31.2466
G01 Y42.8076
G01 X-1.7628
G01 Y45.4426
G01 X-31.2466
G01 Y48.0776
G01 X-1.7628
G01 Y50.7126
G01 X-31.2466
G01 Y53.3476
G01 X-1.7628
G01 Y55.9826
G01 X-31.2466
G01 Y58.6176
G01 X-1.7628
G01 Y61.2526
G01 X-31.2466
G01 Y63.8876
G01 X-1.7628
G01 Y66.5226
G01 X-31.2466
G01 Y69.1576
G01 X-1.7628
G01 Y71.7926
G01 X-31.2466
G01 Y74.4276
G01 X-1.7628
G01 Y77.0626
G01 X-31.2466
G01 Y79.6976
G01 X-1.7628
G01 Y82.3326
G01 X-31.2466
G01 Y84.9676
G01 X-1.7628
G01 Y87.6026
G01 X-31.2466
G01 Y90.2376
G01 X-1.7628
G01 Y92.8726
G01 X-31.2466
G01 Y95.5076
G01 X-1.7628
G01 Y98.1426
G01 X-31.2466
G01 Y100.7776
G01 X-1.7628
G01 Y103.4126
G01 X-31.2466
G01 Y106.0476
G01 X-1.7628
G01 Y108.6826
G01 X-31.2466
G01 Y111.3176
G01 X-1.7628
G01 Y113.9526
G01 X-31.2466
G01 Y116.5876
G01 X-1.7628
G01 Y119.2226
G01 X-31.2466
G01 Y121.8576
G01 X-1.7628
G01 Y124.4926
G01 X-31.2466
G01 Y127.1276
G01 X-1.7628
G01 Y129.7626
G01 X-31.2466
G01 Y132.3976
G01 X-1.7628
G01 Y135.0326
G01 X-31.2466
G01 Y137.6676
G01 X-1.7628
G01 Y140.3026
G01 X-31.2466
G01 Y142.9376
G01 X-1.7628
G01 Y145.5726
G01 X-31.2466
G01 Y148.2076
G01 X-1.7628
G01 Y150.8426
G01 X-31.2466
G01 Y153.4776
G01 X-1.7628
G01 Y156.1126
G01 X-31.2466
G01 Y158.7476
G01 X-1.7628
G01 Y161.3826
G01 X-31.2466
G01 Y164.0176
G01 X-1.7628
G01 Y166.6526
G01 X-31.2466
G01 Y169.2876
G01 X-1.7628
G01 Y171.9226
G01 X-31.2466
G01 Y174.5576
G01 X-1.7628
G01 Y177.1926
G01 X-31.2466
G01 Y179.8276
G01 X-1.7628
G01 Y182.4626
G01 X-31.2466
G01 Y185.0976
G01 X-1.7628
G01 Y187.7326
G01 X-31.2466
G01 Y190.3676
G01 X-1.7628
G01 Y193.0026
G01 X-31.2466
G01 Y195.6376
G01 X-1.7628
G01 Y198.2726
G01 X-31.2466
G01 Y200.9076
G01 X-1.7628
G01 Y203.5426
G01 X-31.2466
G01 Y206.1776
G01 X-1.7628
G01 Y208.8126
G01 X-31.2466
G01 Y211.4476
G01 X-1.7628
G01 Y214.0826
G01 X-31.2466
G01 Y216.7176
G01 X-1.7628
G01 Y219.3526
G01 X-31.2466
G00 Z1.0000 F500
G00 Z-1.7000
G01 Z-3.3000 F120
G01 X-31.5566 F300
G01 Y0.0032
G01 X-31.5489 Y-0.1515
G01 X-31.5180 Y-0.3405
G01 X-31.4641 Y-0.5243
G01 X-31.3879 Y-0.7000
G01 X-31.2907 Y-0.8649
G01 X-31.1738 Y-1.0167
G01 X-31.0392 Y-1.1528
G01 X-30.8887 Y-1.2713
G01 X-30.7249 Y-1.3704
G01 X-30.5500 Y-1.4485
G01 X-30.3669 Y-1.5044
G01 X-30.1782 Y-1.5374
G01 X-29.9870 Y-1.5468
G01 X-3.0032 Y-1.5530
G01 X-2.7992 Y-1.5395
G01 X-2.5987 Y-1.4994
G01 X-2.4053 Y-1.4331
G01 X-2.2222 Y-1.3421
G01 X-2.0528 Y-1.2277
G01 X-1.8999 Y-1.0920
G01 X-1.7661 Y-0.9374
G01 X-1.6539 Y-0.7665
G01 X-1.5651 Y-0.5823
G01 X-1.5013 Y-0.3881
G01 X-1.4637 Y-0.1871
G01 X-1.4528 Y0.0170
G01 Y219.9970
G01 X-1.4663 Y220.2010
G01 X-1.5065 Y220.4014
G01 X-1.5727 Y220.5947
G01 X-1.6638 Y220.7777
G01 X-1.7781 Y220.9471
G01 X-1.9138 Y221.1000
G01 X-2.0684 Y221.2337
G01 X-2.2392 Y221.3459
G01 X-2.4233 Y221.4347
G01 X-2.6175 Y221.4984
G01 X-2.8184 Y221.5361
G01 X-3.0225 Y221.5470
G01 X-30.0063 Y221.5532
G01 X-30.1995 Y221.5411
G01 X-30.3898 Y221.5051
G01 X-30.5740 Y221.4456
G01 X-30.7494 Y221.3636
G01 X-30.9132 Y221.2604
G01 X-31.0629 Y221.1376
G01 X-31.1961 Y220.9970
G01 X-31.3107 Y220.8410
G01 X-31.4050 Y220.6718
G01 X-31.4774 Y220.4923
G01 X-31.5269 Y220.3051
G01 X-31.5527 Y220.1132
G01 X-31.5566 Y219.9832
G01 Y219.3526
G01 X-31.2466
G00 Z1.0000 F500
G00 Y0.6476 F3000
G00 Z-2.8000 F500
G01 Z-4.4000 F120
G01 X-1.7628 F300
G01 Y3.2826
G01 X-31.2466
G01 Y5.9176
G01 X-1.7628
G01 Y8.5526
G01 X-31.2466
G01 Y11.1876
G01 X-1.7628
G01 Y13.8226
G01 X-31.2466
G01 Y16.4576
G01 X-1.7628
G01 Y19.0926
G01 X-31.2466
G01 Y21.7276
G01 X-1.7628
G01 Y24.3626
G01 X-31.2466
G01 Y26.9976
G01 X-1.7628
G01 Y29.6326
G01 X-31.2466
G01 Y32.2676
G01 X-1.7628
G01 Y34.9026
G01 X-31.2466
G01 Y37.5376
G01 X-1.7628
G01 Y40.1726
G01 X-31.2466
G01 Y42.8076
G01 X-1.7628
G01 Y45.4426
G01 X-31.2466
G01 Y48.0776
G01 X-1.7628
G01 Y50.7126
G01 X-31.2466
G01 Y53.3476
G01 X-1.7628
G01 Y55.9826
G01 X-31.2466
G01 Y58.6176
G01 X-1.7628
G01 Y61.2526
G01 X-31.2466
G01 Y63.8876
G01 X-1.7628
G01 Y66.5226
G01 X-31.2466
G01 Y69.1576
G01 X-1.7628
G01 Y71.7926
G01 X-31.2466
G01 Y74.4276
G01 X-1.7628
G01 Y77.0626
G01 X-31.2466
G01 Y79.6976
G01 X-1.7628
G01 Y82.3326
G01 X-31.2466
G01 Y84.9676
G01 X-1.7628
G01 Y87.6026
G01 X-31.2466
G01 Y90.2376
G01 X-1.7628
G01 Y92.8726
G01 X-31.2466
G01 Y95.5076
G01 X-1.7628
G01 Y98.1426
G01 X-31.2466
G01 Y100.7776
G01 X-1.7628
G01 Y103.4126
G01 X-31.2466
G01 Y106.0476
G01 X-1.7628
G01 Y108.6826
G01 X-31.2466
G01 Y111.3176
G01 X-1.7628
G01 Y113.9526
G01 X-31.2466
G01 Y116.5876
G01 X-1.7628
G01 Y119.2226
G01 X-31.2466
G01 Y121.8576
G01 X-1.7628
G01 Y124.4926
G01 X-31.2466
G01 Y127.1276
G01 X-1.7628
G01 Y129.7626
G01 X-31.2466
G01 Y132.3976
G01 X-1.7628
G01 Y135.0326
G01 X-31.2466
G01 Y137.6676
G01 X-1.7628
G01 Y140.3026
G01 X-31.2466
G01 Y142.9376
G01 X-1.7628
G01 Y145.5726
G01 X-31.2466
G01 Y148.2076
G01 X-1.7628
G01 Y150.8426
G01 X-31.2466
G01 Y153.4776
G01 X-1.7628
G01 Y156.1126
G01 X-31.2466
G01 Y158.7476
G01 X-1.7628
G01 Y161.3826
G01 X-31.2466
G01 Y164.0176
G01 X-1.7628
G01 Y166.6526
G01 X-31.2466
G01 Y169.2876
G01 X-1.7628
G01 Y171.9226
G01 X-31.2466
G01 Y174.5576
G01 X-1.7628
G01 Y177.1926
G01 X-31.2466
G01 Y179.8276
G01 X-1.7628
G01 Y182.4626
G01 X-31.2466
G01 Y185.0976
G01 X-1.7628
G01 Y187.7326
G01 X-31.2466
G01 Y190.3676
G01 X-1.7628
G01 Y193.0026
G01 X-31.2466
G01 Y195.6376
G01 X-1.7628
G01 Y198.2726
G01 X-31.2466
G01 Y200.9076
G01 X-1.7628
G01 Y203.5426
G01 X-31.2466
G01 Y206.1776
G01 X-1.7628
G01 Y208.8126
G01 X-31.2466
G01 Y211.4476
G01 X-1.7628
G01 Y214.0826
G01 X-31.2466
G01 Y216.7176
G01 X-1.7628
G01 Y219.3526
G01 X-31.2466
G00 Z1.0000 F500
G00 Z-2.8000
G01 Z-4.4000 F120
G01 X-31.5566 F300
G01 Y0.0032
G01 X-31.5489 Y-0.1515
G01 X-31.5180 Y-0.3405
G01 X-31.4641 Y-0.5243
G01 X-31.3879 Y-0.7000
G01 X-31.2907 Y-0.8649
G01 X-31.1738 Y-1.0167
G01 X-31.0392 Y-1.1528
G01 X-30.8887 Y-1.2713
G01 X-30.7249 Y-1.3704
G01 X-30.5500 Y-1.4485
G01 X-30.3669 Y-1.5044
G01 X-30.1782 Y-1.5374
G01 X-29.9870 Y-1.5468
G01 X-3.0032 Y-1.5530
G01 X-2.7992 Y-1.5395
G01 X-2.5987 Y-1.4994
G01 X-2.4053 Y-1.4331
G01 X-2.2222 Y-1.3421
G01 X-2.0528 Y-1.2277
G01 X-1.8999 Y-1.0920
G01 X-1.7661 Y-0.9374
G01 X-1.6539 Y-0.7665
G01 X-1.5651 Y-0.5823
G01 X-1.5013 Y-0.3881
G01 X-1.4637 Y-0.1871
G01 X-1.4528 Y0.0170
G01 Y219.9970
G01 X-1.4663 Y220.2010
G01 X-1.5065 Y220.4014
G01 X-1.5727 Y220.5947
G01 X-1.6638 Y220.7777
G01 X-1.7781 Y220.9471
G01 X-1.9138 Y221.1000
G01 X-2.0684 Y221.2337
G01 X-2.2392 Y221.3459
G01 X-2.4233 Y221.4347
G01 X-2.6175 Y221.4984
G01 X-2.8184 Y221.5361
G01 X-3.0225 Y221.5470
G01 X-30.0063 Y221.5532
G01 X-30.1995 Y221.5411
G01 X-30.3898 Y221.5051
G01 X-30.5740 Y221.4456
G01 X-30.7494 Y221.3636
G01 X-30.9132 Y221.2604
G01 X-31.0629 Y221.1376
G01 X-31.1961 Y220.9970
G01 X-31.3107 Y220.8410
G01 X-31.4050 Y220.6718
G01 X-31.4774 Y220.4923
G01 X-31.5269 Y220.3051
G01 X-31.5527 Y220.1132
G01 X-31.5566 Y219.9832
G01 Y219.3526
G01 X-31.2466
G00 Z1.0000 F500
G00 Y0.6476 F3000
G00 Z-3.9000 F500
G01 Z-5.3000 F120
G01 X-1.7628 F300
G01 Y3.2826
G01 X-31.2466
G01 Y5.9176
G01 X-1.7628
G01 Y8.5526
G01 X-31.2466
G01 Y11.1876
G01 X-1.7628
G01 Y13.8226
G01 X-31.2466
G01 Y16.4576
G01 X-1.7628
G01 Y19.0926
G01 X-31.2466
G01 Y21.7276
G01 X-1.7628
G01 Y24.3626
G01 X-31.2466
G01 Y26.9976
G01 X-1.7628
G01 Y29.6326
G01 X-31.2466
G01 Y32.2676
G01 X-1.7628
G01 Y34.9026
G01 X-31.2466
G01 Y37.5376
G01 X-1.7628
G01 Y40.1726
G01 X-31.2466
G01 Y42.8076
G01 X-1.7628
G01 Y45.4426
G01 X-31.2466
G01 Y48.0776
G01 X-1.7628
G01 Y50.7126
G01 X-31.2466
G01 Y53.3476
G01 X-1.7628
G01 Y55.9826
G01 X-31.2466
G01 Y58.6176
G01 X-1.7628
G01 Y61.2526
G01 X-31.2466
G01 Y63.8876
G01 X-1.7628
G01 Y66.5226
G01 X-31.2466
G01 Y69.1576
G01 X-1.7628
G01 Y71.7926
G01 X-31.2466
G01 Y74.4276
G01 X-1.7628
G01 Y77.0626
G01 X-31.2466
G01 Y79.6976
G01 X-1.7628
G01 Y82.3326
G01 X-31.2466
G01 Y84.9676
G01 X-1.7628
G01 Y87.6026
G01 X-31.2466
G01 Y90.2376
G01 X-1.7628
G01 Y92.8726
G01 X-31.2466
G01 Y95.5076
G01 X-1.7628
G01 Y98.1426
G01 X-31.2466
G01 Y100.7776
G01 X-1.7628
G01 Y103.4126
G01 X-31.2466
G01 Y106.0476
G01 X-1.7628
G01 Y108.6826
G01 X-31.2466
G01 Y111.3176
G01 X-1.7628
G01 Y113.9526
G01 X-31.2466
G01 Y116.5876
G01 X-1.7628
G01 Y119.2226
G01 X-31.2466
G01 Y121.8576
G01 X-1.7628
G01 Y124.4926
G01 X-31.2466
G01 Y127.1276
G01 X-1.7628
G01 Y129.7626
G01 X-31.2466
G01 Y132.3976
G01 X-1.7628
G01 Y135.0326
G01 X-31.2466
G01 Y137.6676
G01 X-1.7628
G01 Y140.3026
G01 X-31.2466
G01 Y142.9376
G01 X-1.7628
G01 Y145.5726
G01 X-31.2466
G01 Y148.2076
G01 X-1.7628
G01 Y150.8426
G01 X-31.2466
G01 Y153.4776
G01 X-1.7628
G01 Y156.1126
G01 X-31.2466
G01 Y158.7476
G01 X-1.7628
G01 Y161.3826
G01 X-31.2466
G01 Y164.0176
G01 X-1.7628
G01 Y166.6526
G01 X-31.2466
G01 Y169.2876
G01 X-1.7628
G01 Y171.9226
G01 X-31.2466
G01 Y174.5576
G01 X-1.7628
G01 Y177.1926
G01 X-31.2466
G01 Y179.8276
G01 X-1.7628
G01 Y182.4626
G01 X-31.2466
G01 Y185.0976
G01 X-1.7628
G01 Y187.7326
G01 X-31.2466
G01 Y190.3676
G01 X-1.7628
G01 Y193.0026
G01 X-31.2466
G01 Y195.6376
G01 X-1.7628
G01 Y198.2726
G01 X-31.2466
G01 Y200.9076
G01 X-1.7628
G01 Y203.5426
G01 X-31.2466
G01 Y206.1776
G01 X-1.7628
G01 Y208.8126
G01 X-31.2466
G01 Y211.4476
G01 X-1.7628
G01 Y214.0826
G01 X-31.2466
G01 Y216.7176
G01 X-1.7628
G01 Y219.3526
G01 X-31.2466
G00 Z1.0000 F500
G00 Z-3.9000
G01 Z-5.3000 F120
G01 X-31.5566 F300
G01 Y0.0032
G01 X-31.5489 Y-0.1515
G01 X-31.5180 Y-0.3405
G01 X-31.4641 Y-0.5243
G01 X-31.3879 Y-0.7000
G01 X-31.2907 Y-0.8649
G01 X-31.1738 Y-1.0167
G01 X-31.0392 Y-1.1528
G01 X-30.8887 Y-1.2713
G01 X-30.7249 Y-1.3704
G01 X-30.5500 Y-1.4485
G01 X-30.3669 Y-1.5044
G01 X-30.1782 Y-1.5374
G01 X-29.9870 Y-1.5468
G01 X-3.0032 Y-1.5530
G01 X-2.7992 Y-1.5395
G01 X-2.5987 Y-1.4994
G01 X-2.4053 Y-1.4331
G01 X-2.2222 Y-1.3421
G01 X-2.0528 Y-1.2277
G01 X-1.8999 Y-1.0920
G01 X-1.7661 Y-0.9374
G01 X-1.6539 Y-0.7665
G01 X-1.5651 Y-0.5823
G01 X-1.5013 Y-0.3881
G01 X-1.4637 Y-0.1871
G01 X-1.4528 Y0.0170
G01 Y219.9970
G01 X-1.4663 Y220.2010
G01 X-1.5065 Y220.4014
G01 X-1.5727 Y220.5947
G01 X-1.6638 Y220.7777
G01 X-1.7781 Y220.9471
G01 X-1.9138 Y221.1000
G01 X-2.0684 Y221.2337
G01 X-2.2392 Y221.3459
G01 X-2.4233 Y221.4347
G01 X-2.6175 Y221.4984
G01 X-2.8184 Y221.5361
G01 X-3.0225 Y221.5470
G01 X-30.0063 Y221.5532
G01 X-30.1995 Y221.5411
G01 X-30.3898 Y221.5051
G01 X-30.5740 Y221.4456
G01 X-30.7494 Y221.3636
G01 X-30.9132 Y221.2604
G01 X-31.0629 Y221.1376
G01 X-31.1961 Y220.9970
G01 X-31.3107 Y220.8410
G01 X-31.4050 Y220.6718
G01 X-31.4774 Y220.4923
G01 X-31.5269 Y220.3051
G01 X-31.5527 Y220.1132
G01 X-31.5566 Y219.9832
G01 Y219.3526
G01 X-31.2466
G00 Z1.0000 F500


;No. 2: Engraving 6
G00 X-5.0375 Y-0.0030 Z1.0000 F3000
G00 Z-4.8000 F500
G01 Z-6.3000 F120
G01 Y219.9970 F300
G00 Z1.0000 F500


;No. 3: Engraving 1
G00 X-3.8512 Y-0.0030 Z1.0000 F3000
G00 Z-5.8000 F500
G01 Z-7.3000 F120
G01 Y219.9970 F300
G00 Z1.0000 F500


;No. 4: Engraving 2
G00 X-2.6132 Y219.9970 Z1.0000 F3000
G00 Z-6.8000 F500
G01 Z-8.3000 F120
G01 Y-0.0030 F300
G00 Z1.0000 F500


;No. 5: Engraving 7
G00 X-10.1746 Y-0.0030 Z1.0000 F3000
G00 Z-4.8000 F500
G01 Z-6.3000 F120
G01 Y219.9970 F300
G00 Z1.0000 F500


;No. 6: Engraving 8
G00 X-10.9996 Y-0.0030 Z1.0000 F3000
G00 Z-4.8000 F500
G01 Z-7.3000 F120
G01 Y219.9970 F300
G00 Z1.0000 F500


;No. 7: Engraving 9
G00 X-11.8246 Y-0.0030 Z1.0000 F3000
G00 Z-4.8000 F500
G01 Z-8.3000 F120
G01 Y219.9970 F300
G00 Z1.0000 F500


;No. 8: Engraving 10
G00 X-12.6496 Y-0.0030 Z1.0000 F3000
G00 Z-4.8000 F500
G01 Z-9.3000 F120
G01 Y219.9970 F300
G00 Z1.0000 F500


;No. 9: Engraving 11
G00 X-13.4746 Y-0.0030 Z1.0000 F3000
G00 Z-4.8000 F500
G01 Z-10.3000 F120
G01 Y219.9970 F300
G00 Z1.0000 F500


;No. 10: Engraving 12
G00 X-14.2996 Y-0.0030 Z1.0000 F3000
G00 Z-4.8000 F500
G01 Z-11.3000 F120
G01 Y219.9970 F300
G00 Z1.0000 F500


;No. 11: Engraving 13
G00 X-15.1246 Y-0.0030 Z1.0000 F3000
G00 Z-4.8000 F500
G01 Z-11.3000 F120
G01 Y219.9970 F300
G00 Z1.0000 F500
G00 Y-0.0030 F3000
G00 Z-10.8000 F500
G01 Z-12.3000 F120
G01 Y219.9970 F300
G00 Z1.0000 F500


;No. 12: Engraving 14
G00 X-15.9496 Y-0.0030 Z1.0000 F3000
G00 Z-4.8000 F500
G01 Z-11.3000 F120
G01 Y219.9970 F300
G00 Z1.0000 F500
G00 Y-0.0030 F3000
G00 Z-10.8000 F500
G01 Z-13.3000 F120
G01 Y219.9970 F300
G00 Z1.0000 F500


;No. 13: Engraving 15
G00 X-16.7746 Y-0.0030 Z1.0000 F3000
G00 Z-4.8000 F500
G01 Z-11.3000 F120
G01 Y219.9970 F300
G00 Z1.0000 F500
G00 Y-0.0030 F3000
G00 Z-10.8000 F500
G01 Z-14.3000 F120
G01 Y219.9970 F300
G00 Z1.0000 F500


;No. 14: Engraving 16
G00 X-17.5996 Y-0.0030 Z1.0000 F3000
G00 Z-4.8000 F500
G01 Z-11.3000 F120
G01 Y219.9970 F300
G00 Z1.0000 F500
G00 Y-0.0030 F3000
G00 Z-10.8000 F500
G01 Z-15.3000 F120
G01 Y219.9970 F300
G00 Z1.0000 F500


;No. 15: Engraving 17
G00 X-18.4246 Y-0.0030 Z1.0000 F3000
G00 Z-4.8000 F500
G01 Z-11.3000 F120
G01 Y219.9970 F300
G00 Z1.0000 F500
G00 Y-0.0030 F3000
G00 Z-10.8000 F500
G01 Z-16.3000 F120
G01 Y219.9970 F300
G00 Z1.0000 F500


;No. 16: Engraving 18
G00 X-19.2496 Y-0.0030 Z1.0000 F3000
G00 Z-4.8000 F500
G01 Z-11.3000 F120
G01 Y219.9970 F300
G00 Z1.0000 F500
G00 Y-0.0030 F3000
G00 Z-10.8000 F500
G01 Z-17.3000 F120
G01 Y219.9970 F300
G00 Z1.0000 F500


;No. 17: Engraving 19
G00 X-20.0746 Y-0.0030 Z1.0000 F3000
G00 Z-4.8000 F500
G01 Z-11.3000 F120
G01 Y219.9970 F300
G00 Z1.0000 F500
G00 Y-0.0030 F3000
G00 Z-10.8000 F500
G01 Z-17.3000 F120
G01 Y219.9970 F300
G00 Z1.0000 F500
G00 Y-0.0030 F3000
G00 Z-16.8000 F500
G01 Z-18.3000 F120
G01 Y219.9970 F300
G00 Z1.0000 F500


;No. 18: Engraving 5
G00 X-20.8996 Y219.9970 Z1.0000 F3000
G00 Z-4.8000 F500
G01 Z-11.3000 F120
G01 Y-0.0030 F300
G00 Z1.0000 F500
G00 Y219.9970 F3000
G00 Z-10.8000 F500
G01 Z-17.3000 F120
G01 Y-0.0030 F300
G00 Z1.0000 F500
G00 Y219.9970 F3000
G00 Z-16.8000 F500
G01 Z-19.0000 F120
G01 Y-0.0030 F300
G00 Z1.0000 F500
G00 X0.0000 Y0.0000 F3000

M05
