;Project BassPortHole
;Created by Estlcam version 10 build 11.006
;Machining time about 00:46:28 hours

G90
G92 X0 Y0 Z0
M03 S24000
G00 Z1.0000 F500


;No. 1: Hole 2
G00 X-9.6734 Y-36.8900 F3000
G00 Z0.5000 F500
G01 Z-1.2000 F120
G01 X9.6734 F300
G01 Y-34.2550
G01 X16.7594
G01 X-16.7594
G01 Y-31.6200
G01 X-21.3230
G01 X-8.5522
G01 X-15.2605
G01 Y-28.9850
G01 X-24.7821
G01 X-27.5686 Y-26.3500
G01 X-19.4574
G01 X-22.5953
G01 Y-23.7150
G01 X-29.8648
G01 X-31.7796 Y-21.0800
G01 X-25.0705
G01 X-27.0680 Y-18.4450
G01 X-33.3816
G01 X-34.7037 Y-15.8100
G01 X-28.6883
G01 X-29.9916 Y-13.1750
G01 X-35.7884
G01 X-36.6529 Y-10.5400
G01 X-31.0131
G01 X-31.7895 Y-7.9050
G01 X-37.3072
G01 X-37.7693 Y-5.2700
G01 X-32.3294
G01 X-32.6493 Y-2.6350
G01 X-38.0456
G01 X-38.1398 Y0.0000
G01 X-32.7598
G01 X-32.6493 Y2.6350
G01 X-38.0456
G01 X-37.7693 Y5.2700
G01 X-32.3294
G01 X-31.7894 Y7.9050
G01 X-37.3069
G01 X-36.6529 Y10.5400
G01 X-31.0131
G01 X-29.9915 Y13.1750
G01 X-35.7884
G01 X-34.7037 Y15.8100
G01 X-28.6883
G01 X-27.0680 Y18.4450
G01 X-33.3816
G01 X-31.7796 Y21.0800
G01 X-25.0705
G01 X-22.5953 Y23.7150
G01 X-29.8648
G01 X-27.5686 Y26.3500
G01 X-19.4574
G01 Y28.9850
G01 X-15.2605
G01 X-24.7821
G01 X-21.3230
G01 Y31.6200
G01 X-8.5521
G01 X-16.7594
G01 Y34.2550
G01 X16.7591
G01 Y31.6200
G01 X21.3230
G01 X8.5522
G01 X15.2605
G01 Y28.9850
G01 X24.7821
G01 X27.5686 Y26.3500
G01 X19.4574
G01 X22.5953
G01 Y23.7150
G01 X29.8648
G01 X31.7796 Y21.0800
G01 X25.0705
G01 X27.0680 Y18.4450
G01 X33.3816
G01 X34.7037 Y15.8100
G01 X28.6883
G01 X29.9916 Y13.1750
G01 X35.7884
G01 X36.6529 Y10.5400
G01 X31.0131
G01 X31.7895 Y7.9050
G01 X37.3072
G01 X37.7693 Y5.2700
G01 X32.3294
G01 X32.6493 Y2.6350
G01 X38.0456
G01 X38.1398 Y0.0000
G01 X32.7598
G01 X32.6493 Y-2.6350
G01 X38.0456
G01 X37.7693 Y-5.2700
G01 X32.3294
G01 X31.7894 Y-7.9050
G01 X37.3072
G01 X36.6529 Y-10.5400
G01 X31.0131
G01 X29.9915 Y-13.1750
G01 X35.7883
G01 X34.7037 Y-15.8100
G01 X28.6883
G01 X27.0680 Y-18.4450
G01 X33.3816
G01 X31.7796 Y-21.0800
G01 X25.0705
G01 X22.5953 Y-23.7150
G01 X29.8648
G01 X27.5686 Y-26.3500
G01 X19.4574
G01 Y-28.9850
G01 X15.2605
G01 X24.7821
G01 X21.3230
G01 Y-31.6200
G01 X8.5521
G00 Z1.0000 F500
G00 X9.6734 Y34.2550 F3000
G00 Z0.5000 F500
G01 Z-1.2000 F120
G01 Y36.8900 F300
G01 X-9.6734
G00 Z1.0000 F500
G00 X-8.5521 Y31.6200 F3000
G00 Z0.5000 F500
G01 Z-1.2000 F120
G01 X-8.2291 Y31.3839 F300
G01 X-7.1978 Y31.6363
G01 X-6.1587 Y31.8549
G01 X-5.1130 Y32.0394
G01 X-4.0619 Y32.1896
G01 X-3.0064 Y32.3053
G01 X-1.9477 Y32.3864
G01 X-0.8869 Y32.4328
G01 X0.1749 Y32.4444
G01 X1.2365 Y32.4214
G01 X2.2967 Y32.3636
G01 X3.3545 Y32.2711
G01 X4.4087 Y32.1441
G01 X5.4581 Y31.9827
G01 X6.5018 Y31.7870
G01 X7.5384 Y31.5573
G01 X8.5670 Y31.2938
G01 X9.5865 Y30.9967
G01 X10.5956 Y30.6665
G01 X11.5934 Y30.3034
G01 X12.5788 Y29.9079
G01 X13.5508 Y29.4803
G01 X14.5082 Y29.0212
G01 X15.4501 Y28.5310
G01 X16.3754 Y28.0102
G01 X17.2832 Y27.4595
G01 X18.1725 Y26.8793
G01 X19.0424 Y26.2703
G01 X19.8918 Y25.6333
G01 X20.7200 Y24.9687
G01 X21.5259 Y24.2774
G01 X22.3088 Y23.5601
G01 X23.0679 Y22.8176
G01 X23.8022 Y22.0507
G01 X24.5110 Y21.2601
G01 X25.1936 Y20.4468
G01 X25.8492 Y19.6115
G01 X26.4772 Y18.7553
G01 X27.0768 Y17.8790
G01 X27.6474 Y16.9835
G01 X28.1883 Y16.0698
G01 X28.6992 Y15.1390
G01 X29.1792 Y14.1919
G01 X29.6281 Y13.2296
G01 X30.0452 Y12.2531
G01 X30.4301 Y11.2635
G01 X30.7824 Y10.2619
G01 X31.1018 Y9.2492
G01 X31.3879 Y8.2267
G01 X31.6404 Y7.1953
G01 X31.8590 Y6.1562
G01 X32.0434 Y5.1106
G01 X32.1936 Y4.0594
G01 X32.3093 Y3.0039
G01 X32.3904 Y1.9452
G01 X32.4368 Y0.8844
G01 X32.4485 Y-0.1773
G01 X32.4254 Y-1.2389
G01 X32.3676 Y-2.2991
G01 X32.2752 Y-3.3569
G01 X32.1481 Y-4.4111
G01 X31.9867 Y-5.4606
G01 X31.7910 Y-6.5042
G01 X31.5613 Y-7.5409
G01 X31.2978 Y-8.5695
G01 X31.0007 Y-9.5889
G01 X30.6705 Y-10.5981
G01 X30.3074 Y-11.5959
G01 X29.9119 Y-12.5813
G01 X29.4844 Y-13.5532
G01 X29.0252 Y-14.5106
G01 X28.5350 Y-15.4525
G01 X28.0143 Y-16.3778
G01 X27.4635 Y-17.2857
G01 X26.8833 Y-18.1750
G01 X26.2744 Y-19.0448
G01 X25.6373 Y-19.8942
G01 X24.9727 Y-20.7224
G01 X24.2815 Y-21.5284
G01 X23.5642 Y-22.3113
G01 X22.8217 Y-23.0703
G01 X22.0547 Y-23.8046
G01 X21.2641 Y-24.5135
G01 X20.4508 Y-25.1961
G01 X19.6156 Y-25.8517
G01 X18.7593 Y-26.4796
G01 X17.8830 Y-27.0792
G01 X16.9875 Y-27.6498
G01 X16.0739 Y-28.1908
G01 X15.1430 Y-28.7016
G01 X14.1959 Y-29.1817
G01 X13.2336 Y-29.6305
G01 X12.2571 Y-30.0476
G01 X11.2675 Y-30.4325
G01 X10.2659 Y-30.7849
G01 X9.2532 Y-31.1043
G01 X8.2307 Y-31.3903
G01 X7.1993 Y-31.6428
G01 X6.1603 Y-31.8614
G01 X5.1146 Y-32.0459
G01 X4.0635 Y-32.1960
G01 X3.0080 Y-32.3117
G01 X1.9492 Y-32.3928
G01 X0.8884 Y-32.4392
G01 X-0.1733 Y-32.4509
G01 X-1.2349 Y-32.4278
G01 X-2.2951 Y-32.3701
G01 X-3.3529 Y-32.2776
G01 X-4.4071 Y-32.1506
G01 X-5.4566 Y-31.9892
G01 X-6.5002 Y-31.7935
G01 X-7.5369 Y-31.5637
G01 X-8.5655 Y-31.3002
G01 X-9.5849 Y-31.0032
G01 X-10.5940 Y-30.6730
G01 X-11.5918 Y-30.3099
G01 X-12.5772 Y-29.9144
G01 X-13.5492 Y-29.4868
G01 X-14.5066 Y-29.0277
G01 X-15.4485 Y-28.5375
G01 X-16.3738 Y-28.0167
G01 X-17.2816 Y-27.4659
G01 X-18.1709 Y-26.8858
G01 X-19.0408 Y-26.2768
G01 X-19.8902 Y-25.6397
G01 X-20.7184 Y-24.9752
G01 X-21.5243 Y-24.2839
G01 X-22.3073 Y-23.5666
G01 X-23.0663 Y-22.8241
G01 X-23.8006 Y-22.0571
G01 X-24.5095 Y-21.2666
G01 X-25.1921 Y-20.4532
G01 X-25.8477 Y-19.6180
G01 X-26.4756 Y-18.7618
G01 X-27.0752 Y-17.8854
G01 X-27.6458 Y-16.9900
G01 X-28.1868 Y-16.0763
G01 X-28.6976 Y-15.1454
G01 X-29.1776 Y-14.1983
G01 X-29.6265 Y-13.2360
G01 X-30.0436 Y-12.2596
G01 X-30.4285 Y-11.2700
G01 X-30.7809 Y-10.2683
G01 X-31.1002 Y-9.2557
G01 X-31.3863 Y-8.2331
G01 X-31.6388 Y-7.2018
G01 X-31.8574 Y-6.1627
G01 X-32.0419 Y-5.1170
G01 X-32.1920 Y-4.0659
G01 X-32.3077 Y-3.0104
G01 X-32.3888 Y-1.9517
G01 X-32.4352 Y-0.8909
G01 X-32.4469 Y0.1709
G01 X-32.4238 Y1.2324
G01 X-32.3660 Y2.2927
G01 X-32.2736 Y3.3505
G01 X-32.1466 Y4.4046
G01 X-31.9851 Y5.4541
G01 X-31.7894 Y6.4977
G01 X-31.5597 Y7.5344
G01 X-31.2962 Y8.5630
G01 X-30.9992 Y9.5824
G01 X-30.6689 Y10.5916
G01 X-30.3059 Y11.5894
G01 X-29.9103 Y12.5748
G01 X-29.4828 Y13.5467
G01 X-29.0236 Y14.5041
G01 X-28.5334 Y15.4460
G01 X-28.0127 Y16.3714
G01 X-27.4619 Y17.2792
G01 X-26.8817 Y18.1685
G01 X-26.2728 Y19.0383
G01 X-25.6357 Y19.8878
G01 X-24.9712 Y20.7159
G01 X-24.2799 Y21.5219
G01 X-23.5626 Y22.3048
G01 X-22.8201 Y23.0638
G01 X-22.0531 Y23.7982
G01 X-21.2626 Y24.5070
G01 X-20.4492 Y25.1896
G01 X-19.6140 Y25.8452
G01 X-18.7577 Y26.4732
G01 X-17.8814 Y27.0727
G01 X-16.9859 Y27.6433
G01 X-16.0723 Y28.1843
G01 X-15.1414 Y28.6951
G01 X-14.1943 Y29.1752
G01 X-13.2320 Y29.6240
G01 X-12.2556 Y30.0411
G01 X-11.2660 Y30.4261
G01 X-10.2643 Y30.7784
G01 X-9.2517 Y31.0978
G01 X-8.2291 Y31.3839
G01 X-8.5521 Y31.6200
G00 Z1.0000 F500
G00 X-9.6734 Y36.8900 F3000
G00 Z0.5000 F500
G01 Z-1.2000 F120
G01 X-10.0533 Y37.1075 F300
G01 X-8.9279 Y37.3942
G01 X-7.7943 Y37.6468
G01 X-6.6536 Y37.8651
G01 X-5.5068 Y38.0488
G01 X-4.3550 Y38.1977
G01 X-3.1993 Y38.3119
G01 X-2.0406 Y38.3910
G01 X-0.8800 Y38.4352
G01 X0.2813 Y38.4443
G01 X1.4424 Y38.4182
G01 X2.6022 Y38.3572
G01 X3.7596 Y38.2611
G01 X4.9136 Y38.1301
G01 X6.0631 Y37.9643
G01 X7.2070 Y37.7639
G01 X8.3444 Y37.5290
G01 X9.4742 Y37.2599
G01 X10.5953 Y36.9568
G01 X11.7068 Y36.6199
G01 X12.8076 Y36.2497
G01 X13.8967 Y35.8463
G01 X14.9731 Y35.4103
G01 X16.0359 Y34.9419
G01 X17.0840 Y34.4417
G01 X18.1165 Y33.9100
G01 X19.1325 Y33.3474
G01 X20.1311 Y32.7543
G01 X21.1113 Y32.1314
G01 X22.0722 Y31.4791
G01 X23.0130 Y30.7981
G01 X23.9328 Y30.0890
G01 X24.8307 Y29.3525
G01 X25.7060 Y28.5891
G01 X26.5579 Y27.7997
G01 X27.3855 Y26.9849
G01 X28.1881 Y26.1455
G01 X28.9650 Y25.2822
G01 X29.7155 Y24.3959
G01 X30.4389 Y23.4873
G01 X31.1344 Y22.5573
G01 X31.8016 Y21.6066
G01 X32.4398 Y20.6363
G01 X33.0484 Y19.6471
G01 X33.6268 Y18.6400
G01 X34.1745 Y17.6159
G01 X34.6911 Y16.5757
G01 X35.1760 Y15.5204
G01 X35.6288 Y14.4509
G01 X36.0491 Y13.3683
G01 X36.4365 Y12.2734
G01 X36.7907 Y11.1673
G01 X37.1113 Y10.0511
G01 X37.3980 Y8.9256
G01 X37.6506 Y7.7920
G01 X37.8689 Y6.6513
G01 X38.0526 Y5.5046
G01 X38.2015 Y4.3528
G01 X38.3157 Y3.1970
G01 X38.3949 Y2.0383
G01 X38.4390 Y0.8778
G01 X38.4481 Y-0.2836
G01 X38.4220 Y-1.4447
G01 X38.3610 Y-2.6044
G01 X38.2649 Y-3.7619
G01 X38.1339 Y-4.9158
G01 X37.9681 Y-6.0653
G01 X37.7677 Y-7.2093
G01 X37.5328 Y-8.3467
G01 X37.2637 Y-9.4765
G01 X36.9606 Y-10.5976
G01 X36.6237 Y-11.7090
G01 X36.2535 Y-12.8098
G01 X35.8501 Y-13.8989
G01 X35.4141 Y-14.9754
G01 X34.9457 Y-16.0381
G01 X34.4455 Y-17.0862
G01 X33.9138 Y-18.1188
G01 X33.3512 Y-19.1348
G01 X32.7581 Y-20.1333
G01 X32.1352 Y-21.1135
G01 X31.4829 Y-22.0745
G01 X30.8019 Y-23.0152
G01 X30.0928 Y-23.9350
G01 X29.3563 Y-24.8330
G01 X28.5929 Y-25.7083
G01 X27.8035 Y-26.5601
G01 X26.9887 Y-27.3877
G01 X26.1493 Y-28.1904
G01 X25.2861 Y-28.9673
G01 X24.3997 Y-29.7177
G01 X23.4911 Y-30.4411
G01 X22.5611 Y-31.1367
G01 X21.6104 Y-31.8039
G01 X20.6401 Y-32.4421
G01 X19.6509 Y-33.0506
G01 X18.6438 Y-33.6290
G01 X17.6197 Y-34.1768
G01 X16.5795 Y-34.6933
G01 X15.5242 Y-35.1782
G01 X14.4547 Y-35.6310
G01 X13.3721 Y-36.0513
G01 X12.2772 Y-36.4387
G01 X11.1711 Y-36.7929
G01 X10.0549 Y-37.1135
G01 X8.9294 Y-37.4002
G01 X7.7958 Y-37.6528
G01 X6.6551 Y-37.8711
G01 X5.5084 Y-38.0548
G01 X4.3566 Y-38.2038
G01 X3.2008 Y-38.3179
G01 X2.0421 Y-38.3971
G01 X0.8816 Y-38.4412
G01 X-0.2798 Y-38.4503
G01 X-1.4409 Y-38.4243
G01 X-2.6006 Y-38.3632
G01 X-3.7581 Y-38.2672
G01 X-4.9120 Y-38.1362
G01 X-6.0615 Y-37.9704
G01 X-7.2055 Y-37.7700
G01 X-8.3429 Y-37.5351
G01 X-9.4727 Y-37.2660
G01 X-10.5938 Y-36.9628
G01 X-11.7052 Y-36.6260
G01 X-12.8060 Y-36.2557
G01 X-13.8951 Y-35.8524
G01 X-14.9715 Y-35.4163
G01 X-16.0343 Y-34.9480
G01 X-17.0824 Y-34.4477
G01 X-18.1150 Y-33.9160
G01 X-19.1310 Y-33.3534
G01 X-20.1295 Y-32.7604
G01 X-21.1097 Y-32.1374
G01 X-22.0707 Y-31.4851
G01 X-23.0114 Y-30.8042
G01 X-23.9312 Y-30.0951
G01 X-24.8292 Y-29.3585
G01 X-25.7045 Y-28.5952
G01 X-26.5563 Y-27.8058
G01 X-27.3839 Y-26.9910
G01 X-28.1866 Y-26.1516
G01 X-28.9635 Y-25.2883
G01 X-29.7139 Y-24.4020
G01 X-30.4373 Y-23.4933
G01 X-31.1329 Y-22.5633
G01 X-31.8001 Y-21.6127
G01 X-32.4383 Y-20.6423
G01 X-33.0468 Y-19.6532
G01 X-33.6252 Y-18.6461
G01 X-34.1730 Y-17.6220
G01 X-34.6895 Y-16.5818
G01 X-35.1744 Y-15.5265
G01 X-35.6272 Y-14.4570
G01 X-36.0475 Y-13.3743
G01 X-36.4349 Y-12.2794
G01 X-36.7891 Y-11.1734
G01 X-37.1097 Y-10.0571
G01 X-37.3964 Y-8.9317
G01 X-37.6490 Y-7.7981
G01 X-37.8673 Y-6.6574
G01 X-38.0510 Y-5.5106
G01 X-38.2000 Y-4.3588
G01 X-38.3141 Y-3.2031
G01 X-38.3933 Y-2.0444
G01 X-38.4374 Y-0.8838
G01 X-38.4465 Y0.2775
G01 X-38.4205 Y1.4386
G01 X-38.3594 Y2.5984
G01 X-38.2633 Y3.7558
G01 X-38.1324 Y4.9098
G01 X-37.9666 Y6.0593
G01 X-37.7662 Y7.2032
G01 X-37.5313 Y8.3406
G01 X-37.2622 Y9.4704
G01 X-36.9590 Y10.5915
G01 X-36.6222 Y11.7030
G01 X-36.2519 Y12.8038
G01 X-35.8486 Y13.8929
G01 X-35.4125 Y14.9693
G01 X-34.9442 Y16.0321
G01 X-34.4439 Y17.0802
G01 X-33.9122 Y18.1127
G01 X-33.3496 Y19.1287
G01 X-32.7566 Y20.1273
G01 X-32.1336 Y21.1075
G01 X-31.4813 Y22.0684
G01 X-30.8004 Y23.0092
G01 X-30.0913 Y23.9290
G01 X-29.3547 Y24.8269
G01 X-28.5914 Y25.7022
G01 X-27.8020 Y26.5541
G01 X-26.9872 Y27.3817
G01 X-26.1478 Y28.1843
G01 X-25.2845 Y28.9612
G01 X-24.3982 Y29.7117
G01 X-23.4895 Y30.4351
G01 X-22.5595 Y31.1306
G01 X-21.6089 Y31.7978
G01 X-20.6385 Y32.4360
G01 X-19.6494 Y33.0446
G01 X-18.6423 Y33.6230
G01 X-17.6182 Y34.1707
G01 X-16.5780 Y34.6873
G01 X-15.5227 Y35.1722
G01 X-14.4532 Y35.6250
G01 X-13.3705 Y36.0453
G01 X-12.2756 Y36.4327
G01 X-11.1696 Y36.7869
G01 X-10.0533 Y37.1075
G01 X-9.6734 Y36.8900
G00 Z1.0000 F500
G00 Y-36.8900 F3000
G00 Z-0.7000 F500
G01 Z-2.4000 F120
G01 X9.6734 F300
G01 Y-34.2550
G01 X16.7594
G01 X-16.7594
G01 Y-31.6200
G01 X-21.3230
G01 X-8.5522
G01 X-15.2605
G01 Y-28.9850
G01 X-24.7821
G01 X-27.5686 Y-26.3500
G01 X-19.4574
G01 X-22.5953
G01 Y-23.7150
G01 X-29.8648
G01 X-31.7796 Y-21.0800
G01 X-25.0705
G01 X-27.0680 Y-18.4450
G01 X-33.3816
G01 X-34.7037 Y-15.8100
G01 X-28.6883
G01 X-29.9916 Y-13.1750
G01 X-35.7884
G01 X-36.6529 Y-10.5400
G01 X-31.0131
G01 X-31.7895 Y-7.9050
G01 X-37.3072
G01 X-37.7693 Y-5.2700
G01 X-32.3294
G01 X-32.6493 Y-2.6350
G01 X-38.0456
G01 X-38.1398 Y0.0000
G01 X-32.7598
G01 X-32.6493 Y2.6350
G01 X-38.0456
G01 X-37.7693 Y5.2700
G01 X-32.3294
G01 X-31.7894 Y7.9050
G01 X-37.3069
G01 X-36.6529 Y10.5400
G01 X-31.0131
G01 X-29.9915 Y13.1750
G01 X-35.7884
G01 X-34.7037 Y15.8100
G01 X-28.6883
G01 X-27.0680 Y18.4450
G01 X-33.3816
G01 X-31.7796 Y21.0800
G01 X-25.0705
G01 X-22.5953 Y23.7150
G01 X-29.8648
G01 X-27.5686 Y26.3500
G01 X-19.4574
G01 Y28.9850
G01 X-15.2605
G01 X-24.7821
G01 X-21.3230
G01 Y31.6200
G01 X-8.5521
G01 X-16.7594
G01 Y34.2550
G01 X16.7591
G01 Y31.6200
G01 X21.3230
G01 X8.5522
G01 X15.2605
G01 Y28.9850
G01 X24.7821
G01 X27.5686 Y26.3500
G01 X19.4574
G01 X22.5953
G01 Y23.7150
G01 X29.8648
G01 X31.7796 Y21.0800
G01 X25.0705
G01 X27.0680 Y18.4450
G01 X33.3816
G01 X34.7037 Y15.8100
G01 X28.6883
G01 X29.9916 Y13.1750
G01 X35.7884
G01 X36.6529 Y10.5400
G01 X31.0131
G01 X31.7895 Y7.9050
G01 X37.3072
G01 X37.7693 Y5.2700
G01 X32.3294
G01 X32.6493 Y2.6350
G01 X38.0456
G01 X38.1398 Y0.0000
G01 X32.7598
G01 X32.6493 Y-2.6350
G01 X38.0456
G01 X37.7693 Y-5.2700
G01 X32.3294
G01 X31.7894 Y-7.9050
G01 X37.3072
G01 X36.6529 Y-10.5400
G01 X31.0131
G01 X29.9915 Y-13.1750
G01 X35.7883
G01 X34.7037 Y-15.8100
G01 X28.6883
G01 X27.0680 Y-18.4450
G01 X33.3816
G01 X31.7796 Y-21.0800
G01 X25.0705
G01 X22.5953 Y-23.7150
G01 X29.8648
G01 X27.5686 Y-26.3500
G01 X19.4574
G01 Y-28.9850
G01 X15.2605
G01 X24.7821
G01 X21.3230
G01 Y-31.6200
G01 X8.5521
G00 Z1.0000 F500
G00 X9.6734 Y34.2550 F3000
G00 Z-0.7000 F500
G01 Z-2.4000 F120
G01 Y36.8900 F300
G01 X-9.6734
G00 Z1.0000 F500
G00 X-8.5521 Y31.6200 F3000
G00 Z-0.7000 F500
G01 Z-2.4000 F120
G01 X-8.2291 Y31.3839 F300
G01 X-7.1978 Y31.6363
G01 X-6.1587 Y31.8549
G01 X-5.1130 Y32.0394
G01 X-4.0619 Y32.1896
G01 X-3.0064 Y32.3053
G01 X-1.9477 Y32.3864
G01 X-0.8869 Y32.4328
G01 X0.1749 Y32.4444
G01 X1.2365 Y32.4214
G01 X2.2967 Y32.3636
G01 X3.3545 Y32.2711
G01 X4.4087 Y32.1441
G01 X5.4581 Y31.9827
G01 X6.5018 Y31.7870
G01 X7.5384 Y31.5573
G01 X8.5670 Y31.2938
G01 X9.5865 Y30.9967
G01 X10.5956 Y30.6665
G01 X11.5934 Y30.3034
G01 X12.5788 Y29.9079
G01 X13.5508 Y29.4803
G01 X14.5082 Y29.0212
G01 X15.4501 Y28.5310
G01 X16.3754 Y28.0102
G01 X17.2832 Y27.4595
G01 X18.1725 Y26.8793
G01 X19.0424 Y26.2703
G01 X19.8918 Y25.6333
G01 X20.7200 Y24.9687
G01 X21.5259 Y24.2774
G01 X22.3088 Y23.5601
G01 X23.0679 Y22.8176
G01 X23.8022 Y22.0507
G01 X24.5110 Y21.2601
G01 X25.1936 Y20.4468
G01 X25.8492 Y19.6115
G01 X26.4772 Y18.7553
G01 X27.0768 Y17.8790
G01 X27.6474 Y16.9835
G01 X28.1883 Y16.0698
G01 X28.6992 Y15.1390
G01 X29.1792 Y14.1919
G01 X29.6281 Y13.2296
G01 X30.0452 Y12.2531
G01 X30.4301 Y11.2635
G01 X30.7824 Y10.2619
G01 X31.1018 Y9.2492
G01 X31.3879 Y8.2267
G01 X31.6404 Y7.1953
G01 X31.8590 Y6.1562
G01 X32.0434 Y5.1106
G01 X32.1936 Y4.0594
G01 X32.3093 Y3.0039
G01 X32.3904 Y1.9452
G01 X32.4368 Y0.8844
G01 X32.4485 Y-0.1773
G01 X32.4254 Y-1.2389
G01 X32.3676 Y-2.2991
G01 X32.2752 Y-3.3569
G01 X32.1481 Y-4.4111
G01 X31.9867 Y-5.4606
G01 X31.7910 Y-6.5042
G01 X31.5613 Y-7.5409
G01 X31.2978 Y-8.5695
G01 X31.0007 Y-9.5889
G01 X30.6705 Y-10.5981
G01 X30.3074 Y-11.5959
G01 X29.9119 Y-12.5813
G01 X29.4844 Y-13.5532
G01 X29.0252 Y-14.5106
G01 X28.5350 Y-15.4525
G01 X28.0143 Y-16.3778
G01 X27.4635 Y-17.2857
G01 X26.8833 Y-18.1750
G01 X26.2744 Y-19.0448
G01 X25.6373 Y-19.8942
G01 X24.9727 Y-20.7224
G01 X24.2815 Y-21.5284
G01 X23.5642 Y-22.3113
G01 X22.8217 Y-23.0703
G01 X22.0547 Y-23.8046
G01 X21.2641 Y-24.5135
G01 X20.4508 Y-25.1961
G01 X19.6156 Y-25.8517
G01 X18.7593 Y-26.4796
G01 X17.8830 Y-27.0792
G01 X16.9875 Y-27.6498
G01 X16.0739 Y-28.1908
G01 X15.1430 Y-28.7016
G01 X14.1959 Y-29.1817
G01 X13.2336 Y-29.6305
G01 X12.2571 Y-30.0476
G01 X11.2675 Y-30.4325
G01 X10.2659 Y-30.7849
G01 X9.2532 Y-31.1043
G01 X8.2307 Y-31.3903
G01 X7.1993 Y-31.6428
G01 X6.1603 Y-31.8614
G01 X5.1146 Y-32.0459
G01 X4.0635 Y-32.1960
G01 X3.0080 Y-32.3117
G01 X1.9492 Y-32.3928
G01 X0.8884 Y-32.4392
G01 X-0.1733 Y-32.4509
G01 X-1.2349 Y-32.4278
G01 X-2.2951 Y-32.3701
G01 X-3.3529 Y-32.2776
G01 X-4.4071 Y-32.1506
G01 X-5.4566 Y-31.9892
G01 X-6.5002 Y-31.7935
G01 X-7.5369 Y-31.5637
G01 X-8.5655 Y-31.3002
G01 X-9.5849 Y-31.0032
G01 X-10.5940 Y-30.6730
G01 X-11.5918 Y-30.3099
G01 X-12.5772 Y-29.9144
G01 X-13.5492 Y-29.4868
G01 X-14.5066 Y-29.0277
G01 X-15.4485 Y-28.5375
G01 X-16.3738 Y-28.0167
G01 X-17.2816 Y-27.4659
G01 X-18.1709 Y-26.8858
G01 X-19.0408 Y-26.2768
G01 X-19.8902 Y-25.6397
G01 X-20.7184 Y-24.9752
G01 X-21.5243 Y-24.2839
G01 X-22.3073 Y-23.5666
G01 X-23.0663 Y-22.8241
G01 X-23.8006 Y-22.0571
G01 X-24.5095 Y-21.2666
G01 X-25.1921 Y-20.4532
G01 X-25.8477 Y-19.6180
G01 X-26.4756 Y-18.7618
G01 X-27.0752 Y-17.8854
G01 X-27.6458 Y-16.9900
G01 X-28.1868 Y-16.0763
G01 X-28.6976 Y-15.1454
G01 X-29.1776 Y-14.1983
G01 X-29.6265 Y-13.2360
G01 X-30.0436 Y-12.2596
G01 X-30.4285 Y-11.2700
G01 X-30.7809 Y-10.2683
G01 X-31.1002 Y-9.2557
G01 X-31.3863 Y-8.2331
G01 X-31.6388 Y-7.2018
G01 X-31.8574 Y-6.1627
G01 X-32.0419 Y-5.1170
G01 X-32.1920 Y-4.0659
G01 X-32.3077 Y-3.0104
G01 X-32.3888 Y-1.9517
G01 X-32.4352 Y-0.8909
G01 X-32.4469 Y0.1709
G01 X-32.4238 Y1.2324
G01 X-32.3660 Y2.2927
G01 X-32.2736 Y3.3505
G01 X-32.1466 Y4.4046
G01 X-31.9851 Y5.4541
G01 X-31.7894 Y6.4977
G01 X-31.5597 Y7.5344
G01 X-31.2962 Y8.5630
G01 X-30.9992 Y9.5824
G01 X-30.6689 Y10.5916
G01 X-30.3059 Y11.5894
G01 X-29.9103 Y12.5748
G01 X-29.4828 Y13.5467
G01 X-29.0236 Y14.5041
G01 X-28.5334 Y15.4460
G01 X-28.0127 Y16.3714
G01 X-27.4619 Y17.2792
G01 X-26.8817 Y18.1685
G01 X-26.2728 Y19.0383
G01 X-25.6357 Y19.8878
G01 X-24.9712 Y20.7159
G01 X-24.2799 Y21.5219
G01 X-23.5626 Y22.3048
G01 X-22.8201 Y23.0638
G01 X-22.0531 Y23.7982
G01 X-21.2626 Y24.5070
G01 X-20.4492 Y25.1896
G01 X-19.6140 Y25.8452
G01 X-18.7577 Y26.4732
G01 X-17.8814 Y27.0727
G01 X-16.9859 Y27.6433
G01 X-16.0723 Y28.1843
G01 X-15.1414 Y28.6951
G01 X-14.1943 Y29.1752
G01 X-13.2320 Y29.6240
G01 X-12.2556 Y30.0411
G01 X-11.2660 Y30.4261
G01 X-10.2643 Y30.7784
G01 X-9.2517 Y31.0978
G01 X-8.2291 Y31.3839
G01 X-8.5521 Y31.6200
G00 Z1.0000 F500
G00 X-9.6734 Y36.8900 F3000
G00 Z-0.7000 F500
G01 Z-2.4000 F120
G01 X-10.0533 Y37.1075 F300
G01 X-8.9279 Y37.3942
G01 X-7.7943 Y37.6468
G01 X-6.6536 Y37.8651
G01 X-5.5068 Y38.0488
G01 X-4.3550 Y38.1977
G01 X-3.1993 Y38.3119
G01 X-2.0406 Y38.3910
G01 X-0.8800 Y38.4352
G01 X0.2813 Y38.4443
G01 X1.4424 Y38.4182
G01 X2.6022 Y38.3572
G01 X3.7596 Y38.2611
G01 X4.9136 Y38.1301
G01 X6.0631 Y37.9643
G01 X7.2070 Y37.7639
G01 X8.3444 Y37.5290
G01 X9.4742 Y37.2599
G01 X10.5953 Y36.9568
G01 X11.7068 Y36.6199
G01 X12.8076 Y36.2497
G01 X13.8967 Y35.8463
G01 X14.9731 Y35.4103
G01 X16.0359 Y34.9419
G01 X17.0840 Y34.4417
G01 X18.1165 Y33.9100
G01 X19.1325 Y33.3474
G01 X20.1311 Y32.7543
G01 X21.1113 Y32.1314
G01 X22.0722 Y31.4791
G01 X23.0130 Y30.7981
G01 X23.9328 Y30.0890
G01 X24.8307 Y29.3525
G01 X25.7060 Y28.5891
G01 X26.5579 Y27.7997
G01 X27.3855 Y26.9849
G01 X28.1881 Y26.1455
G01 X28.9650 Y25.2822
G01 X29.7155 Y24.3959
G01 X30.4389 Y23.4873
G01 X31.1344 Y22.5573
G01 X31.8016 Y21.6066
G01 X32.4398 Y20.6363
G01 X33.0484 Y19.6471
G01 X33.6268 Y18.6400
G01 X34.1745 Y17.6159
G01 X34.6911 Y16.5757
G01 X35.1760 Y15.5204
G01 X35.6288 Y14.4509
G01 X36.0491 Y13.3683
G01 X36.4365 Y12.2734
G01 X36.7907 Y11.1673
G01 X37.1113 Y10.0511
G01 X37.3980 Y8.9256
G01 X37.6506 Y7.7920
G01 X37.8689 Y6.6513
G01 X38.0526 Y5.5046
G01 X38.2015 Y4.3528
G01 X38.3157 Y3.1970
G01 X38.3949 Y2.0383
G01 X38.4390 Y0.8778
G01 X38.4481 Y-0.2836
G01 X38.4220 Y-1.4447
G01 X38.3610 Y-2.6044
G01 X38.2649 Y-3.7619
G01 X38.1339 Y-4.9158
G01 X37.9681 Y-6.0653
G01 X37.7677 Y-7.2093
G01 X37.5328 Y-8.3467
G01 X37.2637 Y-9.4765
G01 X36.9606 Y-10.5976
G01 X36.6237 Y-11.7090
G01 X36.2535 Y-12.8098
G01 X35.8501 Y-13.8989
G01 X35.4141 Y-14.9754
G01 X34.9457 Y-16.0381
G01 X34.4455 Y-17.0862
G01 X33.9138 Y-18.1188
G01 X33.3512 Y-19.1348
G01 X32.7581 Y-20.1333
G01 X32.1352 Y-21.1135
G01 X31.4829 Y-22.0745
G01 X30.8019 Y-23.0152
G01 X30.0928 Y-23.9350
G01 X29.3563 Y-24.8330
G01 X28.5929 Y-25.7083
G01 X27.8035 Y-26.5601
G01 X26.9887 Y-27.3877
G01 X26.1493 Y-28.1904
G01 X25.2861 Y-28.9673
G01 X24.3997 Y-29.7177
G01 X23.4911 Y-30.4411
G01 X22.5611 Y-31.1367
G01 X21.6104 Y-31.8039
G01 X20.6401 Y-32.4421
G01 X19.6509 Y-33.0506
G01 X18.6438 Y-33.6290
G01 X17.6197 Y-34.1768
G01 X16.5795 Y-34.6933
G01 X15.5242 Y-35.1782
G01 X14.4547 Y-35.6310
G01 X13.3721 Y-36.0513
G01 X12.2772 Y-36.4387
G01 X11.1711 Y-36.7929
G01 X10.0549 Y-37.1135
G01 X8.9294 Y-37.4002
G01 X7.7958 Y-37.6528
G01 X6.6551 Y-37.8711
G01 X5.5084 Y-38.0548
G01 X4.3566 Y-38.2038
G01 X3.2008 Y-38.3179
G01 X2.0421 Y-38.3971
G01 X0.8816 Y-38.4412
G01 X-0.2798 Y-38.4503
G01 X-1.4409 Y-38.4243
G01 X-2.6006 Y-38.3632
G01 X-3.7581 Y-38.2672
G01 X-4.9120 Y-38.1362
G01 X-6.0615 Y-37.9704
G01 X-7.2055 Y-37.7700
G01 X-8.3429 Y-37.5351
G01 X-9.4727 Y-37.2660
G01 X-10.5938 Y-36.9628
G01 X-11.7052 Y-36.6260
G01 X-12.8060 Y-36.2557
G01 X-13.8951 Y-35.8524
G01 X-14.9715 Y-35.4163
G01 X-16.0343 Y-34.9480
G01 X-17.0824 Y-34.4477
G01 X-18.1150 Y-33.9160
G01 X-19.1310 Y-33.3534
G01 X-20.1295 Y-32.7604
G01 X-21.1097 Y-32.1374
G01 X-22.0707 Y-31.4851
G01 X-23.0114 Y-30.8042
G01 X-23.9312 Y-30.0951
G01 X-24.8292 Y-29.3585
G01 X-25.7045 Y-28.5952
G01 X-26.5563 Y-27.8058
G01 X-27.3839 Y-26.9910
G01 X-28.1866 Y-26.1516
G01 X-28.9635 Y-25.2883
G01 X-29.7139 Y-24.4020
G01 X-30.4373 Y-23.4933
G01 X-31.1329 Y-22.5633
G01 X-31.8001 Y-21.6127
G01 X-32.4383 Y-20.6423
G01 X-33.0468 Y-19.6532
G01 X-33.6252 Y-18.6461
G01 X-34.1730 Y-17.6220
G01 X-34.6895 Y-16.5818
G01 X-35.1744 Y-15.5265
G01 X-35.6272 Y-14.4570
G01 X-36.0475 Y-13.3743
G01 X-36.4349 Y-12.2794
G01 X-36.7891 Y-11.1734
G01 X-37.1097 Y-10.0571
G01 X-37.3964 Y-8.9317
G01 X-37.6490 Y-7.7981
G01 X-37.8673 Y-6.6574
G01 X-38.0510 Y-5.5106
G01 X-38.2000 Y-4.3588
G01 X-38.3141 Y-3.2031
G01 X-38.3933 Y-2.0444
G01 X-38.4374 Y-0.8838
G01 X-38.4465 Y0.2775
G01 X-38.4205 Y1.4386
G01 X-38.3594 Y2.5984
G01 X-38.2633 Y3.7558
G01 X-38.1324 Y4.9098
G01 X-37.9666 Y6.0593
G01 X-37.7662 Y7.2032
G01 X-37.5313 Y8.3406
G01 X-37.2622 Y9.4704
G01 X-36.9590 Y10.5915
G01 X-36.6222 Y11.7030
G01 X-36.2519 Y12.8038
G01 X-35.8486 Y13.8929
G01 X-35.4125 Y14.9693
G01 X-34.9442 Y16.0321
G01 X-34.4439 Y17.0802
G01 X-33.9122 Y18.1127
G01 X-33.3496 Y19.1287
G01 X-32.7566 Y20.1273
G01 X-32.1336 Y21.1075
G01 X-31.4813 Y22.0684
G01 X-30.8004 Y23.0092
G01 X-30.0913 Y23.9290
G01 X-29.3547 Y24.8269
G01 X-28.5914 Y25.7022
G01 X-27.8020 Y26.5541
G01 X-26.9872 Y27.3817
G01 X-26.1478 Y28.1843
G01 X-25.2845 Y28.9612
G01 X-24.3982 Y29.7117
G01 X-23.4895 Y30.4351
G01 X-22.5595 Y31.1306
G01 X-21.6089 Y31.7978
G01 X-20.6385 Y32.4360
G01 X-19.6494 Y33.0446
G01 X-18.6423 Y33.6230
G01 X-17.6182 Y34.1707
G01 X-16.5780 Y34.6873
G01 X-15.5227 Y35.1722
G01 X-14.4532 Y35.6250
G01 X-13.3705 Y36.0453
G01 X-12.2756 Y36.4327
G01 X-11.1696 Y36.7869
G01 X-10.0533 Y37.1075
G01 X-9.6734 Y36.8900
G00 Z1.0000 F500
G00 Y-36.8900 F3000
G00 Z-1.9000 F500
G01 Z-3.6000 F120
G01 X9.6734 F300
G01 Y-34.2550
G01 X16.7594
G01 X-16.7594
G01 Y-31.6200
G01 X-21.3230
G01 X-8.5522
G01 X-15.2605
G01 Y-28.9850
G01 X-24.7821
G01 X-27.5686 Y-26.3500
G01 X-19.4574
G01 X-22.5953
G01 Y-23.7150
G01 X-29.8648
G01 X-31.7796 Y-21.0800
G01 X-25.0705
G01 X-27.0680 Y-18.4450
G01 X-33.3816
G01 X-34.7037 Y-15.8100
G01 X-28.6883
G01 X-29.9916 Y-13.1750
G01 X-35.7884
G01 X-36.6529 Y-10.5400
G01 X-31.0131
G01 X-31.7895 Y-7.9050
G01 X-37.3072
G01 X-37.7693 Y-5.2700
G01 X-32.3294
G01 X-32.6493 Y-2.6350
G01 X-38.0456
G01 X-38.1398 Y0.0000
G01 X-32.7598
G01 X-32.6493 Y2.6350
G01 X-38.0456
G01 X-37.7693 Y5.2700
G01 X-32.3294
G01 X-31.7894 Y7.9050
G01 X-37.3069
G01 X-36.6529 Y10.5400
G01 X-31.0131
G01 X-29.9915 Y13.1750
G01 X-35.7884
G01 X-34.7037 Y15.8100
G01 X-28.6883
G01 X-27.0680 Y18.4450
G01 X-33.3816
G01 X-31.7796 Y21.0800
G01 X-25.0705
G01 X-22.5953 Y23.7150
G01 X-29.8648
G01 X-27.5686 Y26.3500
G01 X-19.4574
G01 Y28.9850
G01 X-15.2605
G01 X-24.7821
G01 X-21.3230
G01 Y31.6200
G01 X-8.5521
G01 X-16.7594
G01 Y34.2550
G01 X16.7591
G01 Y31.6200
G01 X21.3230
G01 X8.5522
G01 X15.2605
G01 Y28.9850
G01 X24.7821
G01 X27.5686 Y26.3500
G01 X19.4574
G01 X22.5953
G01 Y23.7150
G01 X29.8648
G01 X31.7796 Y21.0800
G01 X25.0705
G01 X27.0680 Y18.4450
G01 X33.3816
G01 X34.7037 Y15.8100
G01 X28.6883
G01 X29.9916 Y13.1750
G01 X35.7884
G01 X36.6529 Y10.5400
G01 X31.0131
G01 X31.7895 Y7.9050
G01 X37.3072
G01 X37.7693 Y5.2700
G01 X32.3294
G01 X32.6493 Y2.6350
G01 X38.0456
G01 X38.1398 Y0.0000
G01 X32.7598
G01 X32.6493 Y-2.6350
G01 X38.0456
G01 X37.7693 Y-5.2700
G01 X32.3294
G01 X31.7894 Y-7.9050
G01 X37.3072
G01 X36.6529 Y-10.5400
G01 X31.0131
G01 X29.9915 Y-13.1750
G01 X35.7883
G01 X34.7037 Y-15.8100
G01 X28.6883
G01 X27.0680 Y-18.4450
G01 X33.3816
G01 X31.7796 Y-21.0800
G01 X25.0705
G01 X22.5953 Y-23.7150
G01 X29.8648
G01 X27.5686 Y-26.3500
G01 X19.4574
G01 Y-28.9850
G01 X15.2605
G01 X24.7821
G01 X21.3230
G01 Y-31.6200
G01 X8.5521
G00 Z1.0000 F500
G00 X9.6734 Y34.2550 F3000
G00 Z-1.9000 F500
G01 Z-3.6000 F120
G01 Y36.8900 F300
G01 X-9.6734
G00 Z1.0000 F500
G00 X-8.5521 Y31.6200 F3000
G00 Z-1.9000 F500
G01 Z-3.6000 F120
G01 X-8.2291 Y31.3839 F300
G01 X-7.1978 Y31.6363
G01 X-6.1587 Y31.8549
G01 X-5.1130 Y32.0394
G01 X-4.0619 Y32.1896
G01 X-3.0064 Y32.3053
G01 X-1.9477 Y32.3864
G01 X-0.8869 Y32.4328
G01 X0.1749 Y32.4444
G01 X1.2365 Y32.4214
G01 X2.2967 Y32.3636
G01 X3.3545 Y32.2711
G01 X4.4087 Y32.1441
G01 X5.4581 Y31.9827
G01 X6.5018 Y31.7870
G01 X7.5384 Y31.5573
G01 X8.5670 Y31.2938
G01 X9.5865 Y30.9967
G01 X10.5956 Y30.6665
G01 X11.5934 Y30.3034
G01 X12.5788 Y29.9079
G01 X13.5508 Y29.4803
G01 X14.5082 Y29.0212
G01 X15.4501 Y28.5310
G01 X16.3754 Y28.0102
G01 X17.2832 Y27.4595
G01 X18.1725 Y26.8793
G01 X19.0424 Y26.2703
G01 X19.8918 Y25.6333
G01 X20.7200 Y24.9687
G01 X21.5259 Y24.2774
G01 X22.3088 Y23.5601
G01 X23.0679 Y22.8176
G01 X23.8022 Y22.0507
G01 X24.5110 Y21.2601
G01 X25.1936 Y20.4468
G01 X25.8492 Y19.6115
G01 X26.4772 Y18.7553
G01 X27.0768 Y17.8790
G01 X27.6474 Y16.9835
G01 X28.1883 Y16.0698
G01 X28.6992 Y15.1390
G01 X29.1792 Y14.1919
G01 X29.6281 Y13.2296
G01 X30.0452 Y12.2531
G01 X30.4301 Y11.2635
G01 X30.7824 Y10.2619
G01 X31.1018 Y9.2492
G01 X31.3879 Y8.2267
G01 X31.6404 Y7.1953
G01 X31.8590 Y6.1562
G01 X32.0434 Y5.1106
G01 X32.1936 Y4.0594
G01 X32.3093 Y3.0039
G01 X32.3904 Y1.9452
G01 X32.4368 Y0.8844
G01 X32.4485 Y-0.1773
G01 X32.4254 Y-1.2389
G01 X32.3676 Y-2.2991
G01 X32.2752 Y-3.3569
G01 X32.1481 Y-4.4111
G01 X31.9867 Y-5.4606
G01 X31.7910 Y-6.5042
G01 X31.5613 Y-7.5409
G01 X31.2978 Y-8.5695
G01 X31.0007 Y-9.5889
G01 X30.6705 Y-10.5981
G01 X30.3074 Y-11.5959
G01 X29.9119 Y-12.5813
G01 X29.4844 Y-13.5532
G01 X29.0252 Y-14.5106
G01 X28.5350 Y-15.4525
G01 X28.0143 Y-16.3778
G01 X27.4635 Y-17.2857
G01 X26.8833 Y-18.1750
G01 X26.2744 Y-19.0448
G01 X25.6373 Y-19.8942
G01 X24.9727 Y-20.7224
G01 X24.2815 Y-21.5284
G01 X23.5642 Y-22.3113
G01 X22.8217 Y-23.0703
G01 X22.0547 Y-23.8046
G01 X21.2641 Y-24.5135
G01 X20.4508 Y-25.1961
G01 X19.6156 Y-25.8517
G01 X18.7593 Y-26.4796
G01 X17.8830 Y-27.0792
G01 X16.9875 Y-27.6498
G01 X16.0739 Y-28.1908
G01 X15.1430 Y-28.7016
G01 X14.1959 Y-29.1817
G01 X13.2336 Y-29.6305
G01 X12.2571 Y-30.0476
G01 X11.2675 Y-30.4325
G01 X10.2659 Y-30.7849
G01 X9.2532 Y-31.1043
G01 X8.2307 Y-31.3903
G01 X7.1993 Y-31.6428
G01 X6.1603 Y-31.8614
G01 X5.1146 Y-32.0459
G01 X4.0635 Y-32.1960
G01 X3.0080 Y-32.3117
G01 X1.9492 Y-32.3928
G01 X0.8884 Y-32.4392
G01 X-0.1733 Y-32.4509
G01 X-1.2349 Y-32.4278
G01 X-2.2951 Y-32.3701
G01 X-3.3529 Y-32.2776
G01 X-4.4071 Y-32.1506
G01 X-5.4566 Y-31.9892
G01 X-6.5002 Y-31.7935
G01 X-7.5369 Y-31.5637
G01 X-8.5655 Y-31.3002
G01 X-9.5849 Y-31.0032
G01 X-10.5940 Y-30.6730
G01 X-11.5918 Y-30.3099
G01 X-12.5772 Y-29.9144
G01 X-13.5492 Y-29.4868
G01 X-14.5066 Y-29.0277
G01 X-15.4485 Y-28.5375
G01 X-16.3738 Y-28.0167
G01 X-17.2816 Y-27.4659
G01 X-18.1709 Y-26.8858
G01 X-19.0408 Y-26.2768
G01 X-19.8902 Y-25.6397
G01 X-20.7184 Y-24.9752
G01 X-21.5243 Y-24.2839
G01 X-22.3073 Y-23.5666
G01 X-23.0663 Y-22.8241
G01 X-23.8006 Y-22.0571
G01 X-24.5095 Y-21.2666
G01 X-25.1921 Y-20.4532
G01 X-25.8477 Y-19.6180
G01 X-26.4756 Y-18.7618
G01 X-27.0752 Y-17.8854
G01 X-27.6458 Y-16.9900
G01 X-28.1868 Y-16.0763
G01 X-28.6976 Y-15.1454
G01 X-29.1776 Y-14.1983
G01 X-29.6265 Y-13.2360
G01 X-30.0436 Y-12.2596
G01 X-30.4285 Y-11.2700
G01 X-30.7809 Y-10.2683
G01 X-31.1002 Y-9.2557
G01 X-31.3863 Y-8.2331
G01 X-31.6388 Y-7.2018
G01 X-31.8574 Y-6.1627
G01 X-32.0419 Y-5.1170
G01 X-32.1920 Y-4.0659
G01 X-32.3077 Y-3.0104
G01 X-32.3888 Y-1.9517
G01 X-32.4352 Y-0.8909
G01 X-32.4469 Y0.1709
G01 X-32.4238 Y1.2324
G01 X-32.3660 Y2.2927
G01 X-32.2736 Y3.3505
G01 X-32.1466 Y4.4046
G01 X-31.9851 Y5.4541
G01 X-31.7894 Y6.4977
G01 X-31.5597 Y7.5344
G01 X-31.2962 Y8.5630
G01 X-30.9992 Y9.5824
G01 X-30.6689 Y10.5916
G01 X-30.3059 Y11.5894
G01 X-29.9103 Y12.5748
G01 X-29.4828 Y13.5467
G01 X-29.0236 Y14.5041
G01 X-28.5334 Y15.4460
G01 X-28.0127 Y16.3714
G01 X-27.4619 Y17.2792
G01 X-26.8817 Y18.1685
G01 X-26.2728 Y19.0383
G01 X-25.6357 Y19.8878
G01 X-24.9712 Y20.7159
G01 X-24.2799 Y21.5219
G01 X-23.5626 Y22.3048
G01 X-22.8201 Y23.0638
G01 X-22.0531 Y23.7982
G01 X-21.2626 Y24.5070
G01 X-20.4492 Y25.1896
G01 X-19.6140 Y25.8452
G01 X-18.7577 Y26.4732
G01 X-17.8814 Y27.0727
G01 X-16.9859 Y27.6433
G01 X-16.0723 Y28.1843
G01 X-15.1414 Y28.6951
G01 X-14.1943 Y29.1752
G01 X-13.2320 Y29.6240
G01 X-12.2556 Y30.0411
G01 X-11.2660 Y30.4261
G01 X-10.2643 Y30.7784
G01 X-9.2517 Y31.0978
G01 X-8.2291 Y31.3839
G01 X-8.5521 Y31.6200
G00 Z1.0000 F500
G00 X-9.6734 Y36.8900 F3000
G00 Z-1.9000 F500
G01 Z-3.6000 F120
G01 X-10.0533 Y37.1075 F300
G01 X-8.9279 Y37.3942
G01 X-7.7943 Y37.6468
G01 X-6.6536 Y37.8651
G01 X-5.5068 Y38.0488
G01 X-4.3550 Y38.1977
G01 X-3.1993 Y38.3119
G01 X-2.0406 Y38.3910
G01 X-0.8800 Y38.4352
G01 X0.2813 Y38.4443
G01 X1.4424 Y38.4182
G01 X2.6022 Y38.3572
G01 X3.7596 Y38.2611
G01 X4.9136 Y38.1301
G01 X6.0631 Y37.9643
G01 X7.2070 Y37.7639
G01 X8.3444 Y37.5290
G01 X9.4742 Y37.2599
G01 X10.5953 Y36.9568
G01 X11.7068 Y36.6199
G01 X12.8076 Y36.2497
G01 X13.8967 Y35.8463
G01 X14.9731 Y35.4103
G01 X16.0359 Y34.9419
G01 X17.0840 Y34.4417
G01 X18.1165 Y33.9100
G01 X19.1325 Y33.3474
G01 X20.1311 Y32.7543
G01 X21.1113 Y32.1314
G01 X22.0722 Y31.4791
G01 X23.0130 Y30.7981
G01 X23.9328 Y30.0890
G01 X24.8307 Y29.3525
G01 X25.7060 Y28.5891
G01 X26.5579 Y27.7997
G01 X27.3855 Y26.9849
G01 X28.1881 Y26.1455
G01 X28.9650 Y25.2822
G01 X29.7155 Y24.3959
G01 X30.4389 Y23.4873
G01 X31.1344 Y22.5573
G01 X31.8016 Y21.6066
G01 X32.4398 Y20.6363
G01 X33.0484 Y19.6471
G01 X33.6268 Y18.6400
G01 X34.1745 Y17.6159
G01 X34.6911 Y16.5757
G01 X35.1760 Y15.5204
G01 X35.6288 Y14.4509
G01 X36.0491 Y13.3683
G01 X36.4365 Y12.2734
G01 X36.7907 Y11.1673
G01 X37.1113 Y10.0511
G01 X37.3980 Y8.9256
G01 X37.6506 Y7.7920
G01 X37.8689 Y6.6513
G01 X38.0526 Y5.5046
G01 X38.2015 Y4.3528
G01 X38.3157 Y3.1970
G01 X38.3949 Y2.0383
G01 X38.4390 Y0.8778
G01 X38.4481 Y-0.2836
G01 X38.4220 Y-1.4447
G01 X38.3610 Y-2.6044
G01 X38.2649 Y-3.7619
G01 X38.1339 Y-4.9158
G01 X37.9681 Y-6.0653
G01 X37.7677 Y-7.2093
G01 X37.5328 Y-8.3467
G01 X37.2637 Y-9.4765
G01 X36.9606 Y-10.5976
G01 X36.6237 Y-11.7090
G01 X36.2535 Y-12.8098
G01 X35.8501 Y-13.8989
G01 X35.4141 Y-14.9754
G01 X34.9457 Y-16.0381
G01 X34.4455 Y-17.0862
G01 X33.9138 Y-18.1188
G01 X33.3512 Y-19.1348
G01 X32.7581 Y-20.1333
G01 X32.1352 Y-21.1135
G01 X31.4829 Y-22.0745
G01 X30.8019 Y-23.0152
G01 X30.0928 Y-23.9350
G01 X29.3563 Y-24.8330
G01 X28.5929 Y-25.7083
G01 X27.8035 Y-26.5601
G01 X26.9887 Y-27.3877
G01 X26.1493 Y-28.1904
G01 X25.2861 Y-28.9673
G01 X24.3997 Y-29.7177
G01 X23.4911 Y-30.4411
G01 X22.5611 Y-31.1367
G01 X21.6104 Y-31.8039
G01 X20.6401 Y-32.4421
G01 X19.6509 Y-33.0506
G01 X18.6438 Y-33.6290
G01 X17.6197 Y-34.1768
G01 X16.5795 Y-34.6933
G01 X15.5242 Y-35.1782
G01 X14.4547 Y-35.6310
G01 X13.3721 Y-36.0513
G01 X12.2772 Y-36.4387
G01 X11.1711 Y-36.7929
G01 X10.0549 Y-37.1135
G01 X8.9294 Y-37.4002
G01 X7.7958 Y-37.6528
G01 X6.6551 Y-37.8711
G01 X5.5084 Y-38.0548
G01 X4.3566 Y-38.2038
G01 X3.2008 Y-38.3179
G01 X2.0421 Y-38.3971
G01 X0.8816 Y-38.4412
G01 X-0.2798 Y-38.4503
G01 X-1.4409 Y-38.4243
G01 X-2.6006 Y-38.3632
G01 X-3.7581 Y-38.2672
G01 X-4.9120 Y-38.1362
G01 X-6.0615 Y-37.9704
G01 X-7.2055 Y-37.7700
G01 X-8.3429 Y-37.5351
G01 X-9.4727 Y-37.2660
G01 X-10.5938 Y-36.9628
G01 X-11.7052 Y-36.6260
G01 X-12.8060 Y-36.2557
G01 X-13.8951 Y-35.8524
G01 X-14.9715 Y-35.4163
G01 X-16.0343 Y-34.9480
G01 X-17.0824 Y-34.4477
G01 X-18.1150 Y-33.9160
G01 X-19.1310 Y-33.3534
G01 X-20.1295 Y-32.7604
G01 X-21.1097 Y-32.1374
G01 X-22.0707 Y-31.4851
G01 X-23.0114 Y-30.8042
G01 X-23.9312 Y-30.0951
G01 X-24.8292 Y-29.3585
G01 X-25.7045 Y-28.5952
G01 X-26.5563 Y-27.8058
G01 X-27.3839 Y-26.9910
G01 X-28.1866 Y-26.1516
G01 X-28.9635 Y-25.2883
G01 X-29.7139 Y-24.4020
G01 X-30.4373 Y-23.4933
G01 X-31.1329 Y-22.5633
G01 X-31.8001 Y-21.6127
G01 X-32.4383 Y-20.6423
G01 X-33.0468 Y-19.6532
G01 X-33.6252 Y-18.6461
G01 X-34.1730 Y-17.6220
G01 X-34.6895 Y-16.5818
G01 X-35.1744 Y-15.5265
G01 X-35.6272 Y-14.4570
G01 X-36.0475 Y-13.3743
G01 X-36.4349 Y-12.2794
G01 X-36.7891 Y-11.1734
G01 X-37.1097 Y-10.0571
G01 X-37.3964 Y-8.9317
G01 X-37.6490 Y-7.7981
G01 X-37.8673 Y-6.6574
G01 X-38.0510 Y-5.5106
G01 X-38.2000 Y-4.3588
G01 X-38.3141 Y-3.2031
G01 X-38.3933 Y-2.0444
G01 X-38.4374 Y-0.8838
G01 X-38.4465 Y0.2775
G01 X-38.4205 Y1.4386
G01 X-38.3594 Y2.5984
G01 X-38.2633 Y3.7558
G01 X-38.1324 Y4.9098
G01 X-37.9666 Y6.0593
G01 X-37.7662 Y7.2032
G01 X-37.5313 Y8.3406
G01 X-37.2622 Y9.4704
G01 X-36.9590 Y10.5915
G01 X-36.6222 Y11.7030
G01 X-36.2519 Y12.8038
G01 X-35.8486 Y13.8929
G01 X-35.4125 Y14.9693
G01 X-34.9442 Y16.0321
G01 X-34.4439 Y17.0802
G01 X-33.9122 Y18.1127
G01 X-33.3496 Y19.1287
G01 X-32.7566 Y20.1273
G01 X-32.1336 Y21.1075
G01 X-31.4813 Y22.0684
G01 X-30.8004 Y23.0092
G01 X-30.0913 Y23.9290
G01 X-29.3547 Y24.8269
G01 X-28.5914 Y25.7022
G01 X-27.8020 Y26.5541
G01 X-26.9872 Y27.3817
G01 X-26.1478 Y28.1843
G01 X-25.2845 Y28.9612
G01 X-24.3982 Y29.7117
G01 X-23.4895 Y30.4351
G01 X-22.5595 Y31.1306
G01 X-21.6089 Y31.7978
G01 X-20.6385 Y32.4360
G01 X-19.6494 Y33.0446
G01 X-18.6423 Y33.6230
G01 X-17.6182 Y34.1707
G01 X-16.5780 Y34.6873
G01 X-15.5227 Y35.1722
G01 X-14.4532 Y35.6250
G01 X-13.3705 Y36.0453
G01 X-12.2756 Y36.4327
G01 X-11.1696 Y36.7869
G01 X-10.0533 Y37.1075
G01 X-9.6734 Y36.8900
G00 Z1.0000 F500
G00 Y-36.8900 F3000
G00 Z-3.1000 F500
G01 Z-4.8000 F120
G01 X9.6734 F300
G01 Y-34.2550
G01 X16.7594
G01 X-16.7594
G01 Y-31.6200
G01 X-21.3230
G01 X-8.5522
G01 X-15.2605
G01 Y-28.9850
G01 X-24.7821
G01 X-27.5686 Y-26.3500
G01 X-19.4574
G01 X-22.5953
G01 Y-23.7150
G01 X-29.8648
G01 X-31.7796 Y-21.0800
G01 X-25.0705
G01 X-27.0680 Y-18.4450
G01 X-33.3816
G01 X-34.7037 Y-15.8100
G01 X-28.6883
G01 X-29.9916 Y-13.1750
G01 X-35.7884
G01 X-36.6529 Y-10.5400
G01 X-31.0131
G01 X-31.7895 Y-7.9050
G01 X-37.3072
G01 X-37.7693 Y-5.2700
G01 X-32.3294
G01 X-32.6493 Y-2.6350
G01 X-38.0456
G01 X-38.1398 Y0.0000
G01 X-32.7598
G01 X-32.6493 Y2.6350
G01 X-38.0456
G01 X-37.7693 Y5.2700
G01 X-32.3294
G01 X-31.7894 Y7.9050
G01 X-37.3069
G01 X-36.6529 Y10.5400
G01 X-31.0131
G01 X-29.9915 Y13.1750
G01 X-35.7884
G01 X-34.7037 Y15.8100
G01 X-28.6883
G01 X-27.0680 Y18.4450
G01 X-33.3816
G01 X-31.7796 Y21.0800
G01 X-25.0705
G01 X-22.5953 Y23.7150
G01 X-29.8648
G01 X-27.5686 Y26.3500
G01 X-19.4574
G01 Y28.9850
G01 X-15.2605
G01 X-24.7821
G01 X-21.3230
G01 Y31.6200
G01 X-8.5521
G01 X-16.7594
G01 Y34.2550
G01 X16.7591
G01 Y31.6200
G01 X21.3230
G01 X8.5522
G01 X15.2605
G01 Y28.9850
G01 X24.7821
G01 X27.5686 Y26.3500
G01 X19.4574
G01 X22.5953
G01 Y23.7150
G01 X29.8648
G01 X31.7796 Y21.0800
G01 X25.0705
G01 X27.0680 Y18.4450
G01 X33.3816
G01 X34.7037 Y15.8100
G01 X28.6883
G01 X29.9916 Y13.1750
G01 X35.7884
G01 X36.6529 Y10.5400
G01 X31.0131
G01 X31.7895 Y7.9050
G01 X37.3072
G01 X37.7693 Y5.2700
G01 X32.3294
G01 X32.6493 Y2.6350
G01 X38.0456
G01 X38.1398 Y0.0000
G01 X32.7598
G01 X32.6493 Y-2.6350
G01 X38.0456
G01 X37.7693 Y-5.2700
G01 X32.3294
G01 X31.7894 Y-7.9050
G01 X37.3072
G01 X36.6529 Y-10.5400
G01 X31.0131
G01 X29.9915 Y-13.1750
G01 X35.7883
G01 X34.7037 Y-15.8100
G01 X28.6883
G01 X27.0680 Y-18.4450
G01 X33.3816
G01 X31.7796 Y-21.0800
G01 X25.0705
G01 X22.5953 Y-23.7150
G01 X29.8648
G01 X27.5686 Y-26.3500
G01 X19.4574
G01 Y-28.9850
G01 X15.2605
G01 X24.7821
G01 X21.3230
G01 Y-31.6200
G01 X8.5521
G00 Z1.0000 F500
G00 X9.6734 Y34.2550 F3000
G00 Z-3.1000 F500
G01 Z-4.8000 F120
G01 Y36.8900 F300
G01 X-9.6734
G00 Z1.0000 F500
G00 X-8.5521 Y31.6200 F3000
G00 Z-3.1000 F500
G01 Z-4.8000 F120
G01 X-8.2291 Y31.3839 F300
G01 X-7.1978 Y31.6363
G01 X-6.1587 Y31.8549
G01 X-5.1130 Y32.0394
G01 X-4.0619 Y32.1896
G01 X-3.0064 Y32.3053
G01 X-1.9477 Y32.3864
G01 X-0.8869 Y32.4328
G01 X0.1749 Y32.4444
G01 X1.2365 Y32.4214
G01 X2.2967 Y32.3636
G01 X3.3545 Y32.2711
G01 X4.4087 Y32.1441
G01 X5.4581 Y31.9827
G01 X6.5018 Y31.7870
G01 X7.5384 Y31.5573
G01 X8.5670 Y31.2938
G01 X9.5865 Y30.9967
G01 X10.5956 Y30.6665
G01 X11.5934 Y30.3034
G01 X12.5788 Y29.9079
G01 X13.5508 Y29.4803
G01 X14.5082 Y29.0212
G01 X15.4501 Y28.5310
G01 X16.3754 Y28.0102
G01 X17.2832 Y27.4595
G01 X18.1725 Y26.8793
G01 X19.0424 Y26.2703
G01 X19.8918 Y25.6333
G01 X20.7200 Y24.9687
G01 X21.5259 Y24.2774
G01 X22.3088 Y23.5601
G01 X23.0679 Y22.8176
G01 X23.8022 Y22.0507
G01 X24.5110 Y21.2601
G01 X25.1936 Y20.4468
G01 X25.8492 Y19.6115
G01 X26.4772 Y18.7553
G01 X27.0768 Y17.8790
G01 X27.6474 Y16.9835
G01 X28.1883 Y16.0698
G01 X28.6992 Y15.1390
G01 X29.1792 Y14.1919
G01 X29.6281 Y13.2296
G01 X30.0452 Y12.2531
G01 X30.4301 Y11.2635
G01 X30.7824 Y10.2619
G01 X31.1018 Y9.2492
G01 X31.3879 Y8.2267
G01 X31.6404 Y7.1953
G01 X31.8590 Y6.1562
G01 X32.0434 Y5.1106
G01 X32.1936 Y4.0594
G01 X32.3093 Y3.0039
G01 X32.3904 Y1.9452
G01 X32.4368 Y0.8844
G01 X32.4485 Y-0.1773
G01 X32.4254 Y-1.2389
G01 X32.3676 Y-2.2991
G01 X32.2752 Y-3.3569
G01 X32.1481 Y-4.4111
G01 X31.9867 Y-5.4606
G01 X31.7910 Y-6.5042
G01 X31.5613 Y-7.5409
G01 X31.2978 Y-8.5695
G01 X31.0007 Y-9.5889
G01 X30.6705 Y-10.5981
G01 X30.3074 Y-11.5959
G01 X29.9119 Y-12.5813
G01 X29.4844 Y-13.5532
G01 X29.0252 Y-14.5106
G01 X28.5350 Y-15.4525
G01 X28.0143 Y-16.3778
G01 X27.4635 Y-17.2857
G01 X26.8833 Y-18.1750
G01 X26.2744 Y-19.0448
G01 X25.6373 Y-19.8942
G01 X24.9727 Y-20.7224
G01 X24.2815 Y-21.5284
G01 X23.5642 Y-22.3113
G01 X22.8217 Y-23.0703
G01 X22.0547 Y-23.8046
G01 X21.2641 Y-24.5135
G01 X20.4508 Y-25.1961
G01 X19.6156 Y-25.8517
G01 X18.7593 Y-26.4796
G01 X17.8830 Y-27.0792
G01 X16.9875 Y-27.6498
G01 X16.0739 Y-28.1908
G01 X15.1430 Y-28.7016
G01 X14.1959 Y-29.1817
G01 X13.2336 Y-29.6305
G01 X12.2571 Y-30.0476
G01 X11.2675 Y-30.4325
G01 X10.2659 Y-30.7849
G01 X9.2532 Y-31.1043
G01 X8.2307 Y-31.3903
G01 X7.1993 Y-31.6428
G01 X6.1603 Y-31.8614
G01 X5.1146 Y-32.0459
G01 X4.0635 Y-32.1960
G01 X3.0080 Y-32.3117
G01 X1.9492 Y-32.3928
G01 X0.8884 Y-32.4392
G01 X-0.1733 Y-32.4509
G01 X-1.2349 Y-32.4278
G01 X-2.2951 Y-32.3701
G01 X-3.3529 Y-32.2776
G01 X-4.4071 Y-32.1506
G01 X-5.4566 Y-31.9892
G01 X-6.5002 Y-31.7935
G01 X-7.5369 Y-31.5637
G01 X-8.5655 Y-31.3002
G01 X-9.5849 Y-31.0032
G01 X-10.5940 Y-30.6730
G01 X-11.5918 Y-30.3099
G01 X-12.5772 Y-29.9144
G01 X-13.5492 Y-29.4868
G01 X-14.5066 Y-29.0277
G01 X-15.4485 Y-28.5375
G01 X-16.3738 Y-28.0167
G01 X-17.2816 Y-27.4659
G01 X-18.1709 Y-26.8858
G01 X-19.0408 Y-26.2768
G01 X-19.8902 Y-25.6397
G01 X-20.7184 Y-24.9752
G01 X-21.5243 Y-24.2839
G01 X-22.3073 Y-23.5666
G01 X-23.0663 Y-22.8241
G01 X-23.8006 Y-22.0571
G01 X-24.5095 Y-21.2666
G01 X-25.1921 Y-20.4532
G01 X-25.8477 Y-19.6180
G01 X-26.4756 Y-18.7618
G01 X-27.0752 Y-17.8854
G01 X-27.6458 Y-16.9900
G01 X-28.1868 Y-16.0763
G01 X-28.6976 Y-15.1454
G01 X-29.1776 Y-14.1983
G01 X-29.6265 Y-13.2360
G01 X-30.0436 Y-12.2596
G01 X-30.4285 Y-11.2700
G01 X-30.7809 Y-10.2683
G01 X-31.1002 Y-9.2557
G01 X-31.3863 Y-8.2331
G01 X-31.6388 Y-7.2018
G01 X-31.8574 Y-6.1627
G01 X-32.0419 Y-5.1170
G01 X-32.1920 Y-4.0659
G01 X-32.3077 Y-3.0104
G01 X-32.3888 Y-1.9517
G01 X-32.4352 Y-0.8909
G01 X-32.4469 Y0.1709
G01 X-32.4238 Y1.2324
G01 X-32.3660 Y2.2927
G01 X-32.2736 Y3.3505
G01 X-32.1466 Y4.4046
G01 X-31.9851 Y5.4541
G01 X-31.7894 Y6.4977
G01 X-31.5597 Y7.5344
G01 X-31.2962 Y8.5630
G01 X-30.9992 Y9.5824
G01 X-30.6689 Y10.5916
G01 X-30.3059 Y11.5894
G01 X-29.9103 Y12.5748
G01 X-29.4828 Y13.5467
G01 X-29.0236 Y14.5041
G01 X-28.5334 Y15.4460
G01 X-28.0127 Y16.3714
G01 X-27.4619 Y17.2792
G01 X-26.8817 Y18.1685
G01 X-26.2728 Y19.0383
G01 X-25.6357 Y19.8878
G01 X-24.9712 Y20.7159
G01 X-24.2799 Y21.5219
G01 X-23.5626 Y22.3048
G01 X-22.8201 Y23.0638
G01 X-22.0531 Y23.7982
G01 X-21.2626 Y24.5070
G01 X-20.4492 Y25.1896
G01 X-19.6140 Y25.8452
G01 X-18.7577 Y26.4732
G01 X-17.8814 Y27.0727
G01 X-16.9859 Y27.6433
G01 X-16.0723 Y28.1843
G01 X-15.1414 Y28.6951
G01 X-14.1943 Y29.1752
G01 X-13.2320 Y29.6240
G01 X-12.2556 Y30.0411
G01 X-11.2660 Y30.4261
G01 X-10.2643 Y30.7784
G01 X-9.2517 Y31.0978
G01 X-8.2291 Y31.3839
G01 X-8.5521 Y31.6200
G00 Z1.0000 F500
G00 X-9.6734 Y36.8900 F3000
G00 Z-3.1000 F500
G01 Z-4.8000 F120
G01 X-10.0533 Y37.1075 F300
G01 X-8.9279 Y37.3942
G01 X-7.7943 Y37.6468
G01 X-6.6536 Y37.8651
G01 X-5.5068 Y38.0488
G01 X-4.3550 Y38.1977
G01 X-3.1993 Y38.3119
G01 X-2.0406 Y38.3910
G01 X-0.8800 Y38.4352
G01 X0.2813 Y38.4443
G01 X1.4424 Y38.4182
G01 X2.6022 Y38.3572
G01 X3.7596 Y38.2611
G01 X4.9136 Y38.1301
G01 X6.0631 Y37.9643
G01 X7.2070 Y37.7639
G01 X8.3444 Y37.5290
G01 X9.4742 Y37.2599
G01 X10.5953 Y36.9568
G01 X11.7068 Y36.6199
G01 X12.8076 Y36.2497
G01 X13.8967 Y35.8463
G01 X14.9731 Y35.4103
G01 X16.0359 Y34.9419
G01 X17.0840 Y34.4417
G01 X18.1165 Y33.9100
G01 X19.1325 Y33.3474
G01 X20.1311 Y32.7543
G01 X21.1113 Y32.1314
G01 X22.0722 Y31.4791
G01 X23.0130 Y30.7981
G01 X23.9328 Y30.0890
G01 X24.8307 Y29.3525
G01 X25.7060 Y28.5891
G01 X26.5579 Y27.7997
G01 X27.3855 Y26.9849
G01 X28.1881 Y26.1455
G01 X28.9650 Y25.2822
G01 X29.7155 Y24.3959
G01 X30.4389 Y23.4873
G01 X31.1344 Y22.5573
G01 X31.8016 Y21.6066
G01 X32.4398 Y20.6363
G01 X33.0484 Y19.6471
G01 X33.6268 Y18.6400
G01 X34.1745 Y17.6159
G01 X34.6911 Y16.5757
G01 X35.1760 Y15.5204
G01 X35.6288 Y14.4509
G01 X36.0491 Y13.3683
G01 X36.4365 Y12.2734
G01 X36.7907 Y11.1673
G01 X37.1113 Y10.0511
G01 X37.3980 Y8.9256
G01 X37.6506 Y7.7920
G01 X37.8689 Y6.6513
G01 X38.0526 Y5.5046
G01 X38.2015 Y4.3528
G01 X38.3157 Y3.1970
G01 X38.3949 Y2.0383
G01 X38.4390 Y0.8778
G01 X38.4481 Y-0.2836
G01 X38.4220 Y-1.4447
G01 X38.3610 Y-2.6044
G01 X38.2649 Y-3.7619
G01 X38.1339 Y-4.9158
G01 X37.9681 Y-6.0653
G01 X37.7677 Y-7.2093
G01 X37.5328 Y-8.3467
G01 X37.2637 Y-9.4765
G01 X36.9606 Y-10.5976
G01 X36.6237 Y-11.7090
G01 X36.2535 Y-12.8098
G01 X35.8501 Y-13.8989
G01 X35.4141 Y-14.9754
G01 X34.9457 Y-16.0381
G01 X34.4455 Y-17.0862
G01 X33.9138 Y-18.1188
G01 X33.3512 Y-19.1348
G01 X32.7581 Y-20.1333
G01 X32.1352 Y-21.1135
G01 X31.4829 Y-22.0745
G01 X30.8019 Y-23.0152
G01 X30.0928 Y-23.9350
G01 X29.3563 Y-24.8330
G01 X28.5929 Y-25.7083
G01 X27.8035 Y-26.5601
G01 X26.9887 Y-27.3877
G01 X26.1493 Y-28.1904
G01 X25.2861 Y-28.9673
G01 X24.3997 Y-29.7177
G01 X23.4911 Y-30.4411
G01 X22.5611 Y-31.1367
G01 X21.6104 Y-31.8039
G01 X20.6401 Y-32.4421
G01 X19.6509 Y-33.0506
G01 X18.6438 Y-33.6290
G01 X17.6197 Y-34.1768
G01 X16.5795 Y-34.6933
G01 X15.5242 Y-35.1782
G01 X14.4547 Y-35.6310
G01 X13.3721 Y-36.0513
G01 X12.2772 Y-36.4387
G01 X11.1711 Y-36.7929
G01 X10.0549 Y-37.1135
G01 X8.9294 Y-37.4002
G01 X7.7958 Y-37.6528
G01 X6.6551 Y-37.8711
G01 X5.5084 Y-38.0548
G01 X4.3566 Y-38.2038
G01 X3.2008 Y-38.3179
G01 X2.0421 Y-38.3971
G01 X0.8816 Y-38.4412
G01 X-0.2798 Y-38.4503
G01 X-1.4409 Y-38.4243
G01 X-2.6006 Y-38.3632
G01 X-3.7581 Y-38.2672
G01 X-4.9120 Y-38.1362
G01 X-6.0615 Y-37.9704
G01 X-7.2055 Y-37.7700
G01 X-8.3429 Y-37.5351
G01 X-9.4727 Y-37.2660
G01 X-10.5938 Y-36.9628
G01 X-11.7052 Y-36.6260
G01 X-12.8060 Y-36.2557
G01 X-13.8951 Y-35.8524
G01 X-14.9715 Y-35.4163
G01 X-16.0343 Y-34.9480
G01 X-17.0824 Y-34.4477
G01 X-18.1150 Y-33.9160
G01 X-19.1310 Y-33.3534
G01 X-20.1295 Y-32.7604
G01 X-21.1097 Y-32.1374
G01 X-22.0707 Y-31.4851
G01 X-23.0114 Y-30.8042
G01 X-23.9312 Y-30.0951
G01 X-24.8292 Y-29.3585
G01 X-25.7045 Y-28.5952
G01 X-26.5563 Y-27.8058
G01 X-27.3839 Y-26.9910
G01 X-28.1866 Y-26.1516
G01 X-28.9635 Y-25.2883
G01 X-29.7139 Y-24.4020
G01 X-30.4373 Y-23.4933
G01 X-31.1329 Y-22.5633
G01 X-31.8001 Y-21.6127
G01 X-32.4383 Y-20.6423
G01 X-33.0468 Y-19.6532
G01 X-33.6252 Y-18.6461
G01 X-34.1730 Y-17.6220
G01 X-34.6895 Y-16.5818
G01 X-35.1744 Y-15.5265
G01 X-35.6272 Y-14.4570
G01 X-36.0475 Y-13.3743
G01 X-36.4349 Y-12.2794
G01 X-36.7891 Y-11.1734
G01 X-37.1097 Y-10.0571
G01 X-37.3964 Y-8.9317
G01 X-37.6490 Y-7.7981
G01 X-37.8673 Y-6.6574
G01 X-38.0510 Y-5.5106
G01 X-38.2000 Y-4.3588
G01 X-38.3141 Y-3.2031
G01 X-38.3933 Y-2.0444
G01 X-38.4374 Y-0.8838
G01 X-38.4465 Y0.2775
G01 X-38.4205 Y1.4386
G01 X-38.3594 Y2.5984
G01 X-38.2633 Y3.7558
G01 X-38.1324 Y4.9098
G01 X-37.9666 Y6.0593
G01 X-37.7662 Y7.2032
G01 X-37.5313 Y8.3406
G01 X-37.2622 Y9.4704
G01 X-36.9590 Y10.5915
G01 X-36.6222 Y11.7030
G01 X-36.2519 Y12.8038
G01 X-35.8486 Y13.8929
G01 X-35.4125 Y14.9693
G01 X-34.9442 Y16.0321
G01 X-34.4439 Y17.0802
G01 X-33.9122 Y18.1127
G01 X-33.3496 Y19.1287
G01 X-32.7566 Y20.1273
G01 X-32.1336 Y21.1075
G01 X-31.4813 Y22.0684
G01 X-30.8004 Y23.0092
G01 X-30.0913 Y23.9290
G01 X-29.3547 Y24.8269
G01 X-28.5914 Y25.7022
G01 X-27.8020 Y26.5541
G01 X-26.9872 Y27.3817
G01 X-26.1478 Y28.1843
G01 X-25.2845 Y28.9612
G01 X-24.3982 Y29.7117
G01 X-23.4895 Y30.4351
G01 X-22.5595 Y31.1306
G01 X-21.6089 Y31.7978
G01 X-20.6385 Y32.4360
G01 X-19.6494 Y33.0446
G01 X-18.6423 Y33.6230
G01 X-17.6182 Y34.1707
G01 X-16.5780 Y34.6873
G01 X-15.5227 Y35.1722
G01 X-14.4532 Y35.6250
G01 X-13.3705 Y36.0453
G01 X-12.2756 Y36.4327
G01 X-11.1696 Y36.7869
G01 X-10.0533 Y37.1075
G01 X-9.6734 Y36.8900
G00 Z1.0000 F500
G00 Y-36.8900 F3000
G00 Z-4.3000 F500
G01 Z-6.0000 F120
G01 X9.6734 F300
G01 Y-34.2550
G01 X16.7594
G01 X-16.7594
G01 Y-31.6200
G01 X-21.3230
G01 X-8.5522
G01 X-15.2605
G01 Y-28.9850
G01 X-24.7821
G01 X-27.5686 Y-26.3500
G01 X-19.4574
G01 X-22.5953
G01 Y-23.7150
G01 X-29.8648
G01 X-31.7796 Y-21.0800
G01 X-25.0705
G01 X-27.0680 Y-18.4450
G01 X-33.3816
G01 X-34.7037 Y-15.8100
G01 X-28.6883
G01 X-29.9916 Y-13.1750
G01 X-35.7884
G01 X-36.6529 Y-10.5400
G01 X-31.0131
G01 X-31.7895 Y-7.9050
G01 X-37.3072
G01 X-37.7693 Y-5.2700
G01 X-32.3294
G01 X-32.6493 Y-2.6350
G01 X-38.0456
G01 X-38.1398 Y0.0000
G01 X-32.7598
G01 X-32.6493 Y2.6350
G01 X-38.0456
G01 X-37.7693 Y5.2700
G01 X-32.3294
G01 X-31.7894 Y7.9050
G01 X-37.3069
G01 X-36.6529 Y10.5400
G01 X-31.0131
G01 X-29.9915 Y13.1750
G01 X-35.7884
G01 X-34.7037 Y15.8100
G01 X-28.6883
G01 X-27.0680 Y18.4450
G01 X-33.3816
G01 X-31.7796 Y21.0800
G01 X-25.0705
G01 X-22.5953 Y23.7150
G01 X-29.8648
G01 X-27.5686 Y26.3500
G01 X-19.4574
G01 Y28.9850
G01 X-15.2605
G01 X-24.7821
G01 X-21.3230
G01 Y31.6200
G01 X-8.5521
G01 X-16.7594
G01 Y34.2550
G01 X16.7591
G01 Y31.6200
G01 X21.3230
G01 X8.5522
G01 X15.2605
G01 Y28.9850
G01 X24.7821
G01 X27.5686 Y26.3500
G01 X19.4574
G01 X22.5953
G01 Y23.7150
G01 X29.8648
G01 X31.7796 Y21.0800
G01 X25.0705
G01 X27.0680 Y18.4450
G01 X33.3816
G01 X34.7037 Y15.8100
G01 X28.6883
G01 X29.9916 Y13.1750
G01 X35.7884
G01 X36.6529 Y10.5400
G01 X31.0131
G01 X31.7895 Y7.9050
G01 X37.3072
G01 X37.7693 Y5.2700
G01 X32.3294
G01 X32.6493 Y2.6350
G01 X38.0456
G01 X38.1398 Y0.0000
G01 X32.7598
G01 X32.6493 Y-2.6350
G01 X38.0456
G01 X37.7693 Y-5.2700
G01 X32.3294
G01 X31.7894 Y-7.9050
G01 X37.3072
G01 X36.6529 Y-10.5400
G01 X31.0131
G01 X29.9915 Y-13.1750
G01 X35.7883
G01 X34.7037 Y-15.8100
G01 X28.6883
G01 X27.0680 Y-18.4450
G01 X33.3816
G01 X31.7796 Y-21.0800
G01 X25.0705
G01 X22.5953 Y-23.7150
G01 X29.8648
G01 X27.5686 Y-26.3500
G01 X19.4574
G01 Y-28.9850
G01 X15.2605
G01 X24.7821
G01 X21.3230
G01 Y-31.6200
G01 X8.5521
G00 Z1.0000 F500
G00 X9.6734 Y34.2550 F3000
G00 Z-4.3000 F500
G01 Z-6.0000 F120
G01 Y36.8900 F300
G01 X-9.6734
G00 Z1.0000 F500
G00 X-8.5521 Y31.6200 F3000
G00 Z-4.3000 F500
G01 Z-6.0000 F120
G01 X-8.2291 Y31.3839 F300
G01 X-7.1978 Y31.6363
G01 X-6.1587 Y31.8549
G01 X-5.1130 Y32.0394
G01 X-4.0619 Y32.1896
G01 X-3.0064 Y32.3053
G01 X-1.9477 Y32.3864
G01 X-0.8869 Y32.4328
G01 X0.1749 Y32.4444
G01 X1.2365 Y32.4214
G01 X2.2967 Y32.3636
G01 X3.3545 Y32.2711
G01 X4.4087 Y32.1441
G01 X5.4581 Y31.9827
G01 X6.5018 Y31.7870
G01 X7.5384 Y31.5573
G01 X8.5670 Y31.2938
G01 X9.5865 Y30.9967
G01 X10.5956 Y30.6665
G01 X11.5934 Y30.3034
G01 X12.5788 Y29.9079
G01 X13.5508 Y29.4803
G01 X14.5082 Y29.0212
G01 X15.4501 Y28.5310
G01 X16.3754 Y28.0102
G01 X17.2832 Y27.4595
G01 X18.1725 Y26.8793
G01 X19.0424 Y26.2703
G01 X19.8918 Y25.6333
G01 X20.7200 Y24.9687
G01 X21.5259 Y24.2774
G01 X22.3088 Y23.5601
G01 X23.0679 Y22.8176
G01 X23.8022 Y22.0507
G01 X24.5110 Y21.2601
G01 X25.1936 Y20.4468
G01 X25.8492 Y19.6115
G01 X26.4772 Y18.7553
G01 X27.0768 Y17.8790
G01 X27.6474 Y16.9835
G01 X28.1883 Y16.0698
G01 X28.6992 Y15.1390
G01 X29.1792 Y14.1919
G01 X29.6281 Y13.2296
G01 X30.0452 Y12.2531
G01 X30.4301 Y11.2635
G01 X30.7824 Y10.2619
G01 X31.1018 Y9.2492
G01 X31.3879 Y8.2267
G01 X31.6404 Y7.1953
G01 X31.8590 Y6.1562
G01 X32.0434 Y5.1106
G01 X32.1936 Y4.0594
G01 X32.3093 Y3.0039
G01 X32.3904 Y1.9452
G01 X32.4368 Y0.8844
G01 X32.4485 Y-0.1773
G01 X32.4254 Y-1.2389
G01 X32.3676 Y-2.2991
G01 X32.2752 Y-3.3569
G01 X32.1481 Y-4.4111
G01 X31.9867 Y-5.4606
G01 X31.7910 Y-6.5042
G01 X31.5613 Y-7.5409
G01 X31.2978 Y-8.5695
G01 X31.0007 Y-9.5889
G01 X30.6705 Y-10.5981
G01 X30.3074 Y-11.5959
G01 X29.9119 Y-12.5813
G01 X29.4844 Y-13.5532
G01 X29.0252 Y-14.5106
G01 X28.5350 Y-15.4525
G01 X28.0143 Y-16.3778
G01 X27.4635 Y-17.2857
G01 X26.8833 Y-18.1750
G01 X26.2744 Y-19.0448
G01 X25.6373 Y-19.8942
G01 X24.9727 Y-20.7224
G01 X24.2815 Y-21.5284
G01 X23.5642 Y-22.3113
G01 X22.8217 Y-23.0703
G01 X22.0547 Y-23.8046
G01 X21.2641 Y-24.5135
G01 X20.4508 Y-25.1961
G01 X19.6156 Y-25.8517
G01 X18.7593 Y-26.4796
G01 X17.8830 Y-27.0792
G01 X16.9875 Y-27.6498
G01 X16.0739 Y-28.1908
G01 X15.1430 Y-28.7016
G01 X14.1959 Y-29.1817
G01 X13.2336 Y-29.6305
G01 X12.2571 Y-30.0476
G01 X11.2675 Y-30.4325
G01 X10.2659 Y-30.7849
G01 X9.2532 Y-31.1043
G01 X8.2307 Y-31.3903
G01 X7.1993 Y-31.6428
G01 X6.1603 Y-31.8614
G01 X5.1146 Y-32.0459
G01 X4.0635 Y-32.1960
G01 X3.0080 Y-32.3117
G01 X1.9492 Y-32.3928
G01 X0.8884 Y-32.4392
G01 X-0.1733 Y-32.4509
G01 X-1.2349 Y-32.4278
G01 X-2.2951 Y-32.3701
G01 X-3.3529 Y-32.2776
G01 X-4.4071 Y-32.1506
G01 X-5.4566 Y-31.9892
G01 X-6.5002 Y-31.7935
G01 X-7.5369 Y-31.5637
G01 X-8.5655 Y-31.3002
G01 X-9.5849 Y-31.0032
G01 X-10.5940 Y-30.6730
G01 X-11.5918 Y-30.3099
G01 X-12.5772 Y-29.9144
G01 X-13.5492 Y-29.4868
G01 X-14.5066 Y-29.0277
G01 X-15.4485 Y-28.5375
G01 X-16.3738 Y-28.0167
G01 X-17.2816 Y-27.4659
G01 X-18.1709 Y-26.8858
G01 X-19.0408 Y-26.2768
G01 X-19.8902 Y-25.6397
G01 X-20.7184 Y-24.9752
G01 X-21.5243 Y-24.2839
G01 X-22.3073 Y-23.5666
G01 X-23.0663 Y-22.8241
G01 X-23.8006 Y-22.0571
G01 X-24.5095 Y-21.2666
G01 X-25.1921 Y-20.4532
G01 X-25.8477 Y-19.6180
G01 X-26.4756 Y-18.7618
G01 X-27.0752 Y-17.8854
G01 X-27.6458 Y-16.9900
G01 X-28.1868 Y-16.0763
G01 X-28.6976 Y-15.1454
G01 X-29.1776 Y-14.1983
G01 X-29.6265 Y-13.2360
G01 X-30.0436 Y-12.2596
G01 X-30.4285 Y-11.2700
G01 X-30.7809 Y-10.2683
G01 X-31.1002 Y-9.2557
G01 X-31.3863 Y-8.2331
G01 X-31.6388 Y-7.2018
G01 X-31.8574 Y-6.1627
G01 X-32.0419 Y-5.1170
G01 X-32.1920 Y-4.0659
G01 X-32.3077 Y-3.0104
G01 X-32.3888 Y-1.9517
G01 X-32.4352 Y-0.8909
G01 X-32.4469 Y0.1709
G01 X-32.4238 Y1.2324
G01 X-32.3660 Y2.2927
G01 X-32.2736 Y3.3505
G01 X-32.1466 Y4.4046
G01 X-31.9851 Y5.4541
G01 X-31.7894 Y6.4977
G01 X-31.5597 Y7.5344
G01 X-31.2962 Y8.5630
G01 X-30.9992 Y9.5824
G01 X-30.6689 Y10.5916
G01 X-30.3059 Y11.5894
G01 X-29.9103 Y12.5748
G01 X-29.4828 Y13.5467
G01 X-29.0236 Y14.5041
G01 X-28.5334 Y15.4460
G01 X-28.0127 Y16.3714
G01 X-27.4619 Y17.2792
G01 X-26.8817 Y18.1685
G01 X-26.2728 Y19.0383
G01 X-25.6357 Y19.8878
G01 X-24.9712 Y20.7159
G01 X-24.2799 Y21.5219
G01 X-23.5626 Y22.3048
G01 X-22.8201 Y23.0638
G01 X-22.0531 Y23.7982
G01 X-21.2626 Y24.5070
G01 X-20.4492 Y25.1896
G01 X-19.6140 Y25.8452
G01 X-18.7577 Y26.4732
G01 X-17.8814 Y27.0727
G01 X-16.9859 Y27.6433
G01 X-16.0723 Y28.1843
G01 X-15.1414 Y28.6951
G01 X-14.1943 Y29.1752
G01 X-13.2320 Y29.6240
G01 X-12.2556 Y30.0411
G01 X-11.2660 Y30.4261
G01 X-10.2643 Y30.7784
G01 X-9.2517 Y31.0978
G01 X-8.2291 Y31.3839
G01 X-8.5521 Y31.6200
G00 Z1.0000 F500
G00 X-9.6734 Y36.8900 F3000
G00 Z-4.3000 F500
G01 Z-6.0000 F120
G01 X-10.0533 Y37.1075 F300
G01 X-8.9279 Y37.3942
G01 X-7.7943 Y37.6468
G01 X-6.6536 Y37.8651
G01 X-5.5068 Y38.0488
G01 X-4.3550 Y38.1977
G01 X-3.1993 Y38.3119
G01 X-2.0406 Y38.3910
G01 X-0.8800 Y38.4352
G01 X0.2813 Y38.4443
G01 X1.4424 Y38.4182
G01 X2.6022 Y38.3572
G01 X3.7596 Y38.2611
G01 X4.9136 Y38.1301
G01 X6.0631 Y37.9643
G01 X7.2070 Y37.7639
G01 X8.3444 Y37.5290
G01 X9.4742 Y37.2599
G01 X10.5953 Y36.9568
G01 X11.7068 Y36.6199
G01 X12.8076 Y36.2497
G01 X13.8967 Y35.8463
G01 X14.9731 Y35.4103
G01 X16.0359 Y34.9419
G01 X17.0840 Y34.4417
G01 X18.1165 Y33.9100
G01 X19.1325 Y33.3474
G01 X20.1311 Y32.7543
G01 X21.1113 Y32.1314
G01 X22.0722 Y31.4791
G01 X23.0130 Y30.7981
G01 X23.9328 Y30.0890
G01 X24.8307 Y29.3525
G01 X25.7060 Y28.5891
G01 X26.5579 Y27.7997
G01 X27.3855 Y26.9849
G01 X28.1881 Y26.1455
G01 X28.9650 Y25.2822
G01 X29.7155 Y24.3959
G01 X30.4389 Y23.4873
G01 X31.1344 Y22.5573
G01 X31.8016 Y21.6066
G01 X32.4398 Y20.6363
G01 X33.0484 Y19.6471
G01 X33.6268 Y18.6400
G01 X34.1745 Y17.6159
G01 X34.6911 Y16.5757
G01 X35.1760 Y15.5204
G01 X35.6288 Y14.4509
G01 X36.0491 Y13.3683
G01 X36.4365 Y12.2734
G01 X36.7907 Y11.1673
G01 X37.1113 Y10.0511
G01 X37.3980 Y8.9256
G01 X37.6506 Y7.7920
G01 X37.8689 Y6.6513
G01 X38.0526 Y5.5046
G01 X38.2015 Y4.3528
G01 X38.3157 Y3.1970
G01 X38.3949 Y2.0383
G01 X38.4390 Y0.8778
G01 X38.4481 Y-0.2836
G01 X38.4220 Y-1.4447
G01 X38.3610 Y-2.6044
G01 X38.2649 Y-3.7619
G01 X38.1339 Y-4.9158
G01 X37.9681 Y-6.0653
G01 X37.7677 Y-7.2093
G01 X37.5328 Y-8.3467
G01 X37.2637 Y-9.4765
G01 X36.9606 Y-10.5976
G01 X36.6237 Y-11.7090
G01 X36.2535 Y-12.8098
G01 X35.8501 Y-13.8989
G01 X35.4141 Y-14.9754
G01 X34.9457 Y-16.0381
G01 X34.4455 Y-17.0862
G01 X33.9138 Y-18.1188
G01 X33.3512 Y-19.1348
G01 X32.7581 Y-20.1333
G01 X32.1352 Y-21.1135
G01 X31.4829 Y-22.0745
G01 X30.8019 Y-23.0152
G01 X30.0928 Y-23.9350
G01 X29.3563 Y-24.8330
G01 X28.5929 Y-25.7083
G01 X27.8035 Y-26.5601
G01 X26.9887 Y-27.3877
G01 X26.1493 Y-28.1904
G01 X25.2861 Y-28.9673
G01 X24.3997 Y-29.7177
G01 X23.4911 Y-30.4411
G01 X22.5611 Y-31.1367
G01 X21.6104 Y-31.8039
G01 X20.6401 Y-32.4421
G01 X19.6509 Y-33.0506
G01 X18.6438 Y-33.6290
G01 X17.6197 Y-34.1768
G01 X16.5795 Y-34.6933
G01 X15.5242 Y-35.1782
G01 X14.4547 Y-35.6310
G01 X13.3721 Y-36.0513
G01 X12.2772 Y-36.4387
G01 X11.1711 Y-36.7929
G01 X10.0549 Y-37.1135
G01 X8.9294 Y-37.4002
G01 X7.7958 Y-37.6528
G01 X6.6551 Y-37.8711
G01 X5.5084 Y-38.0548
G01 X4.3566 Y-38.2038
G01 X3.2008 Y-38.3179
G01 X2.0421 Y-38.3971
G01 X0.8816 Y-38.4412
G01 X-0.2798 Y-38.4503
G01 X-1.4409 Y-38.4243
G01 X-2.6006 Y-38.3632
G01 X-3.7581 Y-38.2672
G01 X-4.9120 Y-38.1362
G01 X-6.0615 Y-37.9704
G01 X-7.2055 Y-37.7700
G01 X-8.3429 Y-37.5351
G01 X-9.4727 Y-37.2660
G01 X-10.5938 Y-36.9628
G01 X-11.7052 Y-36.6260
G01 X-12.8060 Y-36.2557
G01 X-13.8951 Y-35.8524
G01 X-14.9715 Y-35.4163
G01 X-16.0343 Y-34.9480
G01 X-17.0824 Y-34.4477
G01 X-18.1150 Y-33.9160
G01 X-19.1310 Y-33.3534
G01 X-20.1295 Y-32.7604
G01 X-21.1097 Y-32.1374
G01 X-22.0707 Y-31.4851
G01 X-23.0114 Y-30.8042
G01 X-23.9312 Y-30.0951
G01 X-24.8292 Y-29.3585
G01 X-25.7045 Y-28.5952
G01 X-26.5563 Y-27.8058
G01 X-27.3839 Y-26.9910
G01 X-28.1866 Y-26.1516
G01 X-28.9635 Y-25.2883
G01 X-29.7139 Y-24.4020
G01 X-30.4373 Y-23.4933
G01 X-31.1329 Y-22.5633
G01 X-31.8001 Y-21.6127
G01 X-32.4383 Y-20.6423
G01 X-33.0468 Y-19.6532
G01 X-33.6252 Y-18.6461
G01 X-34.1730 Y-17.6220
G01 X-34.6895 Y-16.5818
G01 X-35.1744 Y-15.5265
G01 X-35.6272 Y-14.4570
G01 X-36.0475 Y-13.3743
G01 X-36.4349 Y-12.2794
G01 X-36.7891 Y-11.1734
G01 X-37.1097 Y-10.0571
G01 X-37.3964 Y-8.9317
G01 X-37.6490 Y-7.7981
G01 X-37.8673 Y-6.6574
G01 X-38.0510 Y-5.5106
G01 X-38.2000 Y-4.3588
G01 X-38.3141 Y-3.2031
G01 X-38.3933 Y-2.0444
G01 X-38.4374 Y-0.8838
G01 X-38.4465 Y0.2775
G01 X-38.4205 Y1.4386
G01 X-38.3594 Y2.5984
G01 X-38.2633 Y3.7558
G01 X-38.1324 Y4.9098
G01 X-37.9666 Y6.0593
G01 X-37.7662 Y7.2032
G01 X-37.5313 Y8.3406
G01 X-37.2622 Y9.4704
G01 X-36.9590 Y10.5915
G01 X-36.6222 Y11.7030
G01 X-36.2519 Y12.8038
G01 X-35.8486 Y13.8929
G01 X-35.4125 Y14.9693
G01 X-34.9442 Y16.0321
G01 X-34.4439 Y17.0802
G01 X-33.9122 Y18.1127
G01 X-33.3496 Y19.1287
G01 X-32.7566 Y20.1273
G01 X-32.1336 Y21.1075
G01 X-31.4813 Y22.0684
G01 X-30.8004 Y23.0092
G01 X-30.0913 Y23.9290
G01 X-29.3547 Y24.8269
G01 X-28.5914 Y25.7022
G01 X-27.8020 Y26.5541
G01 X-26.9872 Y27.3817
G01 X-26.1478 Y28.1843
G01 X-25.2845 Y28.9612
G01 X-24.3982 Y29.7117
G01 X-23.4895 Y30.4351
G01 X-22.5595 Y31.1306
G01 X-21.6089 Y31.7978
G01 X-20.6385 Y32.4360
G01 X-19.6494 Y33.0446
G01 X-18.6423 Y33.6230
G01 X-17.6182 Y34.1707
G01 X-16.5780 Y34.6873
G01 X-15.5227 Y35.1722
G01 X-14.4532 Y35.6250
G01 X-13.3705 Y36.0453
G01 X-12.2756 Y36.4327
G01 X-11.1696 Y36.7869
G01 X-10.0533 Y37.1075
G01 X-9.6734 Y36.8900
G00 Z1.0000 F500
G00 Y-36.8900 F3000
G00 Z-5.5000 F500
G01 Z-7.2000 F120
G01 X9.6734 F300
G01 Y-34.2550
G01 X16.7594
G01 X-16.7594
G01 Y-31.6200
G01 X-21.3230
G01 X-8.5522
G01 X-15.2605
G01 Y-28.9850
G01 X-24.7821
G01 X-27.5686 Y-26.3500
G01 X-19.4574
G01 X-22.5953
G01 Y-23.7150
G01 X-29.8648
G01 X-31.7796 Y-21.0800
G01 X-25.0705
G01 X-27.0680 Y-18.4450
G01 X-33.3816
G01 X-34.7037 Y-15.8100
G01 X-28.6883
G01 X-29.9916 Y-13.1750
G01 X-35.7884
G01 X-36.6529 Y-10.5400
G01 X-31.0131
G01 X-31.7895 Y-7.9050
G01 X-37.3072
G01 X-37.7693 Y-5.2700
G01 X-32.3294
G01 X-32.6493 Y-2.6350
G01 X-38.0456
G01 X-38.1398 Y0.0000
G01 X-32.7598
G01 X-32.6493 Y2.6350
G01 X-38.0456
G01 X-37.7693 Y5.2700
G01 X-32.3294
G01 X-31.7894 Y7.9050
G01 X-37.3069
G01 X-36.6529 Y10.5400
G01 X-31.0131
G01 X-29.9915 Y13.1750
G01 X-35.7884
G01 X-34.7037 Y15.8100
G01 X-28.6883
G01 X-27.0680 Y18.4450
G01 X-33.3816
G01 X-31.7796 Y21.0800
G01 X-25.0705
G01 X-22.5953 Y23.7150
G01 X-29.8648
G01 X-27.5686 Y26.3500
G01 X-19.4574
G01 Y28.9850
G01 X-15.2605
G01 X-24.7821
G01 X-21.3230
G01 Y31.6200
G01 X-8.5521
G01 X-16.7594
G01 Y34.2550
G01 X16.7591
G01 Y31.6200
G01 X21.3230
G01 X8.5522
G01 X15.2605
G01 Y28.9850
G01 X24.7821
G01 X27.5686 Y26.3500
G01 X19.4574
G01 X22.5953
G01 Y23.7150
G01 X29.8648
G01 X31.7796 Y21.0800
G01 X25.0705
G01 X27.0680 Y18.4450
G01 X33.3816
G01 X34.7037 Y15.8100
G01 X28.6883
G01 X29.9916 Y13.1750
G01 X35.7884
G01 X36.6529 Y10.5400
G01 X31.0131
G01 X31.7895 Y7.9050
G01 X37.3072
G01 X37.7693 Y5.2700
G01 X32.3294
G01 X32.6493 Y2.6350
G01 X38.0456
G01 X38.1398 Y0.0000
G01 X32.7598
G01 X32.6493 Y-2.6350
G01 X38.0456
G01 X37.7693 Y-5.2700
G01 X32.3294
G01 X31.7894 Y-7.9050
G01 X37.3072
G01 X36.6529 Y-10.5400
G01 X31.0131
G01 X29.9915 Y-13.1750
G01 X35.7883
G01 X34.7037 Y-15.8100
G01 X28.6883
G01 X27.0680 Y-18.4450
G01 X33.3816
G01 X31.7796 Y-21.0800
G01 X25.0705
G01 X22.5953 Y-23.7150
G01 X29.8648
G01 X27.5686 Y-26.3500
G01 X19.4574
G01 Y-28.9850
G01 X15.2605
G01 X24.7821
G01 X21.3230
G01 Y-31.6200
G01 X8.5521
G00 Z1.0000 F500
G00 X9.6734 Y34.2550 F3000
G00 Z-5.5000 F500
G01 Z-7.2000 F120
G01 Y36.8900 F300
G01 X-9.6734
G00 Z1.0000 F500
G00 X-8.5521 Y31.6200 F3000
G00 Z-5.5000 F500
G01 Z-7.2000 F120
G01 X-8.2291 Y31.3839 F300
G01 X-7.1978 Y31.6363
G01 X-6.1587 Y31.8549
G01 X-5.1130 Y32.0394
G01 X-4.0619 Y32.1896
G01 X-3.0064 Y32.3053
G01 X-1.9477 Y32.3864
G01 X-0.8869 Y32.4328
G01 X0.1749 Y32.4444
G01 X1.2365 Y32.4214
G01 X2.2967 Y32.3636
G01 X3.3545 Y32.2711
G01 X4.4087 Y32.1441
G01 X5.4581 Y31.9827
G01 X6.5018 Y31.7870
G01 X7.5384 Y31.5573
G01 X8.5670 Y31.2938
G01 X9.5865 Y30.9967
G01 X10.5956 Y30.6665
G01 X11.5934 Y30.3034
G01 X12.5788 Y29.9079
G01 X13.5508 Y29.4803
G01 X14.5082 Y29.0212
G01 X15.4501 Y28.5310
G01 X16.3754 Y28.0102
G01 X17.2832 Y27.4595
G01 X18.1725 Y26.8793
G01 X19.0424 Y26.2703
G01 X19.8918 Y25.6333
G01 X20.7200 Y24.9687
G01 X21.5259 Y24.2774
G01 X22.3088 Y23.5601
G01 X23.0679 Y22.8176
G01 X23.8022 Y22.0507
G01 X24.5110 Y21.2601
G01 X25.1936 Y20.4468
G01 X25.8492 Y19.6115
G01 X26.4772 Y18.7553
G01 X27.0768 Y17.8790
G01 X27.6474 Y16.9835
G01 X28.1883 Y16.0698
G01 X28.6992 Y15.1390
G01 X29.1792 Y14.1919
G01 X29.6281 Y13.2296
G01 X30.0452 Y12.2531
G01 X30.4301 Y11.2635
G01 X30.7824 Y10.2619
G01 X31.1018 Y9.2492
G01 X31.3879 Y8.2267
G01 X31.6404 Y7.1953
G01 X31.8590 Y6.1562
G01 X32.0434 Y5.1106
G01 X32.1936 Y4.0594
G01 X32.3093 Y3.0039
G01 X32.3904 Y1.9452
G01 X32.4368 Y0.8844
G01 X32.4485 Y-0.1773
G01 X32.4254 Y-1.2389
G01 X32.3676 Y-2.2991
G01 X32.2752 Y-3.3569
G01 X32.1481 Y-4.4111
G01 X31.9867 Y-5.4606
G01 X31.7910 Y-6.5042
G01 X31.5613 Y-7.5409
G01 X31.2978 Y-8.5695
G01 X31.0007 Y-9.5889
G01 X30.6705 Y-10.5981
G01 X30.3074 Y-11.5959
G01 X29.9119 Y-12.5813
G01 X29.4844 Y-13.5532
G01 X29.0252 Y-14.5106
G01 X28.5350 Y-15.4525
G01 X28.0143 Y-16.3778
G01 X27.4635 Y-17.2857
G01 X26.8833 Y-18.1750
G01 X26.2744 Y-19.0448
G01 X25.6373 Y-19.8942
G01 X24.9727 Y-20.7224
G01 X24.2815 Y-21.5284
G01 X23.5642 Y-22.3113
G01 X22.8217 Y-23.0703
G01 X22.0547 Y-23.8046
G01 X21.2641 Y-24.5135
G01 X20.4508 Y-25.1961
G01 X19.6156 Y-25.8517
G01 X18.7593 Y-26.4796
G01 X17.8830 Y-27.0792
G01 X16.9875 Y-27.6498
G01 X16.0739 Y-28.1908
G01 X15.1430 Y-28.7016
G01 X14.1959 Y-29.1817
G01 X13.2336 Y-29.6305
G01 X12.2571 Y-30.0476
G01 X11.2675 Y-30.4325
G01 X10.2659 Y-30.7849
G01 X9.2532 Y-31.1043
G01 X8.2307 Y-31.3903
G01 X7.1993 Y-31.6428
G01 X6.1603 Y-31.8614
G01 X5.1146 Y-32.0459
G01 X4.0635 Y-32.1960
G01 X3.0080 Y-32.3117
G01 X1.9492 Y-32.3928
G01 X0.8884 Y-32.4392
G01 X-0.1733 Y-32.4509
G01 X-1.2349 Y-32.4278
G01 X-2.2951 Y-32.3701
G01 X-3.3529 Y-32.2776
G01 X-4.4071 Y-32.1506
G01 X-5.4566 Y-31.9892
G01 X-6.5002 Y-31.7935
G01 X-7.5369 Y-31.5637
G01 X-8.5655 Y-31.3002
G01 X-9.5849 Y-31.0032
G01 X-10.5940 Y-30.6730
G01 X-11.5918 Y-30.3099
G01 X-12.5772 Y-29.9144
G01 X-13.5492 Y-29.4868
G01 X-14.5066 Y-29.0277
G01 X-15.4485 Y-28.5375
G01 X-16.3738 Y-28.0167
G01 X-17.2816 Y-27.4659
G01 X-18.1709 Y-26.8858
G01 X-19.0408 Y-26.2768
G01 X-19.8902 Y-25.6397
G01 X-20.7184 Y-24.9752
G01 X-21.5243 Y-24.2839
G01 X-22.3073 Y-23.5666
G01 X-23.0663 Y-22.8241
G01 X-23.8006 Y-22.0571
G01 X-24.5095 Y-21.2666
G01 X-25.1921 Y-20.4532
G01 X-25.8477 Y-19.6180
G01 X-26.4756 Y-18.7618
G01 X-27.0752 Y-17.8854
G01 X-27.6458 Y-16.9900
G01 X-28.1868 Y-16.0763
G01 X-28.6976 Y-15.1454
G01 X-29.1776 Y-14.1983
G01 X-29.6265 Y-13.2360
G01 X-30.0436 Y-12.2596
G01 X-30.4285 Y-11.2700
G01 X-30.7809 Y-10.2683
G01 X-31.1002 Y-9.2557
G01 X-31.3863 Y-8.2331
G01 X-31.6388 Y-7.2018
G01 X-31.8574 Y-6.1627
G01 X-32.0419 Y-5.1170
G01 X-32.1920 Y-4.0659
G01 X-32.3077 Y-3.0104
G01 X-32.3888 Y-1.9517
G01 X-32.4352 Y-0.8909
G01 X-32.4469 Y0.1709
G01 X-32.4238 Y1.2324
G01 X-32.3660 Y2.2927
G01 X-32.2736 Y3.3505
G01 X-32.1466 Y4.4046
G01 X-31.9851 Y5.4541
G01 X-31.7894 Y6.4977
G01 X-31.5597 Y7.5344
G01 X-31.2962 Y8.5630
G01 X-30.9992 Y9.5824
G01 X-30.6689 Y10.5916
G01 X-30.3059 Y11.5894
G01 X-29.9103 Y12.5748
G01 X-29.4828 Y13.5467
G01 X-29.0236 Y14.5041
G01 X-28.5334 Y15.4460
G01 X-28.0127 Y16.3714
G01 X-27.4619 Y17.2792
G01 X-26.8817 Y18.1685
G01 X-26.2728 Y19.0383
G01 X-25.6357 Y19.8878
G01 X-24.9712 Y20.7159
G01 X-24.2799 Y21.5219
G01 X-23.5626 Y22.3048
G01 X-22.8201 Y23.0638
G01 X-22.0531 Y23.7982
G01 X-21.2626 Y24.5070
G01 X-20.4492 Y25.1896
G01 X-19.6140 Y25.8452
G01 X-18.7577 Y26.4732
G01 X-17.8814 Y27.0727
G01 X-16.9859 Y27.6433
G01 X-16.0723 Y28.1843
G01 X-15.1414 Y28.6951
G01 X-14.1943 Y29.1752
G01 X-13.2320 Y29.6240
G01 X-12.2556 Y30.0411
G01 X-11.2660 Y30.4261
G01 X-10.2643 Y30.7784
G01 X-9.2517 Y31.0978
G01 X-8.2291 Y31.3839
G01 X-8.5521 Y31.6200
G00 Z1.0000 F500
G00 X-9.6734 Y36.8900 F3000
G00 Z-5.5000 F500
G01 Z-7.2000 F120
G01 X-10.0533 Y37.1075 F300
G01 X-8.9279 Y37.3942
G01 X-7.7943 Y37.6468
G01 X-6.6536 Y37.8651
G01 X-5.5068 Y38.0488
G01 X-4.3550 Y38.1977
G01 X-3.1993 Y38.3119
G01 X-2.0406 Y38.3910
G01 X-0.8800 Y38.4352
G01 X0.2813 Y38.4443
G01 X1.4424 Y38.4182
G01 X2.6022 Y38.3572
G01 X3.7596 Y38.2611
G01 X4.9136 Y38.1301
G01 X6.0631 Y37.9643
G01 X7.2070 Y37.7639
G01 X8.3444 Y37.5290
G01 X9.4742 Y37.2599
G01 X10.5953 Y36.9568
G01 X11.7068 Y36.6199
G01 X12.8076 Y36.2497
G01 X13.8967 Y35.8463
G01 X14.9731 Y35.4103
G01 X16.0359 Y34.9419
G01 X17.0840 Y34.4417
G01 X18.1165 Y33.9100
G01 X19.1325 Y33.3474
G01 X20.1311 Y32.7543
G01 X21.1113 Y32.1314
G01 X22.0722 Y31.4791
G01 X23.0130 Y30.7981
G01 X23.9328 Y30.0890
G01 X24.8307 Y29.3525
G01 X25.7060 Y28.5891
G01 X26.5579 Y27.7997
G01 X27.3855 Y26.9849
G01 X28.1881 Y26.1455
G01 X28.9650 Y25.2822
G01 X29.7155 Y24.3959
G01 X30.4389 Y23.4873
G01 X31.1344 Y22.5573
G01 X31.8016 Y21.6066
G01 X32.4398 Y20.6363
G01 X33.0484 Y19.6471
G01 X33.6268 Y18.6400
G01 X34.1745 Y17.6159
G01 X34.6911 Y16.5757
G01 X35.1760 Y15.5204
G01 X35.6288 Y14.4509
G01 X36.0491 Y13.3683
G01 X36.4365 Y12.2734
G01 X36.7907 Y11.1673
G01 X37.1113 Y10.0511
G01 X37.3980 Y8.9256
G01 X37.6506 Y7.7920
G01 X37.8689 Y6.6513
G01 X38.0526 Y5.5046
G01 X38.2015 Y4.3528
G01 X38.3157 Y3.1970
G01 X38.3949 Y2.0383
G01 X38.4390 Y0.8778
G01 X38.4481 Y-0.2836
G01 X38.4220 Y-1.4447
G01 X38.3610 Y-2.6044
G01 X38.2649 Y-3.7619
G01 X38.1339 Y-4.9158
G01 X37.9681 Y-6.0653
G01 X37.7677 Y-7.2093
G01 X37.5328 Y-8.3467
G01 X37.2637 Y-9.4765
G01 X36.9606 Y-10.5976
G01 X36.6237 Y-11.7090
G01 X36.2535 Y-12.8098
G01 X35.8501 Y-13.8989
G01 X35.4141 Y-14.9754
G01 X34.9457 Y-16.0381
G01 X34.4455 Y-17.0862
G01 X33.9138 Y-18.1188
G01 X33.3512 Y-19.1348
G01 X32.7581 Y-20.1333
G01 X32.1352 Y-21.1135
G01 X31.4829 Y-22.0745
G01 X30.8019 Y-23.0152
G01 X30.0928 Y-23.9350
G01 X29.3563 Y-24.8330
G01 X28.5929 Y-25.7083
G01 X27.8035 Y-26.5601
G01 X26.9887 Y-27.3877
G01 X26.1493 Y-28.1904
G01 X25.2861 Y-28.9673
G01 X24.3997 Y-29.7177
G01 X23.4911 Y-30.4411
G01 X22.5611 Y-31.1367
G01 X21.6104 Y-31.8039
G01 X20.6401 Y-32.4421
G01 X19.6509 Y-33.0506
G01 X18.6438 Y-33.6290
G01 X17.6197 Y-34.1768
G01 X16.5795 Y-34.6933
G01 X15.5242 Y-35.1782
G01 X14.4547 Y-35.6310
G01 X13.3721 Y-36.0513
G01 X12.2772 Y-36.4387
G01 X11.1711 Y-36.7929
G01 X10.0549 Y-37.1135
G01 X8.9294 Y-37.4002
G01 X7.7958 Y-37.6528
G01 X6.6551 Y-37.8711
G01 X5.5084 Y-38.0548
G01 X4.3566 Y-38.2038
G01 X3.2008 Y-38.3179
G01 X2.0421 Y-38.3971
G01 X0.8816 Y-38.4412
G01 X-0.2798 Y-38.4503
G01 X-1.4409 Y-38.4243
G01 X-2.6006 Y-38.3632
G01 X-3.7581 Y-38.2672
G01 X-4.9120 Y-38.1362
G01 X-6.0615 Y-37.9704
G01 X-7.2055 Y-37.7700
G01 X-8.3429 Y-37.5351
G01 X-9.4727 Y-37.2660
G01 X-10.5938 Y-36.9628
G01 X-11.7052 Y-36.6260
G01 X-12.8060 Y-36.2557
G01 X-13.8951 Y-35.8524
G01 X-14.9715 Y-35.4163
G01 X-16.0343 Y-34.9480
G01 X-17.0824 Y-34.4477
G01 X-18.1150 Y-33.9160
G01 X-19.1310 Y-33.3534
G01 X-20.1295 Y-32.7604
G01 X-21.1097 Y-32.1374
G01 X-22.0707 Y-31.4851
G01 X-23.0114 Y-30.8042
G01 X-23.9312 Y-30.0951
G01 X-24.8292 Y-29.3585
G01 X-25.7045 Y-28.5952
G01 X-26.5563 Y-27.8058
G01 X-27.3839 Y-26.9910
G01 X-28.1866 Y-26.1516
G01 X-28.9635 Y-25.2883
G01 X-29.7139 Y-24.4020
G01 X-30.4373 Y-23.4933
G01 X-31.1329 Y-22.5633
G01 X-31.8001 Y-21.6127
G01 X-32.4383 Y-20.6423
G01 X-33.0468 Y-19.6532
G01 X-33.6252 Y-18.6461
G01 X-34.1730 Y-17.6220
G01 X-34.6895 Y-16.5818
G01 X-35.1744 Y-15.5265
G01 X-35.6272 Y-14.4570
G01 X-36.0475 Y-13.3743
G01 X-36.4349 Y-12.2794
G01 X-36.7891 Y-11.1734
G01 X-37.1097 Y-10.0571
G01 X-37.3964 Y-8.9317
G01 X-37.6490 Y-7.7981
G01 X-37.8673 Y-6.6574
G01 X-38.0510 Y-5.5106
G01 X-38.2000 Y-4.3588
G01 X-38.3141 Y-3.2031
G01 X-38.3933 Y-2.0444
G01 X-38.4374 Y-0.8838
G01 X-38.4465 Y0.2775
G01 X-38.4205 Y1.4386
G01 X-38.3594 Y2.5984
G01 X-38.2633 Y3.7558
G01 X-38.1324 Y4.9098
G01 X-37.9666 Y6.0593
G01 X-37.7662 Y7.2032
G01 X-37.5313 Y8.3406
G01 X-37.2622 Y9.4704
G01 X-36.9590 Y10.5915
G01 X-36.6222 Y11.7030
G01 X-36.2519 Y12.8038
G01 X-35.8486 Y13.8929
G01 X-35.4125 Y14.9693
G01 X-34.9442 Y16.0321
G01 X-34.4439 Y17.0802
G01 X-33.9122 Y18.1127
G01 X-33.3496 Y19.1287
G01 X-32.7566 Y20.1273
G01 X-32.1336 Y21.1075
G01 X-31.4813 Y22.0684
G01 X-30.8004 Y23.0092
G01 X-30.0913 Y23.9290
G01 X-29.3547 Y24.8269
G01 X-28.5914 Y25.7022
G01 X-27.8020 Y26.5541
G01 X-26.9872 Y27.3817
G01 X-26.1478 Y28.1843
G01 X-25.2845 Y28.9612
G01 X-24.3982 Y29.7117
G01 X-23.4895 Y30.4351
G01 X-22.5595 Y31.1306
G01 X-21.6089 Y31.7978
G01 X-20.6385 Y32.4360
G01 X-19.6494 Y33.0446
G01 X-18.6423 Y33.6230
G01 X-17.6182 Y34.1707
G01 X-16.5780 Y34.6873
G01 X-15.5227 Y35.1722
G01 X-14.4532 Y35.6250
G01 X-13.3705 Y36.0453
G01 X-12.2756 Y36.4327
G01 X-11.1696 Y36.7869
G01 X-10.0533 Y37.1075
G01 X-9.6734 Y36.8900
G00 Z1.0000 F500
G00 Y-36.8900 F3000
G00 Z-6.7000 F500
G01 Z-8.4000 F120
G01 X9.6734 F300
G01 Y-34.2550
G01 X16.7594
G01 X-16.7594
G01 Y-31.6200
G01 X-21.3230
G01 X-8.5522
G01 X-15.2605
G01 Y-28.9850
G01 X-24.7821
G01 X-27.5686 Y-26.3500
G01 X-19.4574
G01 X-22.5953
G01 Y-23.7150
G01 X-29.8648
G01 X-31.7796 Y-21.0800
G01 X-25.0705
G01 X-27.0680 Y-18.4450
G01 X-33.3816
G01 X-34.7037 Y-15.8100
G01 X-28.6883
G01 X-29.9916 Y-13.1750
G01 X-35.7884
G01 X-36.6529 Y-10.5400
G01 X-31.0131
G01 X-31.7895 Y-7.9050
G01 X-37.3072
G01 X-37.7693 Y-5.2700
G01 X-32.3294
G01 X-32.6493 Y-2.6350
G01 X-38.0456
G01 X-38.1398 Y0.0000
G01 X-32.7598
G01 X-32.6493 Y2.6350
G01 X-38.0456
G01 X-37.7693 Y5.2700
G01 X-32.3294
G01 X-31.7894 Y7.9050
G01 X-37.3069
G01 X-36.6529 Y10.5400
G01 X-31.0131
G01 X-29.9915 Y13.1750
G01 X-35.7884
G01 X-34.7037 Y15.8100
G01 X-28.6883
G01 X-27.0680 Y18.4450
G01 X-33.3816
G01 X-31.7796 Y21.0800
G01 X-25.0705
G01 X-22.5953 Y23.7150
G01 X-29.8648
G01 X-27.5686 Y26.3500
G01 X-19.4574
G01 Y28.9850
G01 X-15.2605
G01 X-24.7821
G01 X-21.3230
G01 Y31.6200
G01 X-8.5521
G01 X-16.7594
G01 Y34.2550
G01 X16.7591
G01 Y31.6200
G01 X21.3230
G01 X8.5522
G01 X15.2605
G01 Y28.9850
G01 X24.7821
G01 X27.5686 Y26.3500
G01 X19.4574
G01 X22.5953
G01 Y23.7150
G01 X29.8648
G01 X31.7796 Y21.0800
G01 X25.0705
G01 X27.0680 Y18.4450
G01 X33.3816
G01 X34.7037 Y15.8100
G01 X28.6883
G01 X29.9916 Y13.1750
G01 X35.7884
G01 X36.6529 Y10.5400
G01 X31.0131
G01 X31.7895 Y7.9050
G01 X37.3072
G01 X37.7693 Y5.2700
G01 X32.3294
G01 X32.6493 Y2.6350
G01 X38.0456
G01 X38.1398 Y0.0000
G01 X32.7598
G01 X32.6493 Y-2.6350
G01 X38.0456
G01 X37.7693 Y-5.2700
G01 X32.3294
G01 X31.7894 Y-7.9050
G01 X37.3072
G01 X36.6529 Y-10.5400
G01 X31.0131
G01 X29.9915 Y-13.1750
G01 X35.7883
G01 X34.7037 Y-15.8100
G01 X28.6883
G01 X27.0680 Y-18.4450
G01 X33.3816
G01 X31.7796 Y-21.0800
G01 X25.0705
G01 X22.5953 Y-23.7150
G01 X29.8648
G01 X27.5686 Y-26.3500
G01 X19.4574
G01 Y-28.9850
G01 X15.2605
G01 X24.7821
G01 X21.3230
G01 Y-31.6200
G01 X8.5521
G00 Z1.0000 F500
G00 X9.6734 Y34.2550 F3000
G00 Z-6.7000 F500
G01 Z-8.4000 F120
G01 Y36.8900 F300
G01 X-9.6734
G00 Z1.0000 F500
G00 X-8.5521 Y31.6200 F3000
G00 Z-6.7000 F500
G01 Z-8.4000 F120
G01 X-8.2291 Y31.3839 F300
G01 X-7.1978 Y31.6363
G01 X-6.1587 Y31.8549
G01 X-5.1130 Y32.0394
G01 X-4.0619 Y32.1896
G01 X-3.0064 Y32.3053
G01 X-1.9477 Y32.3864
G01 X-0.8869 Y32.4328
G01 X0.1749 Y32.4444
G01 X1.2365 Y32.4214
G01 X2.2967 Y32.3636
G01 X3.3545 Y32.2711
G01 X4.4087 Y32.1441
G01 X5.4581 Y31.9827
G01 X6.5018 Y31.7870
G01 X7.5384 Y31.5573
G01 X8.5670 Y31.2938
G01 X9.5865 Y30.9967
G01 X10.5956 Y30.6665
G01 X11.5934 Y30.3034
G01 X12.5788 Y29.9079
G01 X13.5508 Y29.4803
G01 X14.5082 Y29.0212
G01 X15.4501 Y28.5310
G01 X16.3754 Y28.0102
G01 X17.2832 Y27.4595
G01 X18.1725 Y26.8793
G01 X19.0424 Y26.2703
G01 X19.8918 Y25.6333
G01 X20.7200 Y24.9687
G01 X21.5259 Y24.2774
G01 X22.3088 Y23.5601
G01 X23.0679 Y22.8176
G01 X23.8022 Y22.0507
G01 X24.5110 Y21.2601
G01 X25.1936 Y20.4468
G01 X25.8492 Y19.6115
G01 X26.4772 Y18.7553
G01 X27.0768 Y17.8790
G01 X27.6474 Y16.9835
G01 X28.1883 Y16.0698
G01 X28.6992 Y15.1390
G01 X29.1792 Y14.1919
G01 X29.6281 Y13.2296
G01 X30.0452 Y12.2531
G01 X30.4301 Y11.2635
G01 X30.7824 Y10.2619
G01 X31.1018 Y9.2492
G01 X31.3879 Y8.2267
G01 X31.6404 Y7.1953
G01 X31.8590 Y6.1562
G01 X32.0434 Y5.1106
G01 X32.1936 Y4.0594
G01 X32.3093 Y3.0039
G01 X32.3904 Y1.9452
G01 X32.4368 Y0.8844
G01 X32.4485 Y-0.1773
G01 X32.4254 Y-1.2389
G01 X32.3676 Y-2.2991
G01 X32.2752 Y-3.3569
G01 X32.1481 Y-4.4111
G01 X31.9867 Y-5.4606
G01 X31.7910 Y-6.5042
G01 X31.5613 Y-7.5409
G01 X31.2978 Y-8.5695
G01 X31.0007 Y-9.5889
G01 X30.6705 Y-10.5981
G01 X30.3074 Y-11.5959
G01 X29.9119 Y-12.5813
G01 X29.4844 Y-13.5532
G01 X29.0252 Y-14.5106
G01 X28.5350 Y-15.4525
G01 X28.0143 Y-16.3778
G01 X27.4635 Y-17.2857
G01 X26.8833 Y-18.1750
G01 X26.2744 Y-19.0448
G01 X25.6373 Y-19.8942
G01 X24.9727 Y-20.7224
G01 X24.2815 Y-21.5284
G01 X23.5642 Y-22.3113
G01 X22.8217 Y-23.0703
G01 X22.0547 Y-23.8046
G01 X21.2641 Y-24.5135
G01 X20.4508 Y-25.1961
G01 X19.6156 Y-25.8517
G01 X18.7593 Y-26.4796
G01 X17.8830 Y-27.0792
G01 X16.9875 Y-27.6498
G01 X16.0739 Y-28.1908
G01 X15.1430 Y-28.7016
G01 X14.1959 Y-29.1817
G01 X13.2336 Y-29.6305
G01 X12.2571 Y-30.0476
G01 X11.2675 Y-30.4325
G01 X10.2659 Y-30.7849
G01 X9.2532 Y-31.1043
G01 X8.2307 Y-31.3903
G01 X7.1993 Y-31.6428
G01 X6.1603 Y-31.8614
G01 X5.1146 Y-32.0459
G01 X4.0635 Y-32.1960
G01 X3.0080 Y-32.3117
G01 X1.9492 Y-32.3928
G01 X0.8884 Y-32.4392
G01 X-0.1733 Y-32.4509
G01 X-1.2349 Y-32.4278
G01 X-2.2951 Y-32.3701
G01 X-3.3529 Y-32.2776
G01 X-4.4071 Y-32.1506
G01 X-5.4566 Y-31.9892
G01 X-6.5002 Y-31.7935
G01 X-7.5369 Y-31.5637
G01 X-8.5655 Y-31.3002
G01 X-9.5849 Y-31.0032
G01 X-10.5940 Y-30.6730
G01 X-11.5918 Y-30.3099
G01 X-12.5772 Y-29.9144
G01 X-13.5492 Y-29.4868
G01 X-14.5066 Y-29.0277
G01 X-15.4485 Y-28.5375
G01 X-16.3738 Y-28.0167
G01 X-17.2816 Y-27.4659
G01 X-18.1709 Y-26.8858
G01 X-19.0408 Y-26.2768
G01 X-19.8902 Y-25.6397
G01 X-20.7184 Y-24.9752
G01 X-21.5243 Y-24.2839
G01 X-22.3073 Y-23.5666
G01 X-23.0663 Y-22.8241
G01 X-23.8006 Y-22.0571
G01 X-24.5095 Y-21.2666
G01 X-25.1921 Y-20.4532
G01 X-25.8477 Y-19.6180
G01 X-26.4756 Y-18.7618
G01 X-27.0752 Y-17.8854
G01 X-27.6458 Y-16.9900
G01 X-28.1868 Y-16.0763
G01 X-28.6976 Y-15.1454
G01 X-29.1776 Y-14.1983
G01 X-29.6265 Y-13.2360
G01 X-30.0436 Y-12.2596
G01 X-30.4285 Y-11.2700
G01 X-30.7809 Y-10.2683
G01 X-31.1002 Y-9.2557
G01 X-31.3863 Y-8.2331
G01 X-31.6388 Y-7.2018
G01 X-31.8574 Y-6.1627
G01 X-32.0419 Y-5.1170
G01 X-32.1920 Y-4.0659
G01 X-32.3077 Y-3.0104
G01 X-32.3888 Y-1.9517
G01 X-32.4352 Y-0.8909
G01 X-32.4469 Y0.1709
G01 X-32.4238 Y1.2324
G01 X-32.3660 Y2.2927
G01 X-32.2736 Y3.3505
G01 X-32.1466 Y4.4046
G01 X-31.9851 Y5.4541
G01 X-31.7894 Y6.4977
G01 X-31.5597 Y7.5344
G01 X-31.2962 Y8.5630
G01 X-30.9992 Y9.5824
G01 X-30.6689 Y10.5916
G01 X-30.3059 Y11.5894
G01 X-29.9103 Y12.5748
G01 X-29.4828 Y13.5467
G01 X-29.0236 Y14.5041
G01 X-28.5334 Y15.4460
G01 X-28.0127 Y16.3714
G01 X-27.4619 Y17.2792
G01 X-26.8817 Y18.1685
G01 X-26.2728 Y19.0383
G01 X-25.6357 Y19.8878
G01 X-24.9712 Y20.7159
G01 X-24.2799 Y21.5219
G01 X-23.5626 Y22.3048
G01 X-22.8201 Y23.0638
G01 X-22.0531 Y23.7982
G01 X-21.2626 Y24.5070
G01 X-20.4492 Y25.1896
G01 X-19.6140 Y25.8452
G01 X-18.7577 Y26.4732
G01 X-17.8814 Y27.0727
G01 X-16.9859 Y27.6433
G01 X-16.0723 Y28.1843
G01 X-15.1414 Y28.6951
G01 X-14.1943 Y29.1752
G01 X-13.2320 Y29.6240
G01 X-12.2556 Y30.0411
G01 X-11.2660 Y30.4261
G01 X-10.2643 Y30.7784
G01 X-9.2517 Y31.0978
G01 X-8.2291 Y31.3839
G01 X-8.5521 Y31.6200
G00 Z1.0000 F500
G00 X-9.6734 Y36.8900 F3000
G00 Z-6.7000 F500
G01 Z-8.4000 F120
G01 X-10.0533 Y37.1075 F300
G01 X-8.9279 Y37.3942
G01 X-7.7943 Y37.6468
G01 X-6.6536 Y37.8651
G01 X-5.5068 Y38.0488
G01 X-4.3550 Y38.1977
G01 X-3.1993 Y38.3119
G01 X-2.0406 Y38.3910
G01 X-0.8800 Y38.4352
G01 X0.2813 Y38.4443
G01 X1.4424 Y38.4182
G01 X2.6022 Y38.3572
G01 X3.7596 Y38.2611
G01 X4.9136 Y38.1301
G01 X6.0631 Y37.9643
G01 X7.2070 Y37.7639
G01 X8.3444 Y37.5290
G01 X9.4742 Y37.2599
G01 X10.5953 Y36.9568
G01 X11.7068 Y36.6199
G01 X12.8076 Y36.2497
G01 X13.8967 Y35.8463
G01 X14.9731 Y35.4103
G01 X16.0359 Y34.9419
G01 X17.0840 Y34.4417
G01 X18.1165 Y33.9100
G01 X19.1325 Y33.3474
G01 X20.1311 Y32.7543
G01 X21.1113 Y32.1314
G01 X22.0722 Y31.4791
G01 X23.0130 Y30.7981
G01 X23.9328 Y30.0890
G01 X24.8307 Y29.3525
G01 X25.7060 Y28.5891
G01 X26.5579 Y27.7997
G01 X27.3855 Y26.9849
G01 X28.1881 Y26.1455
G01 X28.9650 Y25.2822
G01 X29.7155 Y24.3959
G01 X30.4389 Y23.4873
G01 X31.1344 Y22.5573
G01 X31.8016 Y21.6066
G01 X32.4398 Y20.6363
G01 X33.0484 Y19.6471
G01 X33.6268 Y18.6400
G01 X34.1745 Y17.6159
G01 X34.6911 Y16.5757
G01 X35.1760 Y15.5204
G01 X35.6288 Y14.4509
G01 X36.0491 Y13.3683
G01 X36.4365 Y12.2734
G01 X36.7907 Y11.1673
G01 X37.1113 Y10.0511
G01 X37.3980 Y8.9256
G01 X37.6506 Y7.7920
G01 X37.8689 Y6.6513
G01 X38.0526 Y5.5046
G01 X38.2015 Y4.3528
G01 X38.3157 Y3.1970
G01 X38.3949 Y2.0383
G01 X38.4390 Y0.8778
G01 X38.4481 Y-0.2836
G01 X38.4220 Y-1.4447
G01 X38.3610 Y-2.6044
G01 X38.2649 Y-3.7619
G01 X38.1339 Y-4.9158
G01 X37.9681 Y-6.0653
G01 X37.7677 Y-7.2093
G01 X37.5328 Y-8.3467
G01 X37.2637 Y-9.4765
G01 X36.9606 Y-10.5976
G01 X36.6237 Y-11.7090
G01 X36.2535 Y-12.8098
G01 X35.8501 Y-13.8989
G01 X35.4141 Y-14.9754
G01 X34.9457 Y-16.0381
G01 X34.4455 Y-17.0862
G01 X33.9138 Y-18.1188
G01 X33.3512 Y-19.1348
G01 X32.7581 Y-20.1333
G01 X32.1352 Y-21.1135
G01 X31.4829 Y-22.0745
G01 X30.8019 Y-23.0152
G01 X30.0928 Y-23.9350
G01 X29.3563 Y-24.8330
G01 X28.5929 Y-25.7083
G01 X27.8035 Y-26.5601
G01 X26.9887 Y-27.3877
G01 X26.1493 Y-28.1904
G01 X25.2861 Y-28.9673
G01 X24.3997 Y-29.7177
G01 X23.4911 Y-30.4411
G01 X22.5611 Y-31.1367
G01 X21.6104 Y-31.8039
G01 X20.6401 Y-32.4421
G01 X19.6509 Y-33.0506
G01 X18.6438 Y-33.6290
G01 X17.6197 Y-34.1768
G01 X16.5795 Y-34.6933
G01 X15.5242 Y-35.1782
G01 X14.4547 Y-35.6310
G01 X13.3721 Y-36.0513
G01 X12.2772 Y-36.4387
G01 X11.1711 Y-36.7929
G01 X10.0549 Y-37.1135
G01 X8.9294 Y-37.4002
G01 X7.7958 Y-37.6528
G01 X6.6551 Y-37.8711
G01 X5.5084 Y-38.0548
G01 X4.3566 Y-38.2038
G01 X3.2008 Y-38.3179
G01 X2.0421 Y-38.3971
G01 X0.8816 Y-38.4412
G01 X-0.2798 Y-38.4503
G01 X-1.4409 Y-38.4243
G01 X-2.6006 Y-38.3632
G01 X-3.7581 Y-38.2672
G01 X-4.9120 Y-38.1362
G01 X-6.0615 Y-37.9704
G01 X-7.2055 Y-37.7700
G01 X-8.3429 Y-37.5351
G01 X-9.4727 Y-37.2660
G01 X-10.5938 Y-36.9628
G01 X-11.7052 Y-36.6260
G01 X-12.8060 Y-36.2557
G01 X-13.8951 Y-35.8524
G01 X-14.9715 Y-35.4163
G01 X-16.0343 Y-34.9480
G01 X-17.0824 Y-34.4477
G01 X-18.1150 Y-33.9160
G01 X-19.1310 Y-33.3534
G01 X-20.1295 Y-32.7604
G01 X-21.1097 Y-32.1374
G01 X-22.0707 Y-31.4851
G01 X-23.0114 Y-30.8042
G01 X-23.9312 Y-30.0951
G01 X-24.8292 Y-29.3585
G01 X-25.7045 Y-28.5952
G01 X-26.5563 Y-27.8058
G01 X-27.3839 Y-26.9910
G01 X-28.1866 Y-26.1516
G01 X-28.9635 Y-25.2883
G01 X-29.7139 Y-24.4020
G01 X-30.4373 Y-23.4933
G01 X-31.1329 Y-22.5633
G01 X-31.8001 Y-21.6127
G01 X-32.4383 Y-20.6423
G01 X-33.0468 Y-19.6532
G01 X-33.6252 Y-18.6461
G01 X-34.1730 Y-17.6220
G01 X-34.6895 Y-16.5818
G01 X-35.1744 Y-15.5265
G01 X-35.6272 Y-14.4570
G01 X-36.0475 Y-13.3743
G01 X-36.4349 Y-12.2794
G01 X-36.7891 Y-11.1734
G01 X-37.1097 Y-10.0571
G01 X-37.3964 Y-8.9317
G01 X-37.6490 Y-7.7981
G01 X-37.8673 Y-6.6574
G01 X-38.0510 Y-5.5106
G01 X-38.2000 Y-4.3588
G01 X-38.3141 Y-3.2031
G01 X-38.3933 Y-2.0444
G01 X-38.4374 Y-0.8838
G01 X-38.4465 Y0.2775
G01 X-38.4205 Y1.4386
G01 X-38.3594 Y2.5984
G01 X-38.2633 Y3.7558
G01 X-38.1324 Y4.9098
G01 X-37.9666 Y6.0593
G01 X-37.7662 Y7.2032
G01 X-37.5313 Y8.3406
G01 X-37.2622 Y9.4704
G01 X-36.9590 Y10.5915
G01 X-36.6222 Y11.7030
G01 X-36.2519 Y12.8038
G01 X-35.8486 Y13.8929
G01 X-35.4125 Y14.9693
G01 X-34.9442 Y16.0321
G01 X-34.4439 Y17.0802
G01 X-33.9122 Y18.1127
G01 X-33.3496 Y19.1287
G01 X-32.7566 Y20.1273
G01 X-32.1336 Y21.1075
G01 X-31.4813 Y22.0684
G01 X-30.8004 Y23.0092
G01 X-30.0913 Y23.9290
G01 X-29.3547 Y24.8269
G01 X-28.5914 Y25.7022
G01 X-27.8020 Y26.5541
G01 X-26.9872 Y27.3817
G01 X-26.1478 Y28.1843
G01 X-25.2845 Y28.9612
G01 X-24.3982 Y29.7117
G01 X-23.4895 Y30.4351
G01 X-22.5595 Y31.1306
G01 X-21.6089 Y31.7978
G01 X-20.6385 Y32.4360
G01 X-19.6494 Y33.0446
G01 X-18.6423 Y33.6230
G01 X-17.6182 Y34.1707
G01 X-16.5780 Y34.6873
G01 X-15.5227 Y35.1722
G01 X-14.4532 Y35.6250
G01 X-13.3705 Y36.0453
G01 X-12.2756 Y36.4327
G01 X-11.1696 Y36.7869
G01 X-10.0533 Y37.1075
G01 X-9.6734 Y36.8900
G00 Z1.0000 F500
G00 Y-36.8900 F3000
G00 Z-7.9000 F500
G01 Z-9.6000 F120
G01 X9.6734 F300
G01 Y-34.2550
G01 X16.7594
G01 X-16.7594
G01 Y-31.6200
G01 X-21.3230
G01 X-8.5522
G01 X-15.2605
G01 Y-28.9850
G01 X-24.7821
G01 X-27.5686 Y-26.3500
G01 X-19.4574
G01 X-22.5953
G01 Y-23.7150
G01 X-29.8648
G01 X-31.7796 Y-21.0800
G01 X-25.0705
G01 X-27.0680 Y-18.4450
G01 X-33.3816
G01 X-34.7037 Y-15.8100
G01 X-28.6883
G01 X-29.9916 Y-13.1750
G01 X-35.7884
G01 X-36.6529 Y-10.5400
G01 X-31.0131
G01 X-31.7895 Y-7.9050
G01 X-37.3072
G01 X-37.7693 Y-5.2700
G01 X-32.3294
G01 X-32.6493 Y-2.6350
G01 X-38.0456
G01 X-38.1398 Y0.0000
G01 X-32.7598
G01 X-32.6493 Y2.6350
G01 X-38.0456
G01 X-37.7693 Y5.2700
G01 X-32.3294
G01 X-31.7894 Y7.9050
G01 X-37.3069
G01 X-36.6529 Y10.5400
G01 X-31.0131
G01 X-29.9915 Y13.1750
G01 X-35.7884
G01 X-34.7037 Y15.8100
G01 X-28.6883
G01 X-27.0680 Y18.4450
G01 X-33.3816
G01 X-31.7796 Y21.0800
G01 X-25.0705
G01 X-22.5953 Y23.7150
G01 X-29.8648
G01 X-27.5686 Y26.3500
G01 X-19.4574
G01 Y28.9850
G01 X-15.2605
G01 X-24.7821
G01 X-21.3230
G01 Y31.6200
G01 X-8.5521
G01 X-16.7594
G01 Y34.2550
G01 X16.7591
G01 Y31.6200
G01 X21.3230
G01 X8.5522
G01 X15.2605
G01 Y28.9850
G01 X24.7821
G01 X27.5686 Y26.3500
G01 X19.4574
G01 X22.5953
G01 Y23.7150
G01 X29.8648
G01 X31.7796 Y21.0800
G01 X25.0705
G01 X27.0680 Y18.4450
G01 X33.3816
G01 X34.7037 Y15.8100
G01 X28.6883
G01 X29.9916 Y13.1750
G01 X35.7884
G01 X36.6529 Y10.5400
G01 X31.0131
G01 X31.7895 Y7.9050
G01 X37.3072
G01 X37.7693 Y5.2700
G01 X32.3294
G01 X32.6493 Y2.6350
G01 X38.0456
G01 X38.1398 Y0.0000
G01 X32.7598
G01 X32.6493 Y-2.6350
G01 X38.0456
G01 X37.7693 Y-5.2700
G01 X32.3294
G01 X31.7894 Y-7.9050
G01 X37.3072
G01 X36.6529 Y-10.5400
G01 X31.0131
G01 X29.9915 Y-13.1750
G01 X35.7883
G01 X34.7037 Y-15.8100
G01 X28.6883
G01 X27.0680 Y-18.4450
G01 X33.3816
G01 X31.7796 Y-21.0800
G01 X25.0705
G01 X22.5953 Y-23.7150
G01 X29.8648
G01 X27.5686 Y-26.3500
G01 X19.4574
G01 Y-28.9850
G01 X15.2605
G01 X24.7821
G01 X21.3230
G01 Y-31.6200
G01 X8.5521
G00 Z1.0000 F500
G00 X9.6734 Y34.2550 F3000
G00 Z-7.9000 F500
G01 Z-9.6000 F120
G01 Y36.8900 F300
G01 X-9.6734
G00 Z1.0000 F500
G00 X-8.5521 Y31.6200 F3000
G00 Z-7.9000 F500
G01 Z-9.6000 F120
G01 X-8.2291 Y31.3839 F300
G01 X-7.1978 Y31.6363
G01 X-6.1587 Y31.8549
G01 X-5.1130 Y32.0394
G01 X-4.0619 Y32.1896
G01 X-3.0064 Y32.3053
G01 X-1.9477 Y32.3864
G01 X-0.8869 Y32.4328
G01 X0.1749 Y32.4444
G01 X1.2365 Y32.4214
G01 X2.2967 Y32.3636
G01 X3.3545 Y32.2711
G01 X4.4087 Y32.1441
G01 X5.4581 Y31.9827
G01 X6.5018 Y31.7870
G01 X7.5384 Y31.5573
G01 X8.5670 Y31.2938
G01 X9.5865 Y30.9967
G01 X10.5956 Y30.6665
G01 X11.5934 Y30.3034
G01 X12.5788 Y29.9079
G01 X13.5508 Y29.4803
G01 X14.5082 Y29.0212
G01 X15.4501 Y28.5310
G01 X16.3754 Y28.0102
G01 X17.2832 Y27.4595
G01 X18.1725 Y26.8793
G01 X19.0424 Y26.2703
G01 X19.8918 Y25.6333
G01 X20.7200 Y24.9687
G01 X21.5259 Y24.2774
G01 X22.3088 Y23.5601
G01 X23.0679 Y22.8176
G01 X23.8022 Y22.0507
G01 X24.5110 Y21.2601
G01 X25.1936 Y20.4468
G01 X25.8492 Y19.6115
G01 X26.4772 Y18.7553
G01 X27.0768 Y17.8790
G01 X27.6474 Y16.9835
G01 X28.1883 Y16.0698
G01 X28.6992 Y15.1390
G01 X29.1792 Y14.1919
G01 X29.6281 Y13.2296
G01 X30.0452 Y12.2531
G01 X30.4301 Y11.2635
G01 X30.7824 Y10.2619
G01 X31.1018 Y9.2492
G01 X31.3879 Y8.2267
G01 X31.6404 Y7.1953
G01 X31.8590 Y6.1562
G01 X32.0434 Y5.1106
G01 X32.1936 Y4.0594
G01 X32.3093 Y3.0039
G01 X32.3904 Y1.9452
G01 X32.4368 Y0.8844
G01 X32.4485 Y-0.1773
G01 X32.4254 Y-1.2389
G01 X32.3676 Y-2.2991
G01 X32.2752 Y-3.3569
G01 X32.1481 Y-4.4111
G01 X31.9867 Y-5.4606
G01 X31.7910 Y-6.5042
G01 X31.5613 Y-7.5409
G01 X31.2978 Y-8.5695
G01 X31.0007 Y-9.5889
G01 X30.6705 Y-10.5981
G01 X30.3074 Y-11.5959
G01 X29.9119 Y-12.5813
G01 X29.4844 Y-13.5532
G01 X29.0252 Y-14.5106
G01 X28.5350 Y-15.4525
G01 X28.0143 Y-16.3778
G01 X27.4635 Y-17.2857
G01 X26.8833 Y-18.1750
G01 X26.2744 Y-19.0448
G01 X25.6373 Y-19.8942
G01 X24.9727 Y-20.7224
G01 X24.2815 Y-21.5284
G01 X23.5642 Y-22.3113
G01 X22.8217 Y-23.0703
G01 X22.0547 Y-23.8046
G01 X21.2641 Y-24.5135
G01 X20.4508 Y-25.1961
G01 X19.6156 Y-25.8517
G01 X18.7593 Y-26.4796
G01 X17.8830 Y-27.0792
G01 X16.9875 Y-27.6498
G01 X16.0739 Y-28.1908
G01 X15.1430 Y-28.7016
G01 X14.1959 Y-29.1817
G01 X13.2336 Y-29.6305
G01 X12.2571 Y-30.0476
G01 X11.2675 Y-30.4325
G01 X10.2659 Y-30.7849
G01 X9.2532 Y-31.1043
G01 X8.2307 Y-31.3903
G01 X7.1993 Y-31.6428
G01 X6.1603 Y-31.8614
G01 X5.1146 Y-32.0459
G01 X4.0635 Y-32.1960
G01 X3.0080 Y-32.3117
G01 X1.9492 Y-32.3928
G01 X0.8884 Y-32.4392
G01 X-0.1733 Y-32.4509
G01 X-1.2349 Y-32.4278
G01 X-2.2951 Y-32.3701
G01 X-3.3529 Y-32.2776
G01 X-4.4071 Y-32.1506
G01 X-5.4566 Y-31.9892
G01 X-6.5002 Y-31.7935
G01 X-7.5369 Y-31.5637
G01 X-8.5655 Y-31.3002
G01 X-9.5849 Y-31.0032
G01 X-10.5940 Y-30.6730
G01 X-11.5918 Y-30.3099
G01 X-12.5772 Y-29.9144
G01 X-13.5492 Y-29.4868
G01 X-14.5066 Y-29.0277
G01 X-15.4485 Y-28.5375
G01 X-16.3738 Y-28.0167
G01 X-17.2816 Y-27.4659
G01 X-18.1709 Y-26.8858
G01 X-19.0408 Y-26.2768
G01 X-19.8902 Y-25.6397
G01 X-20.7184 Y-24.9752
G01 X-21.5243 Y-24.2839
G01 X-22.3073 Y-23.5666
G01 X-23.0663 Y-22.8241
G01 X-23.8006 Y-22.0571
G01 X-24.5095 Y-21.2666
G01 X-25.1921 Y-20.4532
G01 X-25.8477 Y-19.6180
G01 X-26.4756 Y-18.7618
G01 X-27.0752 Y-17.8854
G01 X-27.6458 Y-16.9900
G01 X-28.1868 Y-16.0763
G01 X-28.6976 Y-15.1454
G01 X-29.1776 Y-14.1983
G01 X-29.6265 Y-13.2360
G01 X-30.0436 Y-12.2596
G01 X-30.4285 Y-11.2700
G01 X-30.7809 Y-10.2683
G01 X-31.1002 Y-9.2557
G01 X-31.3863 Y-8.2331
G01 X-31.6388 Y-7.2018
G01 X-31.8574 Y-6.1627
G01 X-32.0419 Y-5.1170
G01 X-32.1920 Y-4.0659
G01 X-32.3077 Y-3.0104
G01 X-32.3888 Y-1.9517
G01 X-32.4352 Y-0.8909
G01 X-32.4469 Y0.1709
G01 X-32.4238 Y1.2324
G01 X-32.3660 Y2.2927
G01 X-32.2736 Y3.3505
G01 X-32.1466 Y4.4046
G01 X-31.9851 Y5.4541
G01 X-31.7894 Y6.4977
G01 X-31.5597 Y7.5344
G01 X-31.2962 Y8.5630
G01 X-30.9992 Y9.5824
G01 X-30.6689 Y10.5916
G01 X-30.3059 Y11.5894
G01 X-29.9103 Y12.5748
G01 X-29.4828 Y13.5467
G01 X-29.0236 Y14.5041
G01 X-28.5334 Y15.4460
G01 X-28.0127 Y16.3714
G01 X-27.4619 Y17.2792
G01 X-26.8817 Y18.1685
G01 X-26.2728 Y19.0383
G01 X-25.6357 Y19.8878
G01 X-24.9712 Y20.7159
G01 X-24.2799 Y21.5219
G01 X-23.5626 Y22.3048
G01 X-22.8201 Y23.0638
G01 X-22.0531 Y23.7982
G01 X-21.2626 Y24.5070
G01 X-20.4492 Y25.1896
G01 X-19.6140 Y25.8452
G01 X-18.7577 Y26.4732
G01 X-17.8814 Y27.0727
G01 X-16.9859 Y27.6433
G01 X-16.0723 Y28.1843
G01 X-15.1414 Y28.6951
G01 X-14.1943 Y29.1752
G01 X-13.2320 Y29.6240
G01 X-12.2556 Y30.0411
G01 X-11.2660 Y30.4261
G01 X-10.2643 Y30.7784
G01 X-9.2517 Y31.0978
G01 X-8.2291 Y31.3839
G01 X-8.5521 Y31.6200
G00 Z1.0000 F500
G00 X-9.6734 Y36.8900 F3000
G00 Z-7.9000 F500
G01 Z-9.6000 F120
G01 X-10.0533 Y37.1075 F300
G01 X-8.9279 Y37.3942
G01 X-7.7943 Y37.6468
G01 X-6.6536 Y37.8651
G01 X-5.5068 Y38.0488
G01 X-4.3550 Y38.1977
G01 X-3.1993 Y38.3119
G01 X-2.0406 Y38.3910
G01 X-0.8800 Y38.4352
G01 X0.2813 Y38.4443
G01 X1.4424 Y38.4182
G01 X2.6022 Y38.3572
G01 X3.7596 Y38.2611
G01 X4.9136 Y38.1301
G01 X6.0631 Y37.9643
G01 X7.2070 Y37.7639
G01 X8.3444 Y37.5290
G01 X9.4742 Y37.2599
G01 X10.5953 Y36.9568
G01 X11.7068 Y36.6199
G01 X12.8076 Y36.2497
G01 X13.8967 Y35.8463
G01 X14.9731 Y35.4103
G01 X16.0359 Y34.9419
G01 X17.0840 Y34.4417
G01 X18.1165 Y33.9100
G01 X19.1325 Y33.3474
G01 X20.1311 Y32.7543
G01 X21.1113 Y32.1314
G01 X22.0722 Y31.4791
G01 X23.0130 Y30.7981
G01 X23.9328 Y30.0890
G01 X24.8307 Y29.3525
G01 X25.7060 Y28.5891
G01 X26.5579 Y27.7997
G01 X27.3855 Y26.9849
G01 X28.1881 Y26.1455
G01 X28.9650 Y25.2822
G01 X29.7155 Y24.3959
G01 X30.4389 Y23.4873
G01 X31.1344 Y22.5573
G01 X31.8016 Y21.6066
G01 X32.4398 Y20.6363
G01 X33.0484 Y19.6471
G01 X33.6268 Y18.6400
G01 X34.1745 Y17.6159
G01 X34.6911 Y16.5757
G01 X35.1760 Y15.5204
G01 X35.6288 Y14.4509
G01 X36.0491 Y13.3683
G01 X36.4365 Y12.2734
G01 X36.7907 Y11.1673
G01 X37.1113 Y10.0511
G01 X37.3980 Y8.9256
G01 X37.6506 Y7.7920
G01 X37.8689 Y6.6513
G01 X38.0526 Y5.5046
G01 X38.2015 Y4.3528
G01 X38.3157 Y3.1970
G01 X38.3949 Y2.0383
G01 X38.4390 Y0.8778
G01 X38.4481 Y-0.2836
G01 X38.4220 Y-1.4447
G01 X38.3610 Y-2.6044
G01 X38.2649 Y-3.7619
G01 X38.1339 Y-4.9158
G01 X37.9681 Y-6.0653
G01 X37.7677 Y-7.2093
G01 X37.5328 Y-8.3467
G01 X37.2637 Y-9.4765
G01 X36.9606 Y-10.5976
G01 X36.6237 Y-11.7090
G01 X36.2535 Y-12.8098
G01 X35.8501 Y-13.8989
G01 X35.4141 Y-14.9754
G01 X34.9457 Y-16.0381
G01 X34.4455 Y-17.0862
G01 X33.9138 Y-18.1188
G01 X33.3512 Y-19.1348
G01 X32.7581 Y-20.1333
G01 X32.1352 Y-21.1135
G01 X31.4829 Y-22.0745
G01 X30.8019 Y-23.0152
G01 X30.0928 Y-23.9350
G01 X29.3563 Y-24.8330
G01 X28.5929 Y-25.7083
G01 X27.8035 Y-26.5601
G01 X26.9887 Y-27.3877
G01 X26.1493 Y-28.1904
G01 X25.2861 Y-28.9673
G01 X24.3997 Y-29.7177
G01 X23.4911 Y-30.4411
G01 X22.5611 Y-31.1367
G01 X21.6104 Y-31.8039
G01 X20.6401 Y-32.4421
G01 X19.6509 Y-33.0506
G01 X18.6438 Y-33.6290
G01 X17.6197 Y-34.1768
G01 X16.5795 Y-34.6933
G01 X15.5242 Y-35.1782
G01 X14.4547 Y-35.6310
G01 X13.3721 Y-36.0513
G01 X12.2772 Y-36.4387
G01 X11.1711 Y-36.7929
G01 X10.0549 Y-37.1135
G01 X8.9294 Y-37.4002
G01 X7.7958 Y-37.6528
G01 X6.6551 Y-37.8711
G01 X5.5084 Y-38.0548
G01 X4.3566 Y-38.2038
G01 X3.2008 Y-38.3179
G01 X2.0421 Y-38.3971
G01 X0.8816 Y-38.4412
G01 X-0.2798 Y-38.4503
G01 X-1.4409 Y-38.4243
G01 X-2.6006 Y-38.3632
G01 X-3.7581 Y-38.2672
G01 X-4.9120 Y-38.1362
G01 X-6.0615 Y-37.9704
G01 X-7.2055 Y-37.7700
G01 X-8.3429 Y-37.5351
G01 X-9.4727 Y-37.2660
G01 X-10.5938 Y-36.9628
G01 X-11.7052 Y-36.6260
G01 X-12.8060 Y-36.2557
G01 X-13.8951 Y-35.8524
G01 X-14.9715 Y-35.4163
G01 X-16.0343 Y-34.9480
G01 X-17.0824 Y-34.4477
G01 X-18.1150 Y-33.9160
G01 X-19.1310 Y-33.3534
G01 X-20.1295 Y-32.7604
G01 X-21.1097 Y-32.1374
G01 X-22.0707 Y-31.4851
G01 X-23.0114 Y-30.8042
G01 X-23.9312 Y-30.0951
G01 X-24.8292 Y-29.3585
G01 X-25.7045 Y-28.5952
G01 X-26.5563 Y-27.8058
G01 X-27.3839 Y-26.9910
G01 X-28.1866 Y-26.1516
G01 X-28.9635 Y-25.2883
G01 X-29.7139 Y-24.4020
G01 X-30.4373 Y-23.4933
G01 X-31.1329 Y-22.5633
G01 X-31.8001 Y-21.6127
G01 X-32.4383 Y-20.6423
G01 X-33.0468 Y-19.6532
G01 X-33.6252 Y-18.6461
G01 X-34.1730 Y-17.6220
G01 X-34.6895 Y-16.5818
G01 X-35.1744 Y-15.5265
G01 X-35.6272 Y-14.4570
G01 X-36.0475 Y-13.3743
G01 X-36.4349 Y-12.2794
G01 X-36.7891 Y-11.1734
G01 X-37.1097 Y-10.0571
G01 X-37.3964 Y-8.9317
G01 X-37.6490 Y-7.7981
G01 X-37.8673 Y-6.6574
G01 X-38.0510 Y-5.5106
G01 X-38.2000 Y-4.3588
G01 X-38.3141 Y-3.2031
G01 X-38.3933 Y-2.0444
G01 X-38.4374 Y-0.8838
G01 X-38.4465 Y0.2775
G01 X-38.4205 Y1.4386
G01 X-38.3594 Y2.5984
G01 X-38.2633 Y3.7558
G01 X-38.1324 Y4.9098
G01 X-37.9666 Y6.0593
G01 X-37.7662 Y7.2032
G01 X-37.5313 Y8.3406
G01 X-37.2622 Y9.4704
G01 X-36.9590 Y10.5915
G01 X-36.6222 Y11.7030
G01 X-36.2519 Y12.8038
G01 X-35.8486 Y13.8929
G01 X-35.4125 Y14.9693
G01 X-34.9442 Y16.0321
G01 X-34.4439 Y17.0802
G01 X-33.9122 Y18.1127
G01 X-33.3496 Y19.1287
G01 X-32.7566 Y20.1273
G01 X-32.1336 Y21.1075
G01 X-31.4813 Y22.0684
G01 X-30.8004 Y23.0092
G01 X-30.0913 Y23.9290
G01 X-29.3547 Y24.8269
G01 X-28.5914 Y25.7022
G01 X-27.8020 Y26.5541
G01 X-26.9872 Y27.3817
G01 X-26.1478 Y28.1843
G01 X-25.2845 Y28.9612
G01 X-24.3982 Y29.7117
G01 X-23.4895 Y30.4351
G01 X-22.5595 Y31.1306
G01 X-21.6089 Y31.7978
G01 X-20.6385 Y32.4360
G01 X-19.6494 Y33.0446
G01 X-18.6423 Y33.6230
G01 X-17.6182 Y34.1707
G01 X-16.5780 Y34.6873
G01 X-15.5227 Y35.1722
G01 X-14.4532 Y35.6250
G01 X-13.3705 Y36.0453
G01 X-12.2756 Y36.4327
G01 X-11.1696 Y36.7869
G01 X-10.0533 Y37.1075
G01 X-9.6734 Y36.8900
G00 Z1.0000 F500
G00 Y-36.8900 F3000
G00 Z-9.1000 F500
G01 Z-10.0000 F120
G01 X9.6734 F300
G01 Y-34.2550
G01 X16.7594
G01 X-16.7594
G01 Y-31.6200
G01 X-21.3230
G01 X-8.5522
G01 X-15.2605
G01 Y-28.9850
G01 X-24.7821
G01 X-27.5686 Y-26.3500
G01 X-19.4574
G01 X-22.5953
G01 Y-23.7150
G01 X-29.8648
G01 X-31.7796 Y-21.0800
G01 X-25.0705
G01 X-27.0680 Y-18.4450
G01 X-33.3816
G01 X-34.7037 Y-15.8100
G01 X-28.6883
G01 X-29.9916 Y-13.1750
G01 X-35.7884
G01 X-36.6529 Y-10.5400
G01 X-31.0131
G01 X-31.7895 Y-7.9050
G01 X-37.3072
G01 X-37.7693 Y-5.2700
G01 X-32.3294
G01 X-32.6493 Y-2.6350
G01 X-38.0456
G01 X-38.1398 Y0.0000
G01 X-32.7598
G01 X-32.6493 Y2.6350
G01 X-38.0456
G01 X-37.7693 Y5.2700
G01 X-32.3294
G01 X-31.7894 Y7.9050
G01 X-37.3069
G01 X-36.6529 Y10.5400
G01 X-31.0131
G01 X-29.9915 Y13.1750
G01 X-35.7884
G01 X-34.7037 Y15.8100
G01 X-28.6883
G01 X-27.0680 Y18.4450
G01 X-33.3816
G01 X-31.7796 Y21.0800
G01 X-25.0705
G01 X-22.5953 Y23.7150
G01 X-29.8648
G01 X-27.5686 Y26.3500
G01 X-19.4574
G01 Y28.9850
G01 X-15.2605
G01 X-24.7821
G01 X-21.3230
G01 Y31.6200
G01 X-8.5521
G01 X-16.7594
G01 Y34.2550
G01 X16.7591
G01 Y31.6200
G01 X21.3230
G01 X8.5522
G01 X15.2605
G01 Y28.9850
G01 X24.7821
G01 X27.5686 Y26.3500
G01 X19.4574
G01 X22.5953
G01 Y23.7150
G01 X29.8648
G01 X31.7796 Y21.0800
G01 X25.0705
G01 X27.0680 Y18.4450
G01 X33.3816
G01 X34.7037 Y15.8100
G01 X28.6883
G01 X29.9916 Y13.1750
G01 X35.7884
G01 X36.6529 Y10.5400
G01 X31.0131
G01 X31.7895 Y7.9050
G01 X37.3072
G01 X37.7693 Y5.2700
G01 X32.3294
G01 X32.6493 Y2.6350
G01 X38.0456
G01 X38.1398 Y0.0000
G01 X32.7598
G01 X32.6493 Y-2.6350
G01 X38.0456
G01 X37.7693 Y-5.2700
G01 X32.3294
G01 X31.7894 Y-7.9050
G01 X37.3072
G01 X36.6529 Y-10.5400
G01 X31.0131
G01 X29.9915 Y-13.1750
G01 X35.7883
G01 X34.7037 Y-15.8100
G01 X28.6883
G01 X27.0680 Y-18.4450
G01 X33.3816
G01 X31.7796 Y-21.0800
G01 X25.0705
G01 X22.5953 Y-23.7150
G01 X29.8648
G01 X27.5686 Y-26.3500
G01 X19.4574
G01 Y-28.9850
G01 X15.2605
G01 X24.7821
G01 X21.3230
G01 Y-31.6200
G01 X8.5521
G00 Z1.0000 F500
G00 X9.6734 Y34.2550 F3000
G00 Z-9.1000 F500
G01 Z-10.0000 F120
G01 Y36.8900 F300
G01 X-9.6734
G00 Z1.0000 F500
G00 X-8.5521 Y31.6200 F3000
G00 Z-9.1000 F500
G01 Z-10.0000 F120
G01 X-8.2291 Y31.3839 F300
G01 X-7.1978 Y31.6363
G01 X-6.1587 Y31.8549
G01 X-5.1130 Y32.0394
G01 X-4.0619 Y32.1896
G01 X-3.0064 Y32.3053
G01 X-1.9477 Y32.3864
G01 X-0.8869 Y32.4328
G01 X0.1749 Y32.4444
G01 X1.2365 Y32.4214
G01 X2.2967 Y32.3636
G01 X3.3545 Y32.2711
G01 X4.4087 Y32.1441
G01 X5.4581 Y31.9827
G01 X6.5018 Y31.7870
G01 X7.5384 Y31.5573
G01 X8.5670 Y31.2938
G01 X9.5865 Y30.9967
G01 X10.5956 Y30.6665
G01 X11.5934 Y30.3034
G01 X12.5788 Y29.9079
G01 X13.5508 Y29.4803
G01 X14.5082 Y29.0212
G01 X15.4501 Y28.5310
G01 X16.3754 Y28.0102
G01 X17.2832 Y27.4595
G01 X18.1725 Y26.8793
G01 X19.0424 Y26.2703
G01 X19.8918 Y25.6333
G01 X20.7200 Y24.9687
G01 X21.5259 Y24.2774
G01 X22.3088 Y23.5601
G01 X23.0679 Y22.8176
G01 X23.8022 Y22.0507
G01 X24.5110 Y21.2601
G01 X25.1936 Y20.4468
G01 X25.8492 Y19.6115
G01 X26.4772 Y18.7553
G01 X27.0768 Y17.8790
G01 X27.6474 Y16.9835
G01 X28.1883 Y16.0698
G01 X28.6992 Y15.1390
G01 X29.1792 Y14.1919
G01 X29.6281 Y13.2296
G01 X30.0452 Y12.2531
G01 X30.4301 Y11.2635
G01 X30.7824 Y10.2619
G01 X31.1018 Y9.2492
G01 X31.3879 Y8.2267
G01 X31.6404 Y7.1953
G01 X31.8590 Y6.1562
G01 X32.0434 Y5.1106
G01 X32.1936 Y4.0594
G01 X32.3093 Y3.0039
G01 X32.3904 Y1.9452
G01 X32.4368 Y0.8844
G01 X32.4485 Y-0.1773
G01 X32.4254 Y-1.2389
G01 X32.3676 Y-2.2991
G01 X32.2752 Y-3.3569
G01 X32.1481 Y-4.4111
G01 X31.9867 Y-5.4606
G01 X31.7910 Y-6.5042
G01 X31.5613 Y-7.5409
G01 X31.2978 Y-8.5695
G01 X31.0007 Y-9.5889
G01 X30.6705 Y-10.5981
G01 X30.3074 Y-11.5959
G01 X29.9119 Y-12.5813
G01 X29.4844 Y-13.5532
G01 X29.0252 Y-14.5106
G01 X28.5350 Y-15.4525
G01 X28.0143 Y-16.3778
G01 X27.4635 Y-17.2857
G01 X26.8833 Y-18.1750
G01 X26.2744 Y-19.0448
G01 X25.6373 Y-19.8942
G01 X24.9727 Y-20.7224
G01 X24.2815 Y-21.5284
G01 X23.5642 Y-22.3113
G01 X22.8217 Y-23.0703
G01 X22.0547 Y-23.8046
G01 X21.2641 Y-24.5135
G01 X20.4508 Y-25.1961
G01 X19.6156 Y-25.8517
G01 X18.7593 Y-26.4796
G01 X17.8830 Y-27.0792
G01 X16.9875 Y-27.6498
G01 X16.0739 Y-28.1908
G01 X15.1430 Y-28.7016
G01 X14.1959 Y-29.1817
G01 X13.2336 Y-29.6305
G01 X12.2571 Y-30.0476
G01 X11.2675 Y-30.4325
G01 X10.2659 Y-30.7849
G01 X9.2532 Y-31.1043
G01 X8.2307 Y-31.3903
G01 X7.1993 Y-31.6428
G01 X6.1603 Y-31.8614
G01 X5.1146 Y-32.0459
G01 X4.0635 Y-32.1960
G01 X3.0080 Y-32.3117
G01 X1.9492 Y-32.3928
G01 X0.8884 Y-32.4392
G01 X-0.1733 Y-32.4509
G01 X-1.2349 Y-32.4278
G01 X-2.2951 Y-32.3701
G01 X-3.3529 Y-32.2776
G01 X-4.4071 Y-32.1506
G01 X-5.4566 Y-31.9892
G01 X-6.5002 Y-31.7935
G01 X-7.5369 Y-31.5637
G01 X-8.5655 Y-31.3002
G01 X-9.5849 Y-31.0032
G01 X-10.5940 Y-30.6730
G01 X-11.5918 Y-30.3099
G01 X-12.5772 Y-29.9144
G01 X-13.5492 Y-29.4868
G01 X-14.5066 Y-29.0277
G01 X-15.4485 Y-28.5375
G01 X-16.3738 Y-28.0167
G01 X-17.2816 Y-27.4659
G01 X-18.1709 Y-26.8858
G01 X-19.0408 Y-26.2768
G01 X-19.8902 Y-25.6397
G01 X-20.7184 Y-24.9752
G01 X-21.5243 Y-24.2839
G01 X-22.3073 Y-23.5666
G01 X-23.0663 Y-22.8241
G01 X-23.8006 Y-22.0571
G01 X-24.5095 Y-21.2666
G01 X-25.1921 Y-20.4532
G01 X-25.8477 Y-19.6180
G01 X-26.4756 Y-18.7618
G01 X-27.0752 Y-17.8854
G01 X-27.6458 Y-16.9900
G01 X-28.1868 Y-16.0763
G01 X-28.6976 Y-15.1454
G01 X-29.1776 Y-14.1983
G01 X-29.6265 Y-13.2360
G01 X-30.0436 Y-12.2596
G01 X-30.4285 Y-11.2700
G01 X-30.7809 Y-10.2683
G01 X-31.1002 Y-9.2557
G01 X-31.3863 Y-8.2331
G01 X-31.6388 Y-7.2018
G01 X-31.8574 Y-6.1627
G01 X-32.0419 Y-5.1170
G01 X-32.1920 Y-4.0659
G01 X-32.3077 Y-3.0104
G01 X-32.3888 Y-1.9517
G01 X-32.4352 Y-0.8909
G01 X-32.4469 Y0.1709
G01 X-32.4238 Y1.2324
G01 X-32.3660 Y2.2927
G01 X-32.2736 Y3.3505
G01 X-32.1466 Y4.4046
G01 X-31.9851 Y5.4541
G01 X-31.7894 Y6.4977
G01 X-31.5597 Y7.5344
G01 X-31.2962 Y8.5630
G01 X-30.9992 Y9.5824
G01 X-30.6689 Y10.5916
G01 X-30.3059 Y11.5894
G01 X-29.9103 Y12.5748
G01 X-29.4828 Y13.5467
G01 X-29.0236 Y14.5041
G01 X-28.5334 Y15.4460
G01 X-28.0127 Y16.3714
G01 X-27.4619 Y17.2792
G01 X-26.8817 Y18.1685
G01 X-26.2728 Y19.0383
G01 X-25.6357 Y19.8878
G01 X-24.9712 Y20.7159
G01 X-24.2799 Y21.5219
G01 X-23.5626 Y22.3048
G01 X-22.8201 Y23.0638
G01 X-22.0531 Y23.7982
G01 X-21.2626 Y24.5070
G01 X-20.4492 Y25.1896
G01 X-19.6140 Y25.8452
G01 X-18.7577 Y26.4732
G01 X-17.8814 Y27.0727
G01 X-16.9859 Y27.6433
G01 X-16.0723 Y28.1843
G01 X-15.1414 Y28.6951
G01 X-14.1943 Y29.1752
G01 X-13.2320 Y29.6240
G01 X-12.2556 Y30.0411
G01 X-11.2660 Y30.4261
G01 X-10.2643 Y30.7784
G01 X-9.2517 Y31.0978
G01 X-8.2291 Y31.3839
G01 X-8.5521 Y31.6200
G00 Z1.0000 F500
G00 X-9.6734 Y36.8900 F3000
G00 Z-9.1000 F500
G01 Z-10.0000 F120
G01 X-10.0533 Y37.1075 F300
G01 X-8.9279 Y37.3942
G01 X-7.7943 Y37.6468
G01 X-6.6536 Y37.8651
G01 X-5.5068 Y38.0488
G01 X-4.3550 Y38.1977
G01 X-3.1993 Y38.3119
G01 X-2.0406 Y38.3910
G01 X-0.8800 Y38.4352
G01 X0.2813 Y38.4443
G01 X1.4424 Y38.4182
G01 X2.6022 Y38.3572
G01 X3.7596 Y38.2611
G01 X4.9136 Y38.1301
G01 X6.0631 Y37.9643
G01 X7.2070 Y37.7639
G01 X8.3444 Y37.5290
G01 X9.4742 Y37.2599
G01 X10.5953 Y36.9568
G01 X11.7068 Y36.6199
G01 X12.8076 Y36.2497
G01 X13.8967 Y35.8463
G01 X14.9731 Y35.4103
G01 X16.0359 Y34.9419
G01 X17.0840 Y34.4417
G01 X18.1165 Y33.9100
G01 X19.1325 Y33.3474
G01 X20.1311 Y32.7543
G01 X21.1113 Y32.1314
G01 X22.0722 Y31.4791
G01 X23.0130 Y30.7981
G01 X23.9328 Y30.0890
G01 X24.8307 Y29.3525
G01 X25.7060 Y28.5891
G01 X26.5579 Y27.7997
G01 X27.3855 Y26.9849
G01 X28.1881 Y26.1455
G01 X28.9650 Y25.2822
G01 X29.7155 Y24.3959
G01 X30.4389 Y23.4873
G01 X31.1344 Y22.5573
G01 X31.8016 Y21.6066
G01 X32.4398 Y20.6363
G01 X33.0484 Y19.6471
G01 X33.6268 Y18.6400
G01 X34.1745 Y17.6159
G01 X34.6911 Y16.5757
G01 X35.1760 Y15.5204
G01 X35.6288 Y14.4509
G01 X36.0491 Y13.3683
G01 X36.4365 Y12.2734
G01 X36.7907 Y11.1673
G01 X37.1113 Y10.0511
G01 X37.3980 Y8.9256
G01 X37.6506 Y7.7920
G01 X37.8689 Y6.6513
G01 X38.0526 Y5.5046
G01 X38.2015 Y4.3528
G01 X38.3157 Y3.1970
G01 X38.3949 Y2.0383
G01 X38.4390 Y0.8778
G01 X38.4481 Y-0.2836
G01 X38.4220 Y-1.4447
G01 X38.3610 Y-2.6044
G01 X38.2649 Y-3.7619
G01 X38.1339 Y-4.9158
G01 X37.9681 Y-6.0653
G01 X37.7677 Y-7.2093
G01 X37.5328 Y-8.3467
G01 X37.2637 Y-9.4765
G01 X36.9606 Y-10.5976
G01 X36.6237 Y-11.7090
G01 X36.2535 Y-12.8098
