;Project XLR_led
;Created by Estlcam version 10 build 11.006
;Machining time about 00:00:20 hours

G90
G92 X0 Y0 Z0
M03 S24000
G00 Z5.0000 F500


;No. 1: Hole 1
G00 X2.8056 Y3.7300 F3000
G00 Z0.5000 F500
G01 Z-0.6000 F120
G01 X2.8015 Y3.8074
G01 X2.8119 Y3.9116
G01 X2.8403 Y3.9917
G01 X2.8841 Y4.0645
G01 X2.9414 Y4.1271
G01 X3.0101 Y4.1770
G01 X3.0873 Y4.2123
G01 X3.1701 Y4.2316
G01 X3.2550 Y4.2339
G01 X3.3386 Y4.2194
G01 X4.1019 Y3.9592
G01 X4.8759 Y3.7328
G01 X5.6591 Y3.5406
G01 X6.4500 Y3.3830
G01 X7.2470 Y3.2602
G01 X8.0486 Y3.1725
G01 X8.8534 Y3.1202
G01 X9.6596 Y3.1031
G01 X10.4658 Y3.1215
G01 X11.2705 Y3.1753
G01 X12.0719 Y3.2643
G01 X12.8688 Y3.3885
G01 X13.6594 Y3.5475
G01 X14.4422 Y3.7410
G01 X15.2158 Y3.9687
G01 X15.9787 Y4.2302
G01 X16.0855 Y4.2314
G01 X16.1892 Y4.2060
G01 X16.2834 Y4.1556
G01 X16.3622 Y4.0834
G01 X16.4205 Y3.9939
G01 X16.4548 Y3.8927
G01 X16.4628 Y3.7862
G01 X16.4442 Y3.6810
G01 X16.4000 Y3.5838
G01 X16.3330 Y3.5005
G01 X16.2474 Y3.4366
G01 X16.1487 Y3.3958
G01 X15.3540 Y3.1272
G01 X14.5483 Y2.8938
G01 X13.7332 Y2.6961
G01 X12.9101 Y2.5344
G01 X12.0806 Y2.4091
G01 X11.2465 Y2.3205
G01 X10.4093 Y2.2686
G01 X9.5706 Y2.2537
G01 X8.7321 Y2.2756
G01 X7.8953 Y2.3345
G01 X7.0620 Y2.4301
G01 X6.2336 Y2.5623
G01 X5.4119 Y2.7308
G01 X4.5984 Y2.9354
G01 X3.7947 Y3.1755
G01 X3.0023 Y3.4508
G01 X2.9313 Y3.5027
G01 X2.8732 Y3.5687
G01 X2.8306 Y3.6457
G01 X2.8056 Y3.7300
G00 Z5.0000 F500
G00 X0.0000 Y0.0000 F3000

M05
