;Project Combined-Edge.Cuts
;Created by Estlcam version 10 build 11.006
;Machining time about 00:30:52 hours

G90
G92 X0 Y0 Z0
M03 S24000
G00 Z1.0000 F500


;No. 1: Part 4
G00 X0.5811 Y1.0184 F3000
G00 Z0.5000 F500
G01 Z-0.4500 F120
G01 X0.6736 Y0.8019 F150
G01 X0.7989 Y0.6026
G01 X0.9538 Y0.4255
G01 X1.1347 Y0.2748
G01 X1.3369 Y0.1544
G01 X1.5555 Y0.0671
G01 X1.7851 Y0.0152
G01 X2.0200 Y0.0000
G01 X9.0000
G01 X9.1974 Y0.0131
G01 X9.3915 Y0.0520
G01 X9.5786 Y0.1161
G01 X9.7558 Y0.2043
G01 X9.9198 Y0.3151
G01 X10.0677 Y0.4465
G01 X10.1971 Y0.5962
G01 X10.3057 Y0.7616
G01 X10.3915 Y0.9399
G01 X10.4532 Y1.1279
G01 X10.4896 Y1.3224
G01 X10.5000 Y1.5200
G01 Y15.5000
G01 X10.4869 Y15.6974
G01 X10.4480 Y15.8915
G01 X10.3839 Y16.0786
G01 X10.2957 Y16.2558
G01 X10.1849 Y16.4198
G01 X10.0535 Y16.5677
G01 X9.9038 Y16.6971
G01 X9.7384 Y16.8057
G01 X9.5601 Y16.8915
G01 X9.3721 Y16.9532
G01 X9.1776 Y16.9896
G01 X8.9800 Y17.0000
G01 X2.0000
G01 X1.8123 Y16.9884
G01 X1.6276 Y16.9533
G01 X1.4488 Y16.8953
G01 X1.2786 Y16.8154
G01 X1.1198 Y16.7148
G01 X0.9748 Y16.5950
G01 X0.8460 Y16.4581
G01 X0.7354 Y16.3061
G01 X0.6447 Y16.1414
G01 X0.5754 Y15.9666
G01 X0.5285 Y15.7845
G01 X0.5048 Y15.5980
G01 X0.5000 Y15.4800
G01 Y1.5000
G01 X0.5068 Y1.3821
G01 X0.5173 Y1.2897
G01 X0.5332 Y1.1980
G01 X0.5545 Y1.1075
G01 X0.5811 Y1.0184
G01 Z-0.9000 F120
G01 X0.6736 Y0.8019 F150
G01 X0.7989 Y0.6026
G01 X0.9538 Y0.4255
G01 X1.1347 Y0.2748
G01 X1.3369 Y0.1544
G01 X1.5555 Y0.0671
G01 X1.7851 Y0.0152
G01 X2.0200 Y0.0000
G01 X9.0000
G01 X9.1974 Y0.0131
G01 X9.3915 Y0.0520
G01 X9.5786 Y0.1161
G01 X9.7558 Y0.2043
G01 X9.9198 Y0.3151
G01 X10.0677 Y0.4465
G01 X10.1971 Y0.5962
G01 X10.3057 Y0.7616
G01 X10.3915 Y0.9399
G01 X10.4532 Y1.1279
G01 X10.4896 Y1.3224
G01 X10.5000 Y1.5200
G01 Y15.5000
G01 X10.4869 Y15.6974
G01 X10.4480 Y15.8915
G01 X10.3839 Y16.0786
G01 X10.2957 Y16.2558
G01 X10.1849 Y16.4198
G01 X10.0535 Y16.5677
G01 X9.9038 Y16.6971
G01 X9.7384 Y16.8057
G01 X9.5601 Y16.8915
G01 X9.3721 Y16.9532
G01 X9.1776 Y16.9896
G01 X8.9800 Y17.0000
G01 X2.0000
G01 X1.8123 Y16.9884
G01 X1.6276 Y16.9533
G01 X1.4488 Y16.8953
G01 X1.2786 Y16.8154
G01 X1.1198 Y16.7148
G01 X0.9748 Y16.5950
G01 X0.8460 Y16.4581
G01 X0.7354 Y16.3061
G01 X0.6447 Y16.1414
G01 X0.5754 Y15.9666
G01 X0.5285 Y15.7845
G01 X0.5048 Y15.5980
G01 X0.5000 Y15.4800
G01 Y1.5000
G01 X0.5068 Y1.3821
G01 X0.5173 Y1.2897
G01 X0.5332 Y1.1980
G01 X0.5545 Y1.1075
G01 X0.5811 Y1.0184
G01 Z-1.3500 F120
G01 X0.6736 Y0.8019 F150
G01 X0.7989 Y0.6026
G01 X0.9538 Y0.4255
G01 X1.1347 Y0.2748
G01 X1.3369 Y0.1544
G01 X1.5555 Y0.0671
G01 X1.7851 Y0.0152
G01 X2.0200 Y0.0000
G01 X9.0000
G01 X9.1974 Y0.0131
G01 X9.3915 Y0.0520
G01 X9.5786 Y0.1161
G01 X9.7558 Y0.2043
G01 X9.9198 Y0.3151
G01 X10.0677 Y0.4465
G01 X10.1971 Y0.5962
G01 X10.3057 Y0.7616
G01 X10.3915 Y0.9399
G01 X10.4532 Y1.1279
G01 X10.4896 Y1.3224
G01 X10.5000 Y1.5200
G01 Y15.5000
G01 X10.4869 Y15.6974
G01 X10.4480 Y15.8915
G01 X10.3839 Y16.0786
G01 X10.2957 Y16.2558
G01 X10.1849 Y16.4198
G01 X10.0535 Y16.5677
G01 X9.9038 Y16.6971
G01 X9.7384 Y16.8057
G01 X9.5601 Y16.8915
G01 X9.3721 Y16.9532
G01 X9.1776 Y16.9896
G01 X8.9800 Y17.0000
G01 X2.0000
G01 X1.8123 Y16.9884
G01 X1.6276 Y16.9533
G01 X1.4488 Y16.8953
G01 X1.2786 Y16.8154
G01 X1.1198 Y16.7148
G01 X0.9748 Y16.5950
G01 X0.8460 Y16.4581
G01 X0.7354 Y16.3061
G01 X0.6447 Y16.1414
G01 X0.5754 Y15.9666
G01 X0.5285 Y15.7845
G01 X0.5048 Y15.5980
G01 X0.5000 Y15.4800
G01 Y1.5000
G01 X0.5068 Y1.3821
G01 X0.5173 Y1.2897
G01 X0.5332 Y1.1980
G01 X0.5545 Y1.1075
G01 X0.5811 Y1.0184
G01 Z-1.7000 F120
G01 X0.6736 Y0.8019 F150
G01 X0.7989 Y0.6026
G01 X0.9538 Y0.4255
G01 X1.1347 Y0.2748
G01 X1.3369 Y0.1544
G01 X1.5555 Y0.0671
G01 X1.7851 Y0.0152
G01 X2.0200 Y0.0000
G01 X9.0000
G01 X9.1974 Y0.0131
G01 X9.3915 Y0.0520
G01 X9.5786 Y0.1161
G01 X9.7558 Y0.2043
G01 X9.9198 Y0.3151
G01 X10.0677 Y0.4465
G01 X10.1971 Y0.5962
G01 X10.3057 Y0.7616
G01 X10.3915 Y0.9399
G01 X10.4532 Y1.1279
G01 X10.4896 Y1.3224
G01 X10.5000 Y1.5200
G01 Y15.5000
G01 X10.4869 Y15.6974
G01 X10.4480 Y15.8915
G01 X10.3839 Y16.0786
G01 X10.2957 Y16.2558
G01 X10.1849 Y16.4198
G01 X10.0535 Y16.5677
G01 X9.9038 Y16.6971
G01 X9.7384 Y16.8057
G01 X9.5601 Y16.8915
G01 X9.3721 Y16.9532
G01 X9.1776 Y16.9896
G01 X8.9800 Y17.0000
G01 X2.0000
G01 X1.8123 Y16.9884
G01 X1.6276 Y16.9533
G01 X1.4488 Y16.8953
G01 X1.2786 Y16.8154
G01 X1.1198 Y16.7148
G01 X0.9748 Y16.5950
G01 X0.8460 Y16.4581
G01 X0.7354 Y16.3061
G01 X0.6447 Y16.1414
G01 X0.5754 Y15.9666
G01 X0.5285 Y15.7845
G01 X0.5048 Y15.5980
G01 X0.5000 Y15.4800
G01 Y1.5000
G01 X0.5068 Y1.3821
G01 X0.5173 Y1.2897
G01 X0.5332 Y1.1980
G01 X0.5545 Y1.1075
G01 X0.5811 Y1.0184
G00 Z1.0000 F500


;No. 2: Part 5
G00 X0.7023 Y19.7508 Z1.0000 F3000
G00 Z0.5000 F500
G01 Z-0.4500 F120
G01 X0.8131 Y19.5861 F150
G01 X0.9445 Y19.4373
G01 X1.0943 Y19.3071
G01 X1.2599 Y19.1977
G01 X1.4385 Y19.1110
G01 X1.6269 Y19.0485
G01 X1.8218 Y19.0113
G01 X2.0200 Y19.0000
G01 X9.0000
G01 X9.1974 Y19.0131
G01 X9.3915 Y19.0520
G01 X9.5786 Y19.1161
G01 X9.7558 Y19.2043
G01 X9.9198 Y19.3151
G01 X10.0677 Y19.4465
G01 X10.1971 Y19.5962
G01 X10.3057 Y19.7616
G01 X10.3915 Y19.9399
G01 X10.4532 Y20.1279
G01 X10.4896 Y20.3224
G01 X10.5000 Y20.5200
G01 Y52.5000
G01 X10.4869 Y52.6974
G01 X10.4480 Y52.8915
G01 X10.3839 Y53.0786
G01 X10.2957 Y53.2558
G01 X10.1849 Y53.4198
G01 X10.0535 Y53.5677
G01 X9.9038 Y53.6971
G01 X9.7384 Y53.8057
G01 X9.5601 Y53.8915
G01 X9.3721 Y53.9532
G01 X9.1776 Y53.9896
G01 X8.9800 Y54.0000
G01 X2.0000
G01 X1.8123 Y53.9884
G01 X1.6276 Y53.9533
G01 X1.4488 Y53.8953
G01 X1.2786 Y53.8154
G01 X1.1198 Y53.7148
G01 X0.9748 Y53.5950
G01 X0.8460 Y53.4581
G01 X0.7354 Y53.3061
G01 X0.6447 Y53.1414
G01 X0.5754 Y52.9666
G01 X0.5285 Y52.7845
G01 X0.5048 Y52.5980
G01 X0.5000 Y52.4800
G01 Y20.5000
G01 X0.5068 Y20.3821
G01 X0.5288 Y20.2170
G01 X0.5691 Y20.0555
G01 X0.6272 Y19.8994
G01 X0.7023 Y19.7508
G01 Z-0.9000 F120
G01 X0.8131 Y19.5861 F150
G01 X0.9445 Y19.4373
G01 X1.0943 Y19.3071
G01 X1.2599 Y19.1977
G01 X1.4385 Y19.1110
G01 X1.6269 Y19.0485
G01 X1.8218 Y19.0113
G01 X2.0200 Y19.0000
G01 X9.0000
G01 X9.1974 Y19.0131
G01 X9.3915 Y19.0520
G01 X9.5786 Y19.1161
G01 X9.7558 Y19.2043
G01 X9.9198 Y19.3151
G01 X10.0677 Y19.4465
G01 X10.1971 Y19.5962
G01 X10.3057 Y19.7616
G01 X10.3915 Y19.9399
G01 X10.4532 Y20.1279
G01 X10.4896 Y20.3224
G01 X10.5000 Y20.5200
G01 Y52.5000
G01 X10.4869 Y52.6974
G01 X10.4480 Y52.8915
G01 X10.3839 Y53.0786
G01 X10.2957 Y53.2558
G01 X10.1849 Y53.4198
G01 X10.0535 Y53.5677
G01 X9.9038 Y53.6971
G01 X9.7384 Y53.8057
G01 X9.5601 Y53.8915
G01 X9.3721 Y53.9532
G01 X9.1776 Y53.9896
G01 X8.9800 Y54.0000
G01 X2.0000
G01 X1.8123 Y53.9884
G01 X1.6276 Y53.9533
G01 X1.4488 Y53.8953
G01 X1.2786 Y53.8154
G01 X1.1198 Y53.7148
G01 X0.9748 Y53.5950
G01 X0.8460 Y53.4581
G01 X0.7354 Y53.3061
G01 X0.6447 Y53.1414
G01 X0.5754 Y52.9666
G01 X0.5285 Y52.7845
G01 X0.5048 Y52.5980
G01 X0.5000 Y52.4800
G01 Y20.5000
G01 X0.5068 Y20.3821
G01 X0.5288 Y20.2170
G01 X0.5691 Y20.0555
G01 X0.6272 Y19.8994
G01 X0.7023 Y19.7508
G01 Z-1.3500 F120
G01 X0.8131 Y19.5861 F150
G01 X0.9445 Y19.4373
G01 X1.0943 Y19.3071
G01 X1.2599 Y19.1977
G01 X1.4385 Y19.1110
G01 X1.6269 Y19.0485
G01 X1.8218 Y19.0113
G01 X2.0200 Y19.0000
G01 X9.0000
G01 X9.1974 Y19.0131
G01 X9.3915 Y19.0520
G01 X9.5786 Y19.1161
G01 X9.7558 Y19.2043
G01 X9.9198 Y19.3151
G01 X10.0677 Y19.4465
G01 X10.1971 Y19.5962
G01 X10.3057 Y19.7616
G01 X10.3915 Y19.9399
G01 X10.4532 Y20.1279
G01 X10.4896 Y20.3224
G01 X10.5000 Y20.5200
G01 Y52.5000
G01 X10.4869 Y52.6974
G01 X10.4480 Y52.8915
G01 X10.3839 Y53.0786
G01 X10.2957 Y53.2558
G01 X10.1849 Y53.4198
G01 X10.0535 Y53.5677
G01 X9.9038 Y53.6971
G01 X9.7384 Y53.8057
G01 X9.5601 Y53.8915
G01 X9.3721 Y53.9532
G01 X9.1776 Y53.9896
G01 X8.9800 Y54.0000
G01 X2.0000
G01 X1.8123 Y53.9884
G01 X1.6276 Y53.9533
G01 X1.4488 Y53.8953
G01 X1.2786 Y53.8154
G01 X1.1198 Y53.7148
G01 X0.9748 Y53.5950
G01 X0.8460 Y53.4581
G01 X0.7354 Y53.3061
G01 X0.6447 Y53.1414
G01 X0.5754 Y52.9666
G01 X0.5285 Y52.7845
G01 X0.5048 Y52.5980
G01 X0.5000 Y52.4800
G01 Y20.5000
G01 X0.5068 Y20.3821
G01 X0.5288 Y20.2170
G01 X0.5691 Y20.0555
G01 X0.6272 Y19.8994
G01 X0.7023 Y19.7508
G01 Z-1.7000 F120
G01 X0.8131 Y19.5861 F150
G01 X0.9445 Y19.4373
G01 X1.0943 Y19.3071
G01 X1.2599 Y19.1977
G01 X1.4385 Y19.1110
G01 X1.6269 Y19.0485
G01 X1.8218 Y19.0113
G01 X2.0200 Y19.0000
G01 X9.0000
G01 X9.1974 Y19.0131
G01 X9.3915 Y19.0520
G01 X9.5786 Y19.1161
G01 X9.7558 Y19.2043
G01 X9.9198 Y19.3151
G01 X10.0677 Y19.4465
G01 X10.1971 Y19.5962
G01 X10.3057 Y19.7616
G01 X10.3915 Y19.9399
G01 X10.4532 Y20.1279
G01 X10.4896 Y20.3224
G01 X10.5000 Y20.5200
G01 Y52.5000
G01 X10.4869 Y52.6974
G01 X10.4480 Y52.8915
G01 X10.3839 Y53.0786
G01 X10.2957 Y53.2558
G01 X10.1849 Y53.4198
G01 X10.0535 Y53.5677
G01 X9.9038 Y53.6971
G01 X9.7384 Y53.8057
G01 X9.5601 Y53.8915
G01 X9.3721 Y53.9532
G01 X9.1776 Y53.9896
G01 X8.9800 Y54.0000
G01 X2.0000
G01 X1.8123 Y53.9884
G01 X1.6276 Y53.9533
G01 X1.4488 Y53.8953
G01 X1.2786 Y53.8154
G01 X1.1198 Y53.7148
G01 X0.9748 Y53.5950
G01 X0.8460 Y53.4581
G01 X0.7354 Y53.3061
G01 X0.6447 Y53.1414
G01 X0.5754 Y52.9666
G01 X0.5285 Y52.7845
G01 X0.5048 Y52.5980
G01 X0.5000 Y52.4800
G01 Y20.5000
G01 X0.5068 Y20.3821
G01 X0.5288 Y20.2170
G01 X0.5691 Y20.0555
G01 X0.6272 Y19.8994
G01 X0.7023 Y19.7508
G00 Z1.0000 F500


;No. 3: Part 3
G00 X-25.6289 Y8.5577 Z1.0000 F3000
G00 Z0.5000 F500
G01 Z-0.4500 F120
G01 X-25.4894 Y8.3280 F150
G01 X-25.3298 Y8.1117
G01 X-25.1515 Y7.9106
G01 X-24.9559 Y7.7262
G01 X-24.7446 Y7.5601
G01 X-24.5192 Y7.4136
G01 X-24.2817 Y7.2879
G01 X-24.0338 Y7.1840
G01 X-23.7776 Y7.1026
G01 X-23.5152 Y7.0446
G01 X-23.2486 Y7.0103
G01 X-22.9800 Y7.0000
G01 X-17.7500
G01 Y4.7500
G01 X-17.7327 Y4.3573
G01 X-17.6812 Y3.9677
G01 X-17.5959 Y3.5840
G01 X-17.4774 Y3.2093
G01 X-17.3267 Y2.8463
G01 X-17.1449 Y2.4978
G01 X-16.9334 Y2.1665
G01 X-16.6937 Y1.8550
G01 X-16.4278 Y1.5656
G01 X-16.1377 Y1.3004
G01 X-15.8255 Y1.0616
G01 X-15.4937 Y0.8509
G01 X-15.1448 Y0.6700
G01 X-14.7814 Y0.5203
G01 X-14.4064 Y0.4028
G01 X-14.0225 Y0.3185
G01 X-13.6327 Y0.2680
G01 X-13.2400 Y0.2517
G01 X-12.8474 Y0.2697
G01 X-12.4578 Y0.3219
G01 X-12.0743 Y0.4080
G01 X-11.6998 Y0.5271
G01 X-11.3370 Y0.6785
G01 X-10.9889 Y0.8609
G01 X-10.6580 Y1.0731
G01 X-10.3469 Y1.3133
G01 X-10.0580 Y1.5797
G01 X-9.7934 Y1.8703
G01 X-9.5551 Y2.1829
G01 X-9.3451 Y2.5151
G01 X-9.1648 Y2.8644
G01 X-9.0157 Y3.2281
G01 X-8.8989 Y3.6034
G01 X-8.8153 Y3.9874
G01 X-8.7656 Y4.3773
G01 X-8.7500 Y4.7700
G01 Y7.0000
G01 X-3.5000
G01 X-3.2047 Y7.0147
G01 X-2.9123 Y7.0583
G01 X-2.6257 Y7.1305
G01 X-2.3475 Y7.2305
G01 X-2.0805 Y7.3575
G01 X-1.8273 Y7.5101
G01 X-1.5903 Y7.6868
G01 X-1.3719 Y7.8861
G01 X-1.1741 Y8.1058
G01 X-0.9989 Y8.3439
G01 X-0.8480 Y8.5981
G01 X-0.7229 Y8.8660
G01 X-0.6247 Y9.1448
G01 X-0.5544 Y9.4320
G01 X-0.5127 Y9.7246
G01 X-0.5000 Y10.0200
G01 Y21.5000
G01 X-0.5147 Y21.7953
G01 X-0.5583 Y22.0877
G01 X-0.6305 Y22.3743
G01 X-0.7305 Y22.6525
G01 X-0.8575 Y22.9195
G01 X-1.0101 Y23.1727
G01 X-1.1868 Y23.4097
G01 X-1.3861 Y23.6281
G01 X-1.6058 Y23.8259
G01 X-1.8439 Y24.0011
G01 X-2.0981 Y24.1520
G01 X-2.3660 Y24.2771
G01 X-2.6448 Y24.3753
G01 X-2.9320 Y24.4456
G01 X-3.2246 Y24.4873
G01 X-3.5200 Y24.5000
G01 X-8.7500
G01 Y26.7500
G01 X-8.7671 Y27.1407
G01 X-8.8181 Y27.5285
G01 X-8.9025 Y27.9104
G01 X-9.0198 Y28.2835
G01 X-9.1691 Y28.6450
G01 X-9.3491 Y28.9922
G01 X-9.5587 Y29.3224
G01 X-9.7961 Y29.6332
G01 X-10.0596 Y29.9222
G01 X-10.3473 Y30.1872
G01 X-10.6568 Y30.4263
G01 X-10.9860 Y30.6375
G01 X-11.3322 Y30.8194
G01 X-11.6929 Y30.9705
G01 X-12.0654 Y31.0897
G01 X-12.4469 Y31.1762
G01 X-12.8344 Y31.2292
G01 X-13.2250 Y31.2483
G01 X-13.6158 Y31.2334
G01 X-14.0039 Y31.1847
G01 X-14.3862 Y31.1024
G01 X-14.7600 Y30.9872
G01 X-15.1224 Y30.8401
G01 X-15.4706 Y30.6620
G01 X-15.8020 Y30.4543
G01 X-16.1141 Y30.2187
G01 X-16.4046 Y29.9568
G01 X-16.6713 Y29.6707
G01 X-16.9121 Y29.3625
G01 X-17.1252 Y29.0346
G01 X-17.3091 Y28.6894
G01 X-17.4623 Y28.3295
G01 X-17.5836 Y27.9577
G01 X-17.6722 Y27.5768
G01 X-17.7274 Y27.1896
G01 X-17.7488 Y26.7991
G01 X-17.7500 Y26.7300
G01 Y24.5000
G01 X-23.0000
G01 X-23.2899 Y24.4860
G01 X-23.5772 Y24.4439
G01 X-23.8590 Y24.3744
G01 X-24.1327 Y24.2779
G01 X-24.3959 Y24.1553
G01 X-24.6459 Y24.0079
G01 X-24.8806 Y23.8370
G01 X-25.0976 Y23.6443
G01 X-25.2949 Y23.4314
G01 X-25.4708 Y23.2005
G01 X-25.6235 Y22.9536
G01 X-25.7516 Y22.6931
G01 X-25.8539 Y22.4215
G01 X-25.9295 Y22.1412
G01 X-25.9776 Y21.8550
G01 X-25.9979 Y21.5654
G01 X-26.0000 Y21.4800
G01 Y10.0000
G01 X-25.9936 Y9.8120
G01 X-25.9755 Y9.6249
G01 X-25.9459 Y9.4391
G01 X-25.9047 Y9.2556
G01 X-25.8522 Y9.0751
G01 X-25.7885 Y8.8981
G01 X-25.7140 Y8.7254
G01 X-25.6289 Y8.5577
G01 Z-0.9000 F120
G01 X-25.4894 Y8.3280 F150
G01 X-25.3298 Y8.1117
G01 X-25.1515 Y7.9106
G01 X-24.9559 Y7.7262
G01 X-24.7446 Y7.5601
G01 X-24.5192 Y7.4136
G01 X-24.2817 Y7.2879
G01 X-24.0338 Y7.1840
G01 X-23.7776 Y7.1026
G01 X-23.5152 Y7.0446
G01 X-23.2486 Y7.0103
G01 X-22.9800 Y7.0000
G01 X-17.7500
G01 Y4.7500
G01 X-17.7327 Y4.3573
G01 X-17.6812 Y3.9677
G01 X-17.5959 Y3.5840
G01 X-17.4774 Y3.2093
G01 X-17.3267 Y2.8463
G01 X-17.1449 Y2.4978
G01 X-16.9334 Y2.1665
G01 X-16.6937 Y1.8550
G01 X-16.4278 Y1.5656
G01 X-16.1377 Y1.3004
G01 X-15.8255 Y1.0616
G01 X-15.4937 Y0.8509
G01 X-15.1448 Y0.6700
G01 X-14.7814 Y0.5203
G01 X-14.4064 Y0.4028
G01 X-14.0225 Y0.3185
G01 X-13.6327 Y0.2680
G01 X-13.2400 Y0.2517
G01 X-12.8474 Y0.2697
G01 X-12.4578 Y0.3219
G01 X-12.0743 Y0.4080
G01 X-11.6998 Y0.5271
G01 X-11.3370 Y0.6785
G01 X-10.9889 Y0.8609
G01 X-10.6580 Y1.0731
G01 X-10.3469 Y1.3133
G01 X-10.0580 Y1.5797
G01 X-9.7934 Y1.8703
G01 X-9.5551 Y2.1829
G01 X-9.3451 Y2.5151
G01 X-9.1648 Y2.8644
G01 X-9.0157 Y3.2281
G01 X-8.8989 Y3.6034
G01 X-8.8153 Y3.9874
G01 X-8.7656 Y4.3773
G01 X-8.7500 Y4.7700
G01 Y7.0000
G01 X-3.5000
G01 X-3.2047 Y7.0147
G01 X-2.9123 Y7.0583
G01 X-2.6257 Y7.1305
G01 X-2.3475 Y7.2305
G01 X-2.0805 Y7.3575
G01 X-1.8273 Y7.5101
G01 X-1.5903 Y7.6868
G01 X-1.3719 Y7.8861
G01 X-1.1741 Y8.1058
G01 X-0.9989 Y8.3439
G01 X-0.8480 Y8.5981
G01 X-0.7229 Y8.8660
G01 X-0.6247 Y9.1448
G01 X-0.5544 Y9.4320
G01 X-0.5127 Y9.7246
G01 X-0.5000 Y10.0200
G01 Y21.5000
G01 X-0.5147 Y21.7953
G01 X-0.5583 Y22.0877
G01 X-0.6305 Y22.3743
G01 X-0.7305 Y22.6525
G01 X-0.8575 Y22.9195
G01 X-1.0101 Y23.1727
G01 X-1.1868 Y23.4097
G01 X-1.3861 Y23.6281
G01 X-1.6058 Y23.8259
G01 X-1.8439 Y24.0011
G01 X-2.0981 Y24.1520
G01 X-2.3660 Y24.2771
G01 X-2.6448 Y24.3753
G01 X-2.9320 Y24.4456
G01 X-3.2246 Y24.4873
G01 X-3.5200 Y24.5000
G01 X-8.7500
G01 Y26.7500
G01 X-8.7671 Y27.1407
G01 X-8.8181 Y27.5285
G01 X-8.9025 Y27.9104
G01 X-9.0198 Y28.2835
G01 X-9.1691 Y28.6450
G01 X-9.3491 Y28.9922
G01 X-9.5587 Y29.3224
G01 X-9.7961 Y29.6332
G01 X-10.0596 Y29.9222
G01 X-10.3473 Y30.1872
G01 X-10.6568 Y30.4263
G01 X-10.9860 Y30.6375
G01 X-11.3322 Y30.8194
G01 X-11.6929 Y30.9705
G01 X-12.0654 Y31.0897
G01 X-12.4469 Y31.1762
G01 X-12.8344 Y31.2292
G01 X-13.2250 Y31.2483
G01 X-13.6158 Y31.2334
G01 X-14.0039 Y31.1847
G01 X-14.3862 Y31.1024
G01 X-14.7600 Y30.9872
G01 X-15.1224 Y30.8401
G01 X-15.4706 Y30.6620
G01 X-15.8020 Y30.4543
G01 X-16.1141 Y30.2187
G01 X-16.4046 Y29.9568
G01 X-16.6713 Y29.6707
G01 X-16.9121 Y29.3625
G01 X-17.1252 Y29.0346
G01 X-17.3091 Y28.6894
G01 X-17.4623 Y28.3295
G01 X-17.5836 Y27.9577
G01 X-17.6722 Y27.5768
G01 X-17.7274 Y27.1896
G01 X-17.7488 Y26.7991
G01 X-17.7500 Y26.7300
G01 Y24.5000
G01 X-23.0000
G01 X-23.2899 Y24.4860
G01 X-23.5772 Y24.4439
G01 X-23.8590 Y24.3744
G01 X-24.1327 Y24.2779
G01 X-24.3959 Y24.1553
G01 X-24.6459 Y24.0079
G01 X-24.8806 Y23.8370
G01 X-25.0976 Y23.6443
G01 X-25.2949 Y23.4314
G01 X-25.4708 Y23.2005
G01 X-25.6235 Y22.9536
G01 X-25.7516 Y22.6931
G01 X-25.8539 Y22.4215
G01 X-25.9295 Y22.1412
G01 X-25.9776 Y21.8550
G01 X-25.9979 Y21.5654
G01 X-26.0000 Y21.4800
G01 Y10.0000
G01 X-25.9936 Y9.8120
G01 X-25.9755 Y9.6249
G01 X-25.9459 Y9.4391
G01 X-25.9047 Y9.2556
G01 X-25.8522 Y9.0751
G01 X-25.7885 Y8.8981
G01 X-25.7140 Y8.7254
G01 X-25.6289 Y8.5577
G01 Z-1.3500 F120
G01 X-25.4894 Y8.3280 F150
G01 X-25.3298 Y8.1117
G01 X-25.1515 Y7.9106
G01 X-24.9559 Y7.7262
G01 X-24.7446 Y7.5601
G01 X-24.5192 Y7.4136
G01 X-24.2817 Y7.2879
G01 X-24.0338 Y7.1840
G01 X-23.7776 Y7.1026
G01 X-23.5152 Y7.0446
G01 X-23.2486 Y7.0103
G01 X-22.9800 Y7.0000
G01 X-17.7500
G01 Y4.7500
G01 X-17.7327 Y4.3573
G01 X-17.6812 Y3.9677
G01 X-17.5959 Y3.5840
G01 X-17.4774 Y3.2093
G01 X-17.3267 Y2.8463
G01 X-17.1449 Y2.4978
G01 X-16.9334 Y2.1665
G01 X-16.6937 Y1.8550
G01 X-16.4278 Y1.5656
G01 X-16.1377 Y1.3004
G01 X-15.8255 Y1.0616
G01 X-15.4937 Y0.8509
G01 X-15.1448 Y0.6700
G01 X-14.7814 Y0.5203
G01 X-14.4064 Y0.4028
G01 X-14.0225 Y0.3185
G01 X-13.6327 Y0.2680
G01 X-13.2400 Y0.2517
G01 X-12.8474 Y0.2697
G01 X-12.4578 Y0.3219
G01 X-12.0743 Y0.4080
G01 X-11.6998 Y0.5271
G01 X-11.3370 Y0.6785
G01 X-10.9889 Y0.8609
G01 X-10.6580 Y1.0731
G01 X-10.3469 Y1.3133
G01 X-10.0580 Y1.5797
G01 X-9.7934 Y1.8703
G01 X-9.5551 Y2.1829
G01 X-9.3451 Y2.5151
G01 X-9.1648 Y2.8644
G01 X-9.0157 Y3.2281
G01 X-8.8989 Y3.6034
G01 X-8.8153 Y3.9874
G01 X-8.7656 Y4.3773
G01 X-8.7500 Y4.7700
G01 Y7.0000
G01 X-3.5000
G01 X-3.2047 Y7.0147
G01 X-2.9123 Y7.0583
G01 X-2.6257 Y7.1305
G01 X-2.3475 Y7.2305
G01 X-2.0805 Y7.3575
G01 X-1.8273 Y7.5101
G01 X-1.5903 Y7.6868
G01 X-1.3719 Y7.8861
G01 X-1.1741 Y8.1058
G01 X-0.9989 Y8.3439
G01 X-0.8480 Y8.5981
G01 X-0.7229 Y8.8660
G01 X-0.6247 Y9.1448
G01 X-0.5544 Y9.4320
G01 X-0.5127 Y9.7246
G01 X-0.5000 Y10.0200
G01 Y21.5000
G01 X-0.5147 Y21.7953
G01 X-0.5583 Y22.0877
G01 X-0.6305 Y22.3743
G01 X-0.7305 Y22.6525
G01 X-0.8575 Y22.9195
G01 X-1.0101 Y23.1727
G01 X-1.1868 Y23.4097
G01 X-1.3861 Y23.6281
G01 X-1.6058 Y23.8259
G01 X-1.8439 Y24.0011
G01 X-2.0981 Y24.1520
G01 X-2.3660 Y24.2771
G01 X-2.6448 Y24.3753
G01 X-2.9320 Y24.4456
G01 X-3.2246 Y24.4873
G01 X-3.5200 Y24.5000
G01 X-8.7500
G01 Y26.7500
G01 X-8.7671 Y27.1407
G01 X-8.8181 Y27.5285
G01 X-8.9025 Y27.9104
G01 X-9.0198 Y28.2835
G01 X-9.1691 Y28.6450
G01 X-9.3491 Y28.9922
G01 X-9.5587 Y29.3224
G01 X-9.7961 Y29.6332
G01 X-10.0596 Y29.9222
G01 X-10.3473 Y30.1872
G01 X-10.6568 Y30.4263
G01 X-10.9860 Y30.6375
G01 X-11.3322 Y30.8194
G01 X-11.6929 Y30.9705
G01 X-12.0654 Y31.0897
G01 X-12.4469 Y31.1762
G01 X-12.8344 Y31.2292
G01 X-13.2250 Y31.2483
G01 X-13.6158 Y31.2334
G01 X-14.0039 Y31.1847
G01 X-14.3862 Y31.1024
G01 X-14.7600 Y30.9872
G01 X-15.1224 Y30.8401
G01 X-15.4706 Y30.6620
G01 X-15.8020 Y30.4543
G01 X-16.1141 Y30.2187
G01 X-16.4046 Y29.9568
G01 X-16.6713 Y29.6707
G01 X-16.9121 Y29.3625
G01 X-17.1252 Y29.0346
G01 X-17.3091 Y28.6894
G01 X-17.4623 Y28.3295
G01 X-17.5836 Y27.9577
G01 X-17.6722 Y27.5768
G01 X-17.7274 Y27.1896
G01 X-17.7488 Y26.7991
G01 X-17.7500 Y26.7300
G01 Y24.5000
G01 X-23.0000
G01 X-23.2899 Y24.4860
G01 X-23.5772 Y24.4439
G01 X-23.8590 Y24.3744
G01 X-24.1327 Y24.2779
G01 X-24.3959 Y24.1553
G01 X-24.6459 Y24.0079
G01 X-24.8806 Y23.8370
G01 X-25.0976 Y23.6443
G01 X-25.2949 Y23.4314
G01 X-25.4708 Y23.2005
G01 X-25.6235 Y22.9536
G01 X-25.7516 Y22.6931
G01 X-25.8539 Y22.4215
G01 X-25.9295 Y22.1412
G01 X-25.9776 Y21.8550
G01 X-25.9979 Y21.5654
G01 X-26.0000 Y21.4800
G01 Y10.0000
G01 X-25.9936 Y9.8120
G01 X-25.9755 Y9.6249
G01 X-25.9459 Y9.4391
G01 X-25.9047 Y9.2556
G01 X-25.8522 Y9.0751
G01 X-25.7885 Y8.8981
G01 X-25.7140 Y8.7254
G01 X-25.6289 Y8.5577
G01 Z-1.7000 F120
G01 X-25.4894 Y8.3280 F150
G01 X-25.3298 Y8.1117
G01 X-25.1515 Y7.9106
G01 X-24.9559 Y7.7262
G01 X-24.7446 Y7.5601
G01 X-24.5192 Y7.4136
G01 X-24.2817 Y7.2879
G01 X-24.0338 Y7.1840
G01 X-23.7776 Y7.1026
G01 X-23.5152 Y7.0446
G01 X-23.2486 Y7.0103
G01 X-22.9800 Y7.0000
G01 X-17.7500
G01 Y4.7500
G01 X-17.7327 Y4.3573
G01 X-17.6812 Y3.9677
G01 X-17.5959 Y3.5840
G01 X-17.4774 Y3.2093
G01 X-17.3267 Y2.8463
G01 X-17.1449 Y2.4978
G01 X-16.9334 Y2.1665
G01 X-16.6937 Y1.8550
G01 X-16.4278 Y1.5656
G01 X-16.1377 Y1.3004
G01 X-15.8255 Y1.0616
G01 X-15.4937 Y0.8509
G01 X-15.1448 Y0.6700
G01 X-14.7814 Y0.5203
G01 X-14.4064 Y0.4028
G01 X-14.0225 Y0.3185
G01 X-13.6327 Y0.2680
G01 X-13.2400 Y0.2517
G01 X-12.8474 Y0.2697
G01 X-12.4578 Y0.3219
G01 X-12.0743 Y0.4080
G01 X-11.6998 Y0.5271
G01 X-11.3370 Y0.6785
G01 X-10.9889 Y0.8609
G01 X-10.6580 Y1.0731
G01 X-10.3469 Y1.3133
G01 X-10.0580 Y1.5797
G01 X-9.7934 Y1.8703
G01 X-9.5551 Y2.1829
G01 X-9.3451 Y2.5151
G01 X-9.1648 Y2.8644
G01 X-9.0157 Y3.2281
G01 X-8.8989 Y3.6034
G01 X-8.8153 Y3.9874
G01 X-8.7656 Y4.3773
G01 X-8.7500 Y4.7700
G01 Y7.0000
G01 X-3.5000
G01 X-3.2047 Y7.0147
G01 X-2.9123 Y7.0583
G01 X-2.6257 Y7.1305
G01 X-2.3475 Y7.2305
G01 X-2.0805 Y7.3575
G01 X-1.8273 Y7.5101
G01 X-1.5903 Y7.6868
G01 X-1.3719 Y7.8861
G01 X-1.1741 Y8.1058
G01 X-0.9989 Y8.3439
G01 X-0.8480 Y8.5981
G01 X-0.7229 Y8.8660
G01 X-0.6247 Y9.1448
G01 X-0.5544 Y9.4320
G01 X-0.5127 Y9.7246
G01 X-0.5000 Y10.0200
G01 Y21.5000
G01 X-0.5147 Y21.7953
G01 X-0.5583 Y22.0877
G01 X-0.6305 Y22.3743
G01 X-0.7305 Y22.6525
G01 X-0.8575 Y22.9195
G01 X-1.0101 Y23.1727
G01 X-1.1868 Y23.4097
G01 X-1.3861 Y23.6281
G01 X-1.6058 Y23.8259
G01 X-1.8439 Y24.0011
G01 X-2.0981 Y24.1520
G01 X-2.3660 Y24.2771
G01 X-2.6448 Y24.3753
G01 X-2.9320 Y24.4456
G01 X-3.2246 Y24.4873
G01 X-3.5200 Y24.5000
G01 X-8.7500
G01 Y26.7500
G01 X-8.7671 Y27.1407
G01 X-8.8181 Y27.5285
G01 X-8.9025 Y27.9104
G01 X-9.0198 Y28.2835
G01 X-9.1691 Y28.6450
G01 X-9.3491 Y28.9922
G01 X-9.5587 Y29.3224
G01 X-9.7961 Y29.6332
G01 X-10.0596 Y29.9222
G01 X-10.3473 Y30.1872
G01 X-10.6568 Y30.4263
G01 X-10.9860 Y30.6375
G01 X-11.3322 Y30.8194
G01 X-11.6929 Y30.9705
G01 X-12.0654 Y31.0897
G01 X-12.4469 Y31.1762
G01 X-12.8344 Y31.2292
G01 X-13.2250 Y31.2483
G01 X-13.6158 Y31.2334
G01 X-14.0039 Y31.1847
G01 X-14.3862 Y31.1024
G01 X-14.7600 Y30.9872
G01 X-15.1224 Y30.8401
G01 X-15.4706 Y30.6620
G01 X-15.8020 Y30.4543
G01 X-16.1141 Y30.2187
G01 X-16.4046 Y29.9568
G01 X-16.6713 Y29.6707
G01 X-16.9121 Y29.3625
G01 X-17.1252 Y29.0346
G01 X-17.3091 Y28.6894
G01 X-17.4623 Y28.3295
G01 X-17.5836 Y27.9577
G01 X-17.6722 Y27.5768
G01 X-17.7274 Y27.1896
G01 X-17.7488 Y26.7991
G01 X-17.7500 Y26.7300
G01 Y24.5000
G01 X-23.0000
G01 X-23.2899 Y24.4860
G01 X-23.5772 Y24.4439
G01 X-23.8590 Y24.3744
G01 X-24.1327 Y24.2779
G01 X-24.3959 Y24.1553
G01 X-24.6459 Y24.0079
G01 X-24.8806 Y23.8370
G01 X-25.0976 Y23.6443
G01 X-25.2949 Y23.4314
G01 X-25.4708 Y23.2005
G01 X-25.6235 Y22.9536
G01 X-25.7516 Y22.6931
G01 X-25.8539 Y22.4215
G01 X-25.9295 Y22.1412
G01 X-25.9776 Y21.8550
G01 X-25.9979 Y21.5654
G01 X-26.0000 Y21.4800
G01 Y10.0000
G01 X-25.9936 Y9.8120
G01 X-25.9755 Y9.6249
G01 X-25.9459 Y9.4391
G01 X-25.9047 Y9.2556
G01 X-25.8522 Y9.0751
G01 X-25.7885 Y8.8981
G01 X-25.7140 Y8.7254
G01 X-25.6289 Y8.5577
G00 Z1.0000 F500


;No. 4: Part 6
G00 X-25.4122 Y33.3113 Z1.0000 F3000
G00 Z0.5000 F500
G01 Z-0.4500 F120
G01 X-25.3097 Y33.2395 F150
G01 X-25.2017 Y33.1765
G01 X-25.0889 Y33.1225
G01 X-24.9720 Y33.0781
G01 X-24.8518 Y33.0434
G01 X-24.7292 Y33.0187
G01 X-24.6050 Y33.0042
G01 X-24.4800 Y33.0000
G01 X-2.5000
G01 X-2.3026 Y33.0131
G01 X-2.1085 Y33.0520
G01 X-1.9214 Y33.1161
G01 X-1.7442 Y33.2043
G01 X-1.5802 Y33.3151
G01 X-1.4323 Y33.4465
G01 X-1.3029 Y33.5962
G01 X-1.1943 Y33.7616
G01 X-1.1085 Y33.9399
G01 X-1.0468 Y34.1279
G01 X-1.0104 Y34.3224
G01 X-1.0000 Y34.5200
G01 Y52.5000
G01 X-1.0131 Y52.6974
G01 X-1.0520 Y52.8915
G01 X-1.1161 Y53.0786
G01 X-1.2043 Y53.2558
G01 X-1.3151 Y53.4198
G01 X-1.4465 Y53.5677
G01 X-1.5962 Y53.6971
G01 X-1.7616 Y53.8057
G01 X-1.9399 Y53.8915
G01 X-2.1279 Y53.9532
G01 X-2.3224 Y53.9896
G01 X-2.5200 Y54.0000
G01 X-24.5000
G01 X-24.6877 Y53.9884
G01 X-24.8724 Y53.9533
G01 X-25.0512 Y53.8953
G01 X-25.2214 Y53.8154
G01 X-25.3802 Y53.7148
G01 X-25.5252 Y53.5950
G01 X-25.6540 Y53.4581
G01 X-25.7646 Y53.3061
G01 X-25.8553 Y53.1414
G01 X-25.9246 Y52.9666
G01 X-25.9715 Y52.7845
G01 X-25.9952 Y52.5980
G01 X-26.0000 Y52.4800
G01 Y34.5000
G01 X-25.9932 Y34.3821
G01 X-25.9736 Y34.2264
G01 X-25.9376 Y34.0737
G01 X-25.8855 Y33.9257
G01 X-25.8181 Y33.7840
G01 X-25.7361 Y33.6503
G01 X-25.6404 Y33.5260
G01 X-25.5320 Y33.4126
G01 X-25.4122 Y33.3113
G01 Z-0.9000 F120
G01 X-25.3097 Y33.2395 F150
G01 X-25.2017 Y33.1765
G01 X-25.0889 Y33.1225
G01 X-24.9720 Y33.0781
G01 X-24.8518 Y33.0434
G01 X-24.7292 Y33.0187
G01 X-24.6050 Y33.0042
G01 X-24.4800 Y33.0000
G01 X-2.5000
G01 X-2.3026 Y33.0131
G01 X-2.1085 Y33.0520
G01 X-1.9214 Y33.1161
G01 X-1.7442 Y33.2043
G01 X-1.5802 Y33.3151
G01 X-1.4323 Y33.4465
G01 X-1.3029 Y33.5962
G01 X-1.1943 Y33.7616
G01 X-1.1085 Y33.9399
G01 X-1.0468 Y34.1279
G01 X-1.0104 Y34.3224
G01 X-1.0000 Y34.5200
G01 Y52.5000
G01 X-1.0131 Y52.6974
G01 X-1.0520 Y52.8915
G01 X-1.1161 Y53.0786
G01 X-1.2043 Y53.2558
G01 X-1.3151 Y53.4198
G01 X-1.4465 Y53.5677
G01 X-1.5962 Y53.6971
G01 X-1.7616 Y53.8057
G01 X-1.9399 Y53.8915
G01 X-2.1279 Y53.9532
G01 X-2.3224 Y53.9896
G01 X-2.5200 Y54.0000
G01 X-24.5000
G01 X-24.6877 Y53.9884
G01 X-24.8724 Y53.9533
G01 X-25.0512 Y53.8953
G01 X-25.2214 Y53.8154
G01 X-25.3802 Y53.7148
G01 X-25.5252 Y53.5950
G01 X-25.6540 Y53.4581
G01 X-25.7646 Y53.3061
G01 X-25.8553 Y53.1414
G01 X-25.9246 Y52.9666
G01 X-25.9715 Y52.7845
G01 X-25.9952 Y52.5980
G01 X-26.0000 Y52.4800
G01 Y34.5000
G01 X-25.9932 Y34.3821
G01 X-25.9736 Y34.2264
G01 X-25.9376 Y34.0737
G01 X-25.8855 Y33.9257
G01 X-25.8181 Y33.7840
G01 X-25.7361 Y33.6503
G01 X-25.6404 Y33.5260
G01 X-25.5320 Y33.4126
G01 X-25.4122 Y33.3113
G01 Z-1.3500 F120
G01 X-25.3097 Y33.2395 F150
G01 X-25.2017 Y33.1765
G01 X-25.0889 Y33.1225
G01 X-24.9720 Y33.0781
G01 X-24.8518 Y33.0434
G01 X-24.7292 Y33.0187
G01 X-24.6050 Y33.0042
G01 X-24.4800 Y33.0000
G01 X-2.5000
G01 X-2.3026 Y33.0131
G01 X-2.1085 Y33.0520
G01 X-1.9214 Y33.1161
G01 X-1.7442 Y33.2043
G01 X-1.5802 Y33.3151
G01 X-1.4323 Y33.4465
G01 X-1.3029 Y33.5962
G01 X-1.1943 Y33.7616
G01 X-1.1085 Y33.9399
G01 X-1.0468 Y34.1279
G01 X-1.0104 Y34.3224
G01 X-1.0000 Y34.5200
G01 Y52.5000
G01 X-1.0131 Y52.6974
G01 X-1.0520 Y52.8915
G01 X-1.1161 Y53.0786
G01 X-1.2043 Y53.2558
G01 X-1.3151 Y53.4198
G01 X-1.4465 Y53.5677
G01 X-1.5962 Y53.6971
G01 X-1.7616 Y53.8057
G01 X-1.9399 Y53.8915
G01 X-2.1279 Y53.9532
G01 X-2.3224 Y53.9896
G01 X-2.5200 Y54.0000
G01 X-24.5000
G01 X-24.6877 Y53.9884
G01 X-24.8724 Y53.9533
G01 X-25.0512 Y53.8953
G01 X-25.2214 Y53.8154
G01 X-25.3802 Y53.7148
G01 X-25.5252 Y53.5950
G01 X-25.6540 Y53.4581
G01 X-25.7646 Y53.3061
G01 X-25.8553 Y53.1414
G01 X-25.9246 Y52.9666
G01 X-25.9715 Y52.7845
G01 X-25.9952 Y52.5980
G01 X-26.0000 Y52.4800
G01 Y34.5000
G01 X-25.9932 Y34.3821
G01 X-25.9736 Y34.2264
G01 X-25.9376 Y34.0737
G01 X-25.8855 Y33.9257
G01 X-25.8181 Y33.7840
G01 X-25.7361 Y33.6503
G01 X-25.6404 Y33.5260
G01 X-25.5320 Y33.4126
G01 X-25.4122 Y33.3113
G01 Z-1.7000 F120
G01 X-25.3097 Y33.2395 F150
G01 X-25.2017 Y33.1765
G01 X-25.0889 Y33.1225
G01 X-24.9720 Y33.0781
G01 X-24.8518 Y33.0434
G01 X-24.7292 Y33.0187
G01 X-24.6050 Y33.0042
G01 X-24.4800 Y33.0000
G01 X-2.5000
G01 X-2.3026 Y33.0131
G01 X-2.1085 Y33.0520
G01 X-1.9214 Y33.1161
G01 X-1.7442 Y33.2043
G01 X-1.5802 Y33.3151
G01 X-1.4323 Y33.4465
G01 X-1.3029 Y33.5962
G01 X-1.1943 Y33.7616
G01 X-1.1085 Y33.9399
G01 X-1.0468 Y34.1279
G01 X-1.0104 Y34.3224
G01 X-1.0000 Y34.5200
G01 Y52.5000
G01 X-1.0131 Y52.6974
G01 X-1.0520 Y52.8915
G01 X-1.1161 Y53.0786
G01 X-1.2043 Y53.2558
G01 X-1.3151 Y53.4198
G01 X-1.4465 Y53.5677
G01 X-1.5962 Y53.6971
G01 X-1.7616 Y53.8057
G01 X-1.9399 Y53.8915
G01 X-2.1279 Y53.9532
G01 X-2.3224 Y53.9896
G01 X-2.5200 Y54.0000
G01 X-24.5000
G01 X-24.6877 Y53.9884
G01 X-24.8724 Y53.9533
G01 X-25.0512 Y53.8953
G01 X-25.2214 Y53.8154
G01 X-25.3802 Y53.7148
G01 X-25.5252 Y53.5950
G01 X-25.6540 Y53.4581
G01 X-25.7646 Y53.3061
G01 X-25.8553 Y53.1414
G01 X-25.9246 Y52.9666
G01 X-25.9715 Y52.7845
G01 X-25.9952 Y52.5980
G01 X-26.0000 Y52.4800
G01 Y34.5000
G01 X-25.9932 Y34.3821
G01 X-25.9736 Y34.2264
G01 X-25.9376 Y34.0737
G01 X-25.8855 Y33.9257
G01 X-25.8181 Y33.7840
G01 X-25.7361 Y33.6503
G01 X-25.6404 Y33.5260
G01 X-25.5320 Y33.4126
G01 X-25.4122 Y33.3113
G00 Z1.0000 F500


;No. 5: Part 8
G00 X-24.9122 Y58.3113 Z1.0000 F3000
G00 Z0.5000 F500
G01 Z-0.4500 F120
G01 X-24.8097 Y58.2395 F150
G01 X-24.7017 Y58.1765
G01 X-24.5889 Y58.1225
G01 X-24.4720 Y58.0781
G01 X-24.3518 Y58.0434
G01 X-24.2292 Y58.0187
G01 X-24.1050 Y58.0042
G01 X-23.9800 Y58.0000
G01 X8.0000
G01 X8.1974 Y58.0131
G01 X8.3915 Y58.0520
G01 X8.5786 Y58.1161
G01 X8.7558 Y58.2043
G01 X8.9198 Y58.3151
G01 X9.0677 Y58.4465
G01 X9.1971 Y58.5962
G01 X9.3057 Y58.7616
G01 X9.3915 Y58.9399
G01 X9.4532 Y59.1279
G01 X9.4896 Y59.3224
G01 X9.5000 Y59.5200
G01 Y66.5000
G01 X9.4869 Y66.6974
G01 X9.4480 Y66.8915
G01 X9.3839 Y67.0786
G01 X9.2957 Y67.2558
G01 X9.1849 Y67.4198
G01 X9.0535 Y67.5677
G01 X8.9038 Y67.6971
G01 X8.7384 Y67.8057
G01 X8.5601 Y67.8915
G01 X8.3721 Y67.9532
G01 X8.1776 Y67.9896
G01 X7.9800 Y68.0000
G01 X-24.0000
G01 X-24.1877 Y67.9884
G01 X-24.3724 Y67.9533
G01 X-24.5512 Y67.8953
G01 X-24.7214 Y67.8154
G01 X-24.8802 Y67.7148
G01 X-25.0252 Y67.5950
G01 X-25.1540 Y67.4581
G01 X-25.2646 Y67.3061
G01 X-25.3553 Y67.1414
G01 X-25.4246 Y66.9666
G01 X-25.4715 Y66.7845
G01 X-25.4952 Y66.5980
G01 X-25.5000 Y66.4800
G01 Y59.5000
G01 X-25.4932 Y59.3821
G01 X-25.4736 Y59.2264
G01 X-25.4376 Y59.0737
G01 X-25.3855 Y58.9257
G01 X-25.3181 Y58.7840
G01 X-25.2361 Y58.6503
G01 X-25.1404 Y58.5260
G01 X-25.0320 Y58.4126
G01 X-24.9122 Y58.3113
G01 Z-0.9000 F120
G01 X-24.8097 Y58.2395 F150
G01 X-24.7017 Y58.1765
G01 X-24.5889 Y58.1225
G01 X-24.4720 Y58.0781
G01 X-24.3518 Y58.0434
G01 X-24.2292 Y58.0187
G01 X-24.1050 Y58.0042
G01 X-23.9800 Y58.0000
G01 X8.0000
G01 X8.1974 Y58.0131
G01 X8.3915 Y58.0520
G01 X8.5786 Y58.1161
G01 X8.7558 Y58.2043
G01 X8.9198 Y58.3151
G01 X9.0677 Y58.4465
G01 X9.1971 Y58.5962
G01 X9.3057 Y58.7616
G01 X9.3915 Y58.9399
G01 X9.4532 Y59.1279
G01 X9.4896 Y59.3224
G01 X9.5000 Y59.5200
G01 Y66.5000
G01 X9.4869 Y66.6974
G01 X9.4480 Y66.8915
G01 X9.3839 Y67.0786
G01 X9.2957 Y67.2558
G01 X9.1849 Y67.4198
G01 X9.0535 Y67.5677
G01 X8.9038 Y67.6971
G01 X8.7384 Y67.8057
G01 X8.5601 Y67.8915
G01 X8.3721 Y67.9532
G01 X8.1776 Y67.9896
G01 X7.9800 Y68.0000
G01 X-24.0000
G01 X-24.1877 Y67.9884
G01 X-24.3724 Y67.9533
G01 X-24.5512 Y67.8953
G01 X-24.7214 Y67.8154
G01 X-24.8802 Y67.7148
G01 X-25.0252 Y67.5950
G01 X-25.1540 Y67.4581
G01 X-25.2646 Y67.3061
G01 X-25.3553 Y67.1414
G01 X-25.4246 Y66.9666
G01 X-25.4715 Y66.7845
G01 X-25.4952 Y66.5980
G01 X-25.5000 Y66.4800
G01 Y59.5000
G01 X-25.4932 Y59.3821
G01 X-25.4736 Y59.2264
G01 X-25.4376 Y59.0737
G01 X-25.3855 Y58.9257
G01 X-25.3181 Y58.7840
G01 X-25.2361 Y58.6503
G01 X-25.1404 Y58.5260
G01 X-25.0320 Y58.4126
G01 X-24.9122 Y58.3113
G01 Z-1.3500 F120
G01 X-24.8097 Y58.2395 F150
G01 X-24.7017 Y58.1765
G01 X-24.5889 Y58.1225
G01 X-24.4720 Y58.0781
G01 X-24.3518 Y58.0434
G01 X-24.2292 Y58.0187
G01 X-24.1050 Y58.0042
G01 X-23.9800 Y58.0000
G01 X8.0000
G01 X8.1974 Y58.0131
G01 X8.3915 Y58.0520
G01 X8.5786 Y58.1161
G01 X8.7558 Y58.2043
G01 X8.9198 Y58.3151
G01 X9.0677 Y58.4465
G01 X9.1971 Y58.5962
G01 X9.3057 Y58.7616
G01 X9.3915 Y58.9399
G01 X9.4532 Y59.1279
G01 X9.4896 Y59.3224
G01 X9.5000 Y59.5200
G01 Y66.5000
G01 X9.4869 Y66.6974
G01 X9.4480 Y66.8915
G01 X9.3839 Y67.0786
G01 X9.2957 Y67.2558
G01 X9.1849 Y67.4198
G01 X9.0535 Y67.5677
G01 X8.9038 Y67.6971
G01 X8.7384 Y67.8057
G01 X8.5601 Y67.8915
G01 X8.3721 Y67.9532
G01 X8.1776 Y67.9896
G01 X7.9800 Y68.0000
G01 X-24.0000
G01 X-24.1877 Y67.9884
G01 X-24.3724 Y67.9533
G01 X-24.5512 Y67.8953
G01 X-24.7214 Y67.8154
G01 X-24.8802 Y67.7148
G01 X-25.0252 Y67.5950
G01 X-25.1540 Y67.4581
G01 X-25.2646 Y67.3061
G01 X-25.3553 Y67.1414
G01 X-25.4246 Y66.9666
G01 X-25.4715 Y66.7845
G01 X-25.4952 Y66.5980
G01 X-25.5000 Y66.4800
G01 Y59.5000
G01 X-25.4932 Y59.3821
G01 X-25.4736 Y59.2264
G01 X-25.4376 Y59.0737
G01 X-25.3855 Y58.9257
G01 X-25.3181 Y58.7840
G01 X-25.2361 Y58.6503
G01 X-25.1404 Y58.5260
G01 X-25.0320 Y58.4126
G01 X-24.9122 Y58.3113
G01 Z-1.7000 F120
G01 X-24.8097 Y58.2395 F150
G01 X-24.7017 Y58.1765
G01 X-24.5889 Y58.1225
G01 X-24.4720 Y58.0781
G01 X-24.3518 Y58.0434
G01 X-24.2292 Y58.0187
G01 X-24.1050 Y58.0042
G01 X-23.9800 Y58.0000
G01 X8.0000
G01 X8.1974 Y58.0131
G01 X8.3915 Y58.0520
G01 X8.5786 Y58.1161
G01 X8.7558 Y58.2043
G01 X8.9198 Y58.3151
G01 X9.0677 Y58.4465
G01 X9.1971 Y58.5962
G01 X9.3057 Y58.7616
G01 X9.3915 Y58.9399
G01 X9.4532 Y59.1279
G01 X9.4896 Y59.3224
G01 X9.5000 Y59.5200
G01 Y66.5000
G01 X9.4869 Y66.6974
G01 X9.4480 Y66.8915
G01 X9.3839 Y67.0786
G01 X9.2957 Y67.2558
G01 X9.1849 Y67.4198
G01 X9.0535 Y67.5677
G01 X8.9038 Y67.6971
G01 X8.7384 Y67.8057
G01 X8.5601 Y67.8915
G01 X8.3721 Y67.9532
G01 X8.1776 Y67.9896
G01 X7.9800 Y68.0000
G01 X-24.0000
G01 X-24.1877 Y67.9884
G01 X-24.3724 Y67.9533
G01 X-24.5512 Y67.8953
G01 X-24.7214 Y67.8154
G01 X-24.8802 Y67.7148
G01 X-25.0252 Y67.5950
G01 X-25.1540 Y67.4581
G01 X-25.2646 Y67.3061
G01 X-25.3553 Y67.1414
G01 X-25.4246 Y66.9666
G01 X-25.4715 Y66.7845
G01 X-25.4952 Y66.5980
G01 X-25.5000 Y66.4800
G01 Y59.5000
G01 X-25.4932 Y59.3821
G01 X-25.4736 Y59.2264
G01 X-25.4376 Y59.0737
G01 X-25.3855 Y58.9257
G01 X-25.3181 Y58.7840
G01 X-25.2361 Y58.6503
G01 X-25.1404 Y58.5260
G01 X-25.0320 Y58.4126
G01 X-24.9122 Y58.3113
G00 Z1.0000 F500


;No. 6: Part 9
G00 X-42.6627 Y58.1561 Z1.0000 F3000
G00 Z0.5000 F500
G01 Z-0.4500 F120
G01 X-42.5003 Y58.0866 F150
G01 X-42.3308 Y58.0370
G01 X-42.1565 Y58.0080
G01 X-41.9800 Y58.0000
G01 X-28.0000
G01 X-27.8026 Y58.0131
G01 X-27.6085 Y58.0520
G01 X-27.4214 Y58.1161
G01 X-27.2442 Y58.2043
G01 X-27.0802 Y58.3151
G01 X-26.9323 Y58.4465
G01 X-26.8029 Y58.5962
G01 X-26.6943 Y58.7616
G01 X-26.6085 Y58.9399
G01 X-26.5468 Y59.1279
G01 X-26.5104 Y59.3224
G01 X-26.5000 Y59.5200
G01 Y66.5000
G01 X-26.5131 Y66.6974
G01 X-26.5520 Y66.8915
G01 X-26.6161 Y67.0786
G01 X-26.7043 Y67.2558
G01 X-26.8151 Y67.4198
G01 X-26.9465 Y67.5677
G01 X-27.0962 Y67.6971
G01 X-27.2616 Y67.8057
G01 X-27.4399 Y67.8915
G01 X-27.6279 Y67.9532
G01 X-27.8224 Y67.9896
G01 X-28.0200 Y68.0000
G01 X-42.0000
G01 X-42.1877 Y67.9884
G01 X-42.3724 Y67.9533
G01 X-42.5512 Y67.8953
G01 X-42.7214 Y67.8154
G01 X-42.8802 Y67.7148
G01 X-43.0252 Y67.5950
G01 X-43.1540 Y67.4581
G01 X-43.2646 Y67.3061
G01 X-43.3553 Y67.1414
G01 X-43.4246 Y66.9666
G01 X-43.4715 Y66.7845
G01 X-43.4952 Y66.5980
G01 X-43.5000 Y66.4800
G01 Y59.5000
G01 X-43.4932 Y59.3821
G01 X-43.4655 Y59.1906
G01 X-43.4134 Y59.0043
G01 X-43.3377 Y58.8263
G01 X-43.2398 Y58.6595
G01 X-43.1212 Y58.5067
G01 X-42.9839 Y58.3704
G01 X-42.8302 Y58.2529
G01 X-42.6627 Y58.1561
G01 Z-0.9000 F120
G01 X-42.5003 Y58.0866 F150
G01 X-42.3308 Y58.0370
G01 X-42.1565 Y58.0080
G01 X-41.9800 Y58.0000
G01 X-28.0000
G01 X-27.8026 Y58.0131
G01 X-27.6085 Y58.0520
G01 X-27.4214 Y58.1161
G01 X-27.2442 Y58.2043
G01 X-27.0802 Y58.3151
G01 X-26.9323 Y58.4465
G01 X-26.8029 Y58.5962
G01 X-26.6943 Y58.7616
G01 X-26.6085 Y58.9399
G01 X-26.5468 Y59.1279
G01 X-26.5104 Y59.3224
G01 X-26.5000 Y59.5200
G01 Y66.5000
G01 X-26.5131 Y66.6974
G01 X-26.5520 Y66.8915
G01 X-26.6161 Y67.0786
G01 X-26.7043 Y67.2558
G01 X-26.8151 Y67.4198
G01 X-26.9465 Y67.5677
G01 X-27.0962 Y67.6971
G01 X-27.2616 Y67.8057
G01 X-27.4399 Y67.8915
G01 X-27.6279 Y67.9532
G01 X-27.8224 Y67.9896
G01 X-28.0200 Y68.0000
G01 X-42.0000
G01 X-42.1877 Y67.9884
G01 X-42.3724 Y67.9533
G01 X-42.5512 Y67.8953
G01 X-42.7214 Y67.8154
G01 X-42.8802 Y67.7148
G01 X-43.0252 Y67.5950
G01 X-43.1540 Y67.4581
G01 X-43.2646 Y67.3061
G01 X-43.3553 Y67.1414
G01 X-43.4246 Y66.9666
G01 X-43.4715 Y66.7845
G01 X-43.4952 Y66.5980
G01 X-43.5000 Y66.4800
G01 Y59.5000
G01 X-43.4932 Y59.3821
G01 X-43.4655 Y59.1906
G01 X-43.4134 Y59.0043
G01 X-43.3377 Y58.8263
G01 X-43.2398 Y58.6595
G01 X-43.1212 Y58.5067
G01 X-42.9839 Y58.3704
G01 X-42.8302 Y58.2529
G01 X-42.6627 Y58.1561
G01 Z-1.3500 F120
G01 X-42.5003 Y58.0866 F150
G01 X-42.3308 Y58.0370
G01 X-42.1565 Y58.0080
G01 X-41.9800 Y58.0000
G01 X-28.0000
G01 X-27.8026 Y58.0131
G01 X-27.6085 Y58.0520
G01 X-27.4214 Y58.1161
G01 X-27.2442 Y58.2043
G01 X-27.0802 Y58.3151
G01 X-26.9323 Y58.4465
G01 X-26.8029 Y58.5962
G01 X-26.6943 Y58.7616
G01 X-26.6085 Y58.9399
G01 X-26.5468 Y59.1279
G01 X-26.5104 Y59.3224
G01 X-26.5000 Y59.5200
G01 Y66.5000
G01 X-26.5131 Y66.6974
G01 X-26.5520 Y66.8915
G01 X-26.6161 Y67.0786
G01 X-26.7043 Y67.2558
G01 X-26.8151 Y67.4198
G01 X-26.9465 Y67.5677
G01 X-27.0962 Y67.6971
G01 X-27.2616 Y67.8057
G01 X-27.4399 Y67.8915
G01 X-27.6279 Y67.9532
G01 X-27.8224 Y67.9896
G01 X-28.0200 Y68.0000
G01 X-42.0000
G01 X-42.1877 Y67.9884
G01 X-42.3724 Y67.9533
G01 X-42.5512 Y67.8953
G01 X-42.7214 Y67.8154
G01 X-42.8802 Y67.7148
G01 X-43.0252 Y67.5950
G01 X-43.1540 Y67.4581
G01 X-43.2646 Y67.3061
G01 X-43.3553 Y67.1414
G01 X-43.4246 Y66.9666
G01 X-43.4715 Y66.7845
G01 X-43.4952 Y66.5980
G01 X-43.5000 Y66.4800
G01 Y59.5000
G01 X-43.4932 Y59.3821
G01 X-43.4655 Y59.1906
G01 X-43.4134 Y59.0043
G01 X-43.3377 Y58.8263
G01 X-43.2398 Y58.6595
G01 X-43.1212 Y58.5067
G01 X-42.9839 Y58.3704
G01 X-42.8302 Y58.2529
G01 X-42.6627 Y58.1561
G01 Z-1.7000 F120
G01 X-42.5003 Y58.0866 F150
G01 X-42.3308 Y58.0370
G01 X-42.1565 Y58.0080
G01 X-41.9800 Y58.0000
G01 X-28.0000
G01 X-27.8026 Y58.0131
G01 X-27.6085 Y58.0520
G01 X-27.4214 Y58.1161
G01 X-27.2442 Y58.2043
G01 X-27.0802 Y58.3151
G01 X-26.9323 Y58.4465
G01 X-26.8029 Y58.5962
G01 X-26.6943 Y58.7616
G01 X-26.6085 Y58.9399
G01 X-26.5468 Y59.1279
G01 X-26.5104 Y59.3224
G01 X-26.5000 Y59.5200
G01 Y66.5000
G01 X-26.5131 Y66.6974
G01 X-26.5520 Y66.8915
G01 X-26.6161 Y67.0786
G01 X-26.7043 Y67.2558
G01 X-26.8151 Y67.4198
G01 X-26.9465 Y67.5677
G01 X-27.0962 Y67.6971
G01 X-27.2616 Y67.8057
G01 X-27.4399 Y67.8915
G01 X-27.6279 Y67.9532
G01 X-27.8224 Y67.9896
G01 X-28.0200 Y68.0000
G01 X-42.0000
G01 X-42.1877 Y67.9884
G01 X-42.3724 Y67.9533
G01 X-42.5512 Y67.8953
G01 X-42.7214 Y67.8154
G01 X-42.8802 Y67.7148
G01 X-43.0252 Y67.5950
G01 X-43.1540 Y67.4581
G01 X-43.2646 Y67.3061
G01 X-43.3553 Y67.1414
G01 X-43.4246 Y66.9666
G01 X-43.4715 Y66.7845
G01 X-43.4952 Y66.5980
G01 X-43.5000 Y66.4800
G01 Y59.5000
G01 X-43.4932 Y59.3821
G01 X-43.4655 Y59.1906
G01 X-43.4134 Y59.0043
G01 X-43.3377 Y58.8263
G01 X-43.2398 Y58.6595
G01 X-43.1212 Y58.5067
G01 X-42.9839 Y58.3704
G01 X-42.8302 Y58.2529
G01 X-42.6627 Y58.1561
G00 Z1.0000 F500


;No. 7: Part 10
G00 X-60.3878 Y58.0527 Z1.0000 F3000
G00 Z0.5000 F500
G01 Z-0.4500 F120
G01 X-60.2873 Y58.0301 F150
G01 X-60.1855 Y58.0137
G01 X-60.0830 Y58.0037
G01 X-59.9800 Y58.0000
G01 X-46.0000
G01 X-45.8026 Y58.0131
G01 X-45.6085 Y58.0520
G01 X-45.4214 Y58.1161
G01 X-45.2442 Y58.2043
G01 X-45.0802 Y58.3151
G01 X-44.9323 Y58.4465
G01 X-44.8029 Y58.5962
G01 X-44.6943 Y58.7616
G01 X-44.6085 Y58.9399
G01 X-44.5468 Y59.1279
G01 X-44.5104 Y59.3224
G01 X-44.5000 Y59.5200
G01 Y66.5000
G01 X-44.5131 Y66.6974
G01 X-44.5520 Y66.8915
G01 X-44.6161 Y67.0786
G01 X-44.7043 Y67.2558
G01 X-44.8151 Y67.4198
G01 X-44.9465 Y67.5677
G01 X-45.0962 Y67.6971
G01 X-45.2616 Y67.8057
G01 X-45.4399 Y67.8915
G01 X-45.6279 Y67.9532
G01 X-45.8224 Y67.9896
G01 X-46.0200 Y68.0000
G01 X-60.0000
G01 X-60.1877 Y67.9884
G01 X-60.3724 Y67.9533
G01 X-60.5512 Y67.8953
G01 X-60.7214 Y67.8154
G01 X-60.8802 Y67.7148
G01 X-61.0252 Y67.5950
G01 X-61.1540 Y67.4581
G01 X-61.2646 Y67.3061
G01 X-61.3553 Y67.1414
G01 X-61.4246 Y66.9666
G01 X-61.4715 Y66.7845
G01 X-61.4952 Y66.5980
G01 X-61.5000 Y66.4800
G01 Y59.5000
G01 X-61.4932 Y59.3821
G01 X-61.4577 Y59.1547
G01 X-61.3877 Y58.9354
G01 X-61.2850 Y58.7294
G01 X-61.1518 Y58.5417
G01 X-60.9915 Y58.3765
G01 X-60.8078 Y58.2379
G01 X-60.6049 Y58.1291
G01 X-60.3878 Y58.0527
G01 Z-0.9000 F120
G01 X-60.2873 Y58.0301 F150
G01 X-60.1855 Y58.0137
G01 X-60.0830 Y58.0037
G01 X-59.9800 Y58.0000
G01 X-46.0000
G01 X-45.8026 Y58.0131
G01 X-45.6085 Y58.0520
G01 X-45.4214 Y58.1161
G01 X-45.2442 Y58.2043
G01 X-45.0802 Y58.3151
G01 X-44.9323 Y58.4465
G01 X-44.8029 Y58.5962
G01 X-44.6943 Y58.7616
G01 X-44.6085 Y58.9399
G01 X-44.5468 Y59.1279
G01 X-44.5104 Y59.3224
G01 X-44.5000 Y59.5200
G01 Y66.5000
G01 X-44.5131 Y66.6974
G01 X-44.5520 Y66.8915
G01 X-44.6161 Y67.0786
G01 X-44.7043 Y67.2558
G01 X-44.8151 Y67.4198
G01 X-44.9465 Y67.5677
G01 X-45.0962 Y67.6971
G01 X-45.2616 Y67.8057
G01 X-45.4399 Y67.8915
G01 X-45.6279 Y67.9532
G01 X-45.8224 Y67.9896
G01 X-46.0200 Y68.0000
G01 X-60.0000
G01 X-60.1877 Y67.9884
G01 X-60.3724 Y67.9533
G01 X-60.5512 Y67.8953
G01 X-60.7214 Y67.8154
G01 X-60.8802 Y67.7148
G01 X-61.0252 Y67.5950
G01 X-61.1540 Y67.4581
G01 X-61.2646 Y67.3061
G01 X-61.3553 Y67.1414
G01 X-61.4246 Y66.9666
G01 X-61.4715 Y66.7845
G01 X-61.4952 Y66.5980
G01 X-61.5000 Y66.4800
G01 Y59.5000
G01 X-61.4932 Y59.3821
G01 X-61.4577 Y59.1547
G01 X-61.3877 Y58.9354
G01 X-61.2850 Y58.7294
G01 X-61.1518 Y58.5417
G01 X-60.9915 Y58.3765
G01 X-60.8078 Y58.2379
G01 X-60.6049 Y58.1291
G01 X-60.3878 Y58.0527
G01 Z-1.3500 F120
G01 X-60.2873 Y58.0301 F150
G01 X-60.1855 Y58.0137
G01 X-60.0830 Y58.0037
G01 X-59.9800 Y58.0000
G01 X-46.0000
G01 X-45.8026 Y58.0131
G01 X-45.6085 Y58.0520
G01 X-45.4214 Y58.1161
G01 X-45.2442 Y58.2043
G01 X-45.0802 Y58.3151
G01 X-44.9323 Y58.4465
G01 X-44.8029 Y58.5962
G01 X-44.6943 Y58.7616
G01 X-44.6085 Y58.9399
G01 X-44.5468 Y59.1279
G01 X-44.5104 Y59.3224
G01 X-44.5000 Y59.5200
G01 Y66.5000
G01 X-44.5131 Y66.6974
G01 X-44.5520 Y66.8915
G01 X-44.6161 Y67.0786
G01 X-44.7043 Y67.2558
G01 X-44.8151 Y67.4198
G01 X-44.9465 Y67.5677
G01 X-45.0962 Y67.6971
G01 X-45.2616 Y67.8057
G01 X-45.4399 Y67.8915
G01 X-45.6279 Y67.9532
G01 X-45.8224 Y67.9896
G01 X-46.0200 Y68.0000
G01 X-60.0000
G01 X-60.1877 Y67.9884
G01 X-60.3724 Y67.9533
G01 X-60.5512 Y67.8953
G01 X-60.7214 Y67.8154
G01 X-60.8802 Y67.7148
G01 X-61.0252 Y67.5950
G01 X-61.1540 Y67.4581
G01 X-61.2646 Y67.3061
G01 X-61.3553 Y67.1414
G01 X-61.4246 Y66.9666
G01 X-61.4715 Y66.7845
G01 X-61.4952 Y66.5980
G01 X-61.5000 Y66.4800
G01 Y59.5000
G01 X-61.4932 Y59.3821
G01 X-61.4577 Y59.1547
G01 X-61.3877 Y58.9354
G01 X-61.2850 Y58.7294
G01 X-61.1518 Y58.5417
G01 X-60.9915 Y58.3765
G01 X-60.8078 Y58.2379
G01 X-60.6049 Y58.1291
G01 X-60.3878 Y58.0527
G01 Z-1.7000 F120
G01 X-60.2873 Y58.0301 F150
G01 X-60.1855 Y58.0137
G01 X-60.0830 Y58.0037
G01 X-59.9800 Y58.0000
G01 X-46.0000
G01 X-45.8026 Y58.0131
G01 X-45.6085 Y58.0520
G01 X-45.4214 Y58.1161
G01 X-45.2442 Y58.2043
G01 X-45.0802 Y58.3151
G01 X-44.9323 Y58.4465
G01 X-44.8029 Y58.5962
G01 X-44.6943 Y58.7616
G01 X-44.6085 Y58.9399
G01 X-44.5468 Y59.1279
G01 X-44.5104 Y59.3224
G01 X-44.5000 Y59.5200
G01 Y66.5000
G01 X-44.5131 Y66.6974
G01 X-44.5520 Y66.8915
G01 X-44.6161 Y67.0786
G01 X-44.7043 Y67.2558
G01 X-44.8151 Y67.4198
G01 X-44.9465 Y67.5677
G01 X-45.0962 Y67.6971
G01 X-45.2616 Y67.8057
G01 X-45.4399 Y67.8915
G01 X-45.6279 Y67.9532
G01 X-45.8224 Y67.9896
G01 X-46.0200 Y68.0000
G01 X-60.0000
G01 X-60.1877 Y67.9884
G01 X-60.3724 Y67.9533
G01 X-60.5512 Y67.8953
G01 X-60.7214 Y67.8154
G01 X-60.8802 Y67.7148
G01 X-61.0252 Y67.5950
G01 X-61.1540 Y67.4581
G01 X-61.2646 Y67.3061
G01 X-61.3553 Y67.1414
G01 X-61.4246 Y66.9666
G01 X-61.4715 Y66.7845
G01 X-61.4952 Y66.5980
G01 X-61.5000 Y66.4800
G01 Y59.5000
G01 X-61.4932 Y59.3821
G01 X-61.4577 Y59.1547
G01 X-61.3877 Y58.9354
G01 X-61.2850 Y58.7294
G01 X-61.1518 Y58.5417
G01 X-60.9915 Y58.3765
G01 X-60.8078 Y58.2379
G01 X-60.6049 Y58.1291
G01 X-60.3878 Y58.0527
G00 Z1.0000 F500


;No. 8: Part 11
G00 X-64.0000 Y58.0000 Z1.0000 F3000
G00 Z0.5000 F500
G01 Z-0.4500 F120
G01 X-63.8026 Y58.0131 F150
G01 X-63.6085 Y58.0520
G01 X-63.4214 Y58.1161
G01 X-63.2442 Y58.2043
G01 X-63.0802 Y58.3151
G01 X-62.9323 Y58.4465
G01 X-62.8029 Y58.5962
G01 X-62.6943 Y58.7616
G01 X-62.6085 Y58.9399
G01 X-62.5468 Y59.1279
G01 X-62.5104 Y59.3224
G01 X-62.5000 Y59.5200
G01 Y66.5000
G01 X-62.5131 Y66.6974
G01 X-62.5520 Y66.8915
G01 X-62.6161 Y67.0786
G01 X-62.7043 Y67.2558
G01 X-62.8151 Y67.4198
G01 X-62.9465 Y67.5677
G01 X-63.0962 Y67.6971
G01 X-63.2616 Y67.8057
G01 X-63.4399 Y67.8915
G01 X-63.6279 Y67.9532
G01 X-63.8224 Y67.9896
G01 X-64.0200 Y68.0000
G01 X-78.0000
G01 X-78.1877 Y67.9884
G01 X-78.3724 Y67.9533
G01 X-78.5512 Y67.8953
G01 X-78.7214 Y67.8154
G01 X-78.8802 Y67.7148
G01 X-79.0252 Y67.5950
G01 X-79.1540 Y67.4581
G01 X-79.2646 Y67.3061
G01 X-79.3553 Y67.1414
G01 X-79.4246 Y66.9666
G01 X-79.4715 Y66.7845
G01 X-79.4952 Y66.5980
G01 X-79.5000 Y66.4800
G01 Y59.5000
G01 X-79.4932 Y59.3821
G01 X-79.4665 Y59.1962
G01 X-79.4169 Y59.0150
G01 X-79.3450 Y58.8415
G01 X-79.2520 Y58.6783
G01 X-79.1394 Y58.5280
G01 X-79.0089 Y58.3929
G01 X-78.8626 Y58.2752
G01 X-78.7027 Y58.1766
G01 X-78.5318 Y58.0988
G01 X-78.3524 Y58.0429
G01 X-78.1676 Y58.0098
G01 X-77.9800 Y58.0000
G01 X-64.0000
G01 Z-0.9000 F120
G01 X-63.8026 Y58.0131 F150
G01 X-63.6085 Y58.0520
G01 X-63.4214 Y58.1161
G01 X-63.2442 Y58.2043
G01 X-63.0802 Y58.3151
G01 X-62.9323 Y58.4465
G01 X-62.8029 Y58.5962
G01 X-62.6943 Y58.7616
G01 X-62.6085 Y58.9399
G01 X-62.5468 Y59.1279
G01 X-62.5104 Y59.3224
G01 X-62.5000 Y59.5200
G01 Y66.5000
G01 X-62.5131 Y66.6974
G01 X-62.5520 Y66.8915
G01 X-62.6161 Y67.0786
G01 X-62.7043 Y67.2558
G01 X-62.8151 Y67.4198
G01 X-62.9465 Y67.5677
G01 X-63.0962 Y67.6971
G01 X-63.2616 Y67.8057
G01 X-63.4399 Y67.8915
G01 X-63.6279 Y67.9532
G01 X-63.8224 Y67.9896
G01 X-64.0200 Y68.0000
G01 X-78.0000
G01 X-78.1877 Y67.9884
G01 X-78.3724 Y67.9533
G01 X-78.5512 Y67.8953
G01 X-78.7214 Y67.8154
G01 X-78.8802 Y67.7148
G01 X-79.0252 Y67.5950
G01 X-79.1540 Y67.4581
G01 X-79.2646 Y67.3061
G01 X-79.3553 Y67.1414
G01 X-79.4246 Y66.9666
G01 X-79.4715 Y66.7845
G01 X-79.4952 Y66.5980
G01 X-79.5000 Y66.4800
G01 Y59.5000
G01 X-79.4932 Y59.3821
G01 X-79.4665 Y59.1962
G01 X-79.4169 Y59.0150
G01 X-79.3450 Y58.8415
G01 X-79.2520 Y58.6783
G01 X-79.1394 Y58.5280
G01 X-79.0089 Y58.3929
G01 X-78.8626 Y58.2752
G01 X-78.7027 Y58.1766
G01 X-78.5318 Y58.0988
G01 X-78.3524 Y58.0429
G01 X-78.1676 Y58.0098
G01 X-77.9800 Y58.0000
G01 X-64.0000
G01 Z-1.3500 F120
G01 X-63.8026 Y58.0131 F150
G01 X-63.6085 Y58.0520
G01 X-63.4214 Y58.1161
G01 X-63.2442 Y58.2043
G01 X-63.0802 Y58.3151
G01 X-62.9323 Y58.4465
G01 X-62.8029 Y58.5962
G01 X-62.6943 Y58.7616
G01 X-62.6085 Y58.9399
G01 X-62.5468 Y59.1279
G01 X-62.5104 Y59.3224
G01 X-62.5000 Y59.5200
G01 Y66.5000
G01 X-62.5131 Y66.6974
G01 X-62.5520 Y66.8915
G01 X-62.6161 Y67.0786
G01 X-62.7043 Y67.2558
G01 X-62.8151 Y67.4198
G01 X-62.9465 Y67.5677
G01 X-63.0962 Y67.6971
G01 X-63.2616 Y67.8057
G01 X-63.4399 Y67.8915
G01 X-63.6279 Y67.9532
G01 X-63.8224 Y67.9896
G01 X-64.0200 Y68.0000
G01 X-78.0000
G01 X-78.1877 Y67.9884
G01 X-78.3724 Y67.9533
G01 X-78.5512 Y67.8953
G01 X-78.7214 Y67.8154
G01 X-78.8802 Y67.7148
G01 X-79.0252 Y67.5950
G01 X-79.1540 Y67.4581
G01 X-79.2646 Y67.3061
G01 X-79.3553 Y67.1414
G01 X-79.4246 Y66.9666
G01 X-79.4715 Y66.7845
G01 X-79.4952 Y66.5980
G01 X-79.5000 Y66.4800
G01 Y59.5000
G01 X-79.4932 Y59.3821
G01 X-79.4665 Y59.1962
G01 X-79.4169 Y59.0150
G01 X-79.3450 Y58.8415
G01 X-79.2520 Y58.6783
G01 X-79.1394 Y58.5280
G01 X-79.0089 Y58.3929
G01 X-78.8626 Y58.2752
G01 X-78.7027 Y58.1766
G01 X-78.5318 Y58.0988
G01 X-78.3524 Y58.0429
G01 X-78.1676 Y58.0098
G01 X-77.9800 Y58.0000
G01 X-64.0000
G01 Z-1.7000 F120
G01 X-63.8026 Y58.0131 F150
G01 X-63.6085 Y58.0520
G01 X-63.4214 Y58.1161
G01 X-63.2442 Y58.2043
G01 X-63.0802 Y58.3151
G01 X-62.9323 Y58.4465
G01 X-62.8029 Y58.5962
G01 X-62.6943 Y58.7616
G01 X-62.6085 Y58.9399
G01 X-62.5468 Y59.1279
G01 X-62.5104 Y59.3224
G01 X-62.5000 Y59.5200
G01 Y66.5000
G01 X-62.5131 Y66.6974
G01 X-62.5520 Y66.8915
G01 X-62.6161 Y67.0786
G01 X-62.7043 Y67.2558
G01 X-62.8151 Y67.4198
G01 X-62.9465 Y67.5677
G01 X-63.0962 Y67.6971
G01 X-63.2616 Y67.8057
G01 X-63.4399 Y67.8915
G01 X-63.6279 Y67.9532
G01 X-63.8224 Y67.9896
G01 X-64.0200 Y68.0000
G01 X-78.0000
G01 X-78.1877 Y67.9884
G01 X-78.3724 Y67.9533
G01 X-78.5512 Y67.8953
G01 X-78.7214 Y67.8154
G01 X-78.8802 Y67.7148
G01 X-79.0252 Y67.5950
G01 X-79.1540 Y67.4581
G01 X-79.2646 Y67.3061
G01 X-79.3553 Y67.1414
G01 X-79.4246 Y66.9666
G01 X-79.4715 Y66.7845
G01 X-79.4952 Y66.5980
G01 X-79.5000 Y66.4800
G01 Y59.5000
G01 X-79.4932 Y59.3821
G01 X-79.4665 Y59.1962
G01 X-79.4169 Y59.0150
G01 X-79.3450 Y58.8415
G01 X-79.2520 Y58.6783
G01 X-79.1394 Y58.5280
G01 X-79.0089 Y58.3929
G01 X-78.8626 Y58.2752
G01 X-78.7027 Y58.1766
G01 X-78.5318 Y58.0988
G01 X-78.3524 Y58.0429
G01 X-78.1676 Y58.0098
G01 X-77.9800 Y58.0000
G01 X-64.0000
G00 Z1.0000 F500


;No. 9: Part 7
G00 X-81.5980 Y20.0048 Z1.0000 F3000
G00 Z0.5000 F500
G01 Z-0.4500 F120
G01 X-81.4800 Y20.0000 F150
G01 X-28.5000
G01 X-28.3026 Y20.0131
G01 X-28.1085 Y20.0520
G01 X-27.9214 Y20.1161
G01 X-27.7442 Y20.2043
G01 X-27.5802 Y20.3151
G01 X-27.4323 Y20.4465
G01 X-27.3029 Y20.5962
G01 X-27.1943 Y20.7616
G01 X-27.1085 Y20.9399
G01 X-27.0468 Y21.1279
G01 X-27.0104 Y21.3224
G01 X-27.0000 Y21.5200
G01 Y55.5000
G01 X-27.0131 Y55.6974
G01 X-27.0520 Y55.8915
G01 X-27.1161 Y56.0786
G01 X-27.2043 Y56.2558
G01 X-27.3151 Y56.4198
G01 X-27.4465 Y56.5677
G01 X-27.5962 Y56.6971
G01 X-27.7616 Y56.8057
G01 X-27.9399 Y56.8915
G01 X-28.1279 Y56.9532
G01 X-28.3224 Y56.9896
G01 X-28.5200 Y57.0000
G01 X-81.5000
G01 X-81.6877 Y56.9884
G01 X-81.8724 Y56.9533
G01 X-82.0512 Y56.8953
G01 X-82.2214 Y56.8154
G01 X-82.3802 Y56.7148
G01 X-82.5252 Y56.5950
G01 X-82.6540 Y56.4581
G01 X-82.7646 Y56.3061
G01 X-82.8553 Y56.1414
G01 X-82.9246 Y55.9666
G01 X-82.9715 Y55.7845
G01 X-82.9952 Y55.5980
G01 X-83.0000 Y55.4800
G01 Y21.5000
G01 X-82.9932 Y21.3821
G01 X-82.9687 Y21.2058
G01 X-82.9234 Y21.0337
G01 X-82.8580 Y20.8682
G01 X-82.7735 Y20.7116
G01 X-82.6710 Y20.5661
G01 X-82.5520 Y20.4338
G01 X-82.4181 Y20.3165
G01 X-82.2713 Y20.2159
G01 X-82.1136 Y20.1334
G01 X-81.9473 Y20.0702
G01 X-81.7746 Y20.0271
G01 X-81.5980 Y20.0048
G01 Z-0.9000 F120
G01 X-81.4800 Y20.0000 F150
G01 X-28.5000
G01 X-28.3026 Y20.0131
G01 X-28.1085 Y20.0520
G01 X-27.9214 Y20.1161
G01 X-27.7442 Y20.2043
G01 X-27.5802 Y20.3151
G01 X-27.4323 Y20.4465
G01 X-27.3029 Y20.5962
G01 X-27.1943 Y20.7616
G01 X-27.1085 Y20.9399
G01 X-27.0468 Y21.1279
G01 X-27.0104 Y21.3224
G01 X-27.0000 Y21.5200
G01 Y55.5000
G01 X-27.0131 Y55.6974
G01 X-27.0520 Y55.8915
G01 X-27.1161 Y56.0786
G01 X-27.2043 Y56.2558
G01 X-27.3151 Y56.4198
G01 X-27.4465 Y56.5677
G01 X-27.5962 Y56.6971
G01 X-27.7616 Y56.8057
G01 X-27.9399 Y56.8915
G01 X-28.1279 Y56.9532
G01 X-28.3224 Y56.9896
G01 X-28.5200 Y57.0000
G01 X-81.5000
G01 X-81.6877 Y56.9884
G01 X-81.8724 Y56.9533
G01 X-82.0512 Y56.8953
G01 X-82.2214 Y56.8154
G01 X-82.3802 Y56.7148
G01 X-82.5252 Y56.5950
G01 X-82.6540 Y56.4581
G01 X-82.7646 Y56.3061
G01 X-82.8553 Y56.1414
G01 X-82.9246 Y55.9666
G01 X-82.9715 Y55.7845
G01 X-82.9952 Y55.5980
G01 X-83.0000 Y55.4800
G01 Y21.5000
G01 X-82.9932 Y21.3821
G01 X-82.9687 Y21.2058
G01 X-82.9234 Y21.0337
G01 X-82.8580 Y20.8682
G01 X-82.7735 Y20.7116
G01 X-82.6710 Y20.5661
G01 X-82.5520 Y20.4338
G01 X-82.4181 Y20.3165
G01 X-82.2713 Y20.2159
G01 X-82.1136 Y20.1334
G01 X-81.9473 Y20.0702
G01 X-81.7746 Y20.0271
G01 X-81.5980 Y20.0048
G01 Z-1.3500 F120
G01 X-81.4800 Y20.0000 F150
G01 X-28.5000
G01 X-28.3026 Y20.0131
G01 X-28.1085 Y20.0520
G01 X-27.9214 Y20.1161
G01 X-27.7442 Y20.2043
G01 X-27.5802 Y20.3151
G01 X-27.4323 Y20.4465
G01 X-27.3029 Y20.5962
G01 X-27.1943 Y20.7616
G01 X-27.1085 Y20.9399
G01 X-27.0468 Y21.1279
G01 X-27.0104 Y21.3224
G01 X-27.0000 Y21.5200
G01 Y55.5000
G01 X-27.0131 Y55.6974
G01 X-27.0520 Y55.8915
G01 X-27.1161 Y56.0786
G01 X-27.2043 Y56.2558
G01 X-27.3151 Y56.4198
G01 X-27.4465 Y56.5677
G01 X-27.5962 Y56.6971
G01 X-27.7616 Y56.8057
G01 X-27.9399 Y56.8915
G01 X-28.1279 Y56.9532
G01 X-28.3224 Y56.9896
G01 X-28.5200 Y57.0000
G01 X-81.5000
G01 X-81.6877 Y56.9884
G01 X-81.8724 Y56.9533
G01 X-82.0512 Y56.8953
G01 X-82.2214 Y56.8154
G01 X-82.3802 Y56.7148
G01 X-82.5252 Y56.5950
G01 X-82.6540 Y56.4581
G01 X-82.7646 Y56.3061
G01 X-82.8553 Y56.1414
G01 X-82.9246 Y55.9666
G01 X-82.9715 Y55.7845
G01 X-82.9952 Y55.5980
G01 X-83.0000 Y55.4800
G01 Y21.5000
G01 X-82.9932 Y21.3821
G01 X-82.9687 Y21.2058
G01 X-82.9234 Y21.0337
G01 X-82.8580 Y20.8682
G01 X-82.7735 Y20.7116
G01 X-82.6710 Y20.5661
G01 X-82.5520 Y20.4338
G01 X-82.4181 Y20.3165
G01 X-82.2713 Y20.2159
G01 X-82.1136 Y20.1334
G01 X-81.9473 Y20.0702
G01 X-81.7746 Y20.0271
G01 X-81.5980 Y20.0048
G01 Z-1.7000 F120
G01 X-81.4800 Y20.0000 F150
G01 X-28.5000
G01 X-28.3026 Y20.0131
G01 X-28.1085 Y20.0520
G01 X-27.9214 Y20.1161
G01 X-27.7442 Y20.2043
G01 X-27.5802 Y20.3151
G01 X-27.4323 Y20.4465
G01 X-27.3029 Y20.5962
G01 X-27.1943 Y20.7616
G01 X-27.1085 Y20.9399
G01 X-27.0468 Y21.1279
G01 X-27.0104 Y21.3224
G01 X-27.0000 Y21.5200
G01 Y55.5000
G01 X-27.0131 Y55.6974
G01 X-27.0520 Y55.8915
G01 X-27.1161 Y56.0786
G01 X-27.2043 Y56.2558
G01 X-27.3151 Y56.4198
G01 X-27.4465 Y56.5677
G01 X-27.5962 Y56.6971
G01 X-27.7616 Y56.8057
G01 X-27.9399 Y56.8915
G01 X-28.1279 Y56.9532
G01 X-28.3224 Y56.9896
G01 X-28.5200 Y57.0000
G01 X-81.5000
G01 X-81.6877 Y56.9884
G01 X-81.8724 Y56.9533
G01 X-82.0512 Y56.8953
G01 X-82.2214 Y56.8154
G01 X-82.3802 Y56.7148
G01 X-82.5252 Y56.5950
G01 X-82.6540 Y56.4581
G01 X-82.7646 Y56.3061
G01 X-82.8553 Y56.1414
G01 X-82.9246 Y55.9666
G01 X-82.9715 Y55.7845
G01 X-82.9952 Y55.5980
G01 X-83.0000 Y55.4800
G01 Y21.5000
G01 X-82.9932 Y21.3821
G01 X-82.9687 Y21.2058
G01 X-82.9234 Y21.0337
G01 X-82.8580 Y20.8682
G01 X-82.7735 Y20.7116
G01 X-82.6710 Y20.5661
G01 X-82.5520 Y20.4338
G01 X-82.4181 Y20.3165
G01 X-82.2713 Y20.2159
G01 X-82.1136 Y20.1334
G01 X-81.9473 Y20.0702
G01 X-81.7746 Y20.0271
G01 X-81.5980 Y20.0048
G00 Z1.0000 F500


;No. 10: Part 1
G00 X-82.6266 Y-23.4879 Z1.0000 F3000
G00 Z0.5000 F500
G01 Z-0.4500 F120
G01 X-82.5137 Y-23.6041 F150
G01 X-82.3890 Y-23.7073
G01 X-82.2538 Y-23.7965
G01 X-82.1098 Y-23.8704
G01 X-81.9585 Y-23.9283
G01 X-81.8019 Y-23.9695
G01 X-81.6418 Y-23.9935
G01 X-81.4800 Y-24.0000
G01 X-31.5000
G01 X-31.3026 Y-23.9869
G01 X-31.1085 Y-23.9480
G01 X-30.9214 Y-23.8839
G01 X-30.7442 Y-23.7957
G01 X-30.5802 Y-23.6849
G01 X-30.4323 Y-23.5535
G01 X-30.3029 Y-23.4038
G01 X-30.1943 Y-23.2384
G01 X-30.1085 Y-23.0601
G01 X-30.0468 Y-22.8721
G01 X-30.0104 Y-22.6776
G01 X-30.0000 Y-22.4800
G01 Y17.5000
G01 X-30.0131 Y17.6974
G01 X-30.0520 Y17.8915
G01 X-30.1161 Y18.0786
G01 X-30.2043 Y18.2558
G01 X-30.3151 Y18.4198
G01 X-30.4465 Y18.5677
G01 X-30.5962 Y18.6971
G01 X-30.7616 Y18.8057
G01 X-30.9399 Y18.8915
G01 X-31.1279 Y18.9532
G01 X-31.3224 Y18.9896
G01 X-31.5200 Y19.0000
G01 X-81.5000
G01 X-81.6877 Y18.9884
G01 X-81.8724 Y18.9533
G01 X-82.0512 Y18.8953
G01 X-82.2214 Y18.8154
G01 X-82.3802 Y18.7148
G01 X-82.5252 Y18.5950
G01 X-82.6540 Y18.4581
G01 X-82.7646 Y18.3061
G01 X-82.8553 Y18.1414
G01 X-82.9246 Y17.9666
G01 X-82.9715 Y17.7845
G01 X-82.9952 Y17.5980
G01 X-83.0000 Y17.4800
G01 Y-22.5000
G01 X-82.9932 Y-22.6179
G01 X-82.9551 Y-22.8547
G01 X-82.8799 Y-23.0824
G01 X-82.7695 Y-23.2953
G01 X-82.6266 Y-23.4879
G01 Z-0.9000 F120
G01 X-82.5137 Y-23.6041 F150
G01 X-82.3890 Y-23.7073
G01 X-82.2538 Y-23.7965
G01 X-82.1098 Y-23.8704
G01 X-81.9585 Y-23.9283
G01 X-81.8019 Y-23.9695
G01 X-81.6418 Y-23.9935
G01 X-81.4800 Y-24.0000
G01 X-31.5000
G01 X-31.3026 Y-23.9869
G01 X-31.1085 Y-23.9480
G01 X-30.9214 Y-23.8839
G01 X-30.7442 Y-23.7957
G01 X-30.5802 Y-23.6849
G01 X-30.4323 Y-23.5535
G01 X-30.3029 Y-23.4038
G01 X-30.1943 Y-23.2384
G01 X-30.1085 Y-23.0601
G01 X-30.0468 Y-22.8721
G01 X-30.0104 Y-22.6776
G01 X-30.0000 Y-22.4800
G01 Y17.5000
G01 X-30.0131 Y17.6974
G01 X-30.0520 Y17.8915
G01 X-30.1161 Y18.0786
G01 X-30.2043 Y18.2558
G01 X-30.3151 Y18.4198
G01 X-30.4465 Y18.5677
G01 X-30.5962 Y18.6971
G01 X-30.7616 Y18.8057
G01 X-30.9399 Y18.8915
G01 X-31.1279 Y18.9532
G01 X-31.3224 Y18.9896
G01 X-31.5200 Y19.0000
G01 X-81.5000
G01 X-81.6877 Y18.9884
G01 X-81.8724 Y18.9533
G01 X-82.0512 Y18.8953
G01 X-82.2214 Y18.8154
G01 X-82.3802 Y18.7148
G01 X-82.5252 Y18.5950
G01 X-82.6540 Y18.4581
G01 X-82.7646 Y18.3061
G01 X-82.8553 Y18.1414
G01 X-82.9246 Y17.9666
G01 X-82.9715 Y17.7845
G01 X-82.9952 Y17.5980
G01 X-83.0000 Y17.4800
G01 Y-22.5000
G01 X-82.9932 Y-22.6179
G01 X-82.9551 Y-22.8547
G01 X-82.8799 Y-23.0824
G01 X-82.7695 Y-23.2953
G01 X-82.6266 Y-23.4879
G01 Z-1.3500 F120
G01 X-82.5137 Y-23.6041 F150
G01 X-82.3890 Y-23.7073
G01 X-82.2538 Y-23.7965
G01 X-82.1098 Y-23.8704
G01 X-81.9585 Y-23.9283
G01 X-81.8019 Y-23.9695
G01 X-81.6418 Y-23.9935
G01 X-81.4800 Y-24.0000
G01 X-31.5000
G01 X-31.3026 Y-23.9869
G01 X-31.1085 Y-23.9480
G01 X-30.9214 Y-23.8839
G01 X-30.7442 Y-23.7957
G01 X-30.5802 Y-23.6849
G01 X-30.4323 Y-23.5535
G01 X-30.3029 Y-23.4038
G01 X-30.1943 Y-23.2384
G01 X-30.1085 Y-23.0601
G01 X-30.0468 Y-22.8721
G01 X-30.0104 Y-22.6776
G01 X-30.0000 Y-22.4800
G01 Y17.5000
G01 X-30.0131 Y17.6974
G01 X-30.0520 Y17.8915
G01 X-30.1161 Y18.0786
G01 X-30.2043 Y18.2558
G01 X-30.3151 Y18.4198
G01 X-30.4465 Y18.5677
G01 X-30.5962 Y18.6971
G01 X-30.7616 Y18.8057
G01 X-30.9399 Y18.8915
G01 X-31.1279 Y18.9532
G01 X-31.3224 Y18.9896
G01 X-31.5200 Y19.0000
G01 X-81.5000
G01 X-81.6877 Y18.9884
G01 X-81.8724 Y18.9533
G01 X-82.0512 Y18.8953
G01 X-82.2214 Y18.8154
G01 X-82.3802 Y18.7148
G01 X-82.5252 Y18.5950
G01 X-82.6540 Y18.4581
G01 X-82.7646 Y18.3061
G01 X-82.8553 Y18.1414
G01 X-82.9246 Y17.9666
G01 X-82.9715 Y17.7845
G01 X-82.9952 Y17.5980
G01 X-83.0000 Y17.4800
G01 Y-22.5000
G01 X-82.9932 Y-22.6179
G01 X-82.9551 Y-22.8547
G01 X-82.8799 Y-23.0824
G01 X-82.7695 Y-23.2953
G01 X-82.6266 Y-23.4879
G01 Z-1.7000 F120
G01 X-82.5137 Y-23.6041 F150
G01 X-82.3890 Y-23.7073
G01 X-82.2538 Y-23.7965
G01 X-82.1098 Y-23.8704
G01 X-81.9585 Y-23.9283
G01 X-81.8019 Y-23.9695
G01 X-81.6418 Y-23.9935
G01 X-81.4800 Y-24.0000
G01 X-31.5000
G01 X-31.3026 Y-23.9869
G01 X-31.1085 Y-23.9480
G01 X-30.9214 Y-23.8839
G01 X-30.7442 Y-23.7957
G01 X-30.5802 Y-23.6849
G01 X-30.4323 Y-23.5535
G01 X-30.3029 Y-23.4038
G01 X-30.1943 Y-23.2384
G01 X-30.1085 Y-23.0601
G01 X-30.0468 Y-22.8721
G01 X-30.0104 Y-22.6776
G01 X-30.0000 Y-22.4800
G01 Y17.5000
G01 X-30.0131 Y17.6974
G01 X-30.0520 Y17.8915
G01 X-30.1161 Y18.0786
G01 X-30.2043 Y18.2558
G01 X-30.3151 Y18.4198
G01 X-30.4465 Y18.5677
G01 X-30.5962 Y18.6971
G01 X-30.7616 Y18.8057
G01 X-30.9399 Y18.8915
G01 X-31.1279 Y18.9532
G01 X-31.3224 Y18.9896
G01 X-31.5200 Y19.0000
G01 X-81.5000
G01 X-81.6877 Y18.9884
G01 X-81.8724 Y18.9533
G01 X-82.0512 Y18.8953
G01 X-82.2214 Y18.8154
G01 X-82.3802 Y18.7148
G01 X-82.5252 Y18.5950
G01 X-82.6540 Y18.4581
G01 X-82.7646 Y18.3061
G01 X-82.8553 Y18.1414
G01 X-82.9246 Y17.9666
G01 X-82.9715 Y17.7845
G01 X-82.9952 Y17.5980
G01 X-83.0000 Y17.4800
G01 Y-22.5000
G01 X-82.9932 Y-22.6179
G01 X-82.9551 Y-22.8547
G01 X-82.8799 Y-23.0824
G01 X-82.7695 Y-23.2953
G01 X-82.6266 Y-23.4879
G00 Z1.0000 F500


;No. 11: Part 2
G00 X-28.9856 Y-22.6956 Z1.0000 F3000
G00 Z0.5000 F500
G01 Z-0.4500 F120
G01 X-28.9509 Y-22.8736 F150
G01 X-28.8950 Y-23.0462
G01 X-28.8188 Y-23.2107
G01 X-28.7232 Y-23.3649
G01 X-28.6098 Y-23.5064
G01 X-28.4801 Y-23.6333
G01 X-28.3361 Y-23.7435
G01 X-28.1799 Y-23.8357
G01 X-28.0137 Y-23.9083
G01 X-27.8399 Y-23.9603
G01 X-27.6612 Y-23.9910
G01 X-27.4800 Y-24.0000
G01 X8.5000
G01 X8.6974 Y-23.9869
G01 X8.8915 Y-23.9480
G01 X9.0786 Y-23.8839
G01 X9.2558 Y-23.7957
G01 X9.4198 Y-23.6849
G01 X9.5677 Y-23.5535
G01 X9.6971 Y-23.4038
G01 X9.8057 Y-23.2384
G01 X9.8915 Y-23.0601
G01 X9.9532 Y-22.8721
G01 X9.9896 Y-22.6776
G01 X10.0000 Y-22.4800
G01 Y-2.5000
G01 X9.9869 Y-2.3026
G01 X9.9480 Y-2.1085
G01 X9.8839 Y-1.9214
G01 X9.7957 Y-1.7442
G01 X9.6849 Y-1.5802
G01 X9.5535 Y-1.4323
G01 X9.4038 Y-1.3029
G01 X9.2384 Y-1.1943
G01 X9.0601 Y-1.1085
G01 X8.8721 Y-1.0468
G01 X8.6776 Y-1.0104
G01 X8.4800 Y-1.0000
G01 X-27.5000
G01 X-27.6877 Y-1.0116
G01 X-27.8724 Y-1.0467
G01 X-28.0512 Y-1.1047
G01 X-28.2214 Y-1.1846
G01 X-28.3802 Y-1.2852
G01 X-28.5252 Y-1.4050
G01 X-28.6540 Y-1.5419
G01 X-28.7646 Y-1.6939
G01 X-28.8553 Y-1.8586
G01 X-28.9246 Y-2.0334
G01 X-28.9715 Y-2.2155
G01 X-28.9952 Y-2.4020
G01 X-29.0000 Y-2.5200
G01 Y-22.5000
G01 X-28.9932 Y-22.6179
G01 X-28.9856 Y-22.6956
G01 Z-0.9000 F120
G01 X-28.9509 Y-22.8736 F150
G01 X-28.8950 Y-23.0462
G01 X-28.8188 Y-23.2107
G01 X-28.7232 Y-23.3649
G01 X-28.6098 Y-23.5064
G01 X-28.4801 Y-23.6333
G01 X-28.3361 Y-23.7435
G01 X-28.1799 Y-23.8357
G01 X-28.0137 Y-23.9083
G01 X-27.8399 Y-23.9603
G01 X-27.6612 Y-23.9910
G01 X-27.4800 Y-24.0000
G01 X8.5000
G01 X8.6974 Y-23.9869
G01 X8.8915 Y-23.9480
G01 X9.0786 Y-23.8839
G01 X9.2558 Y-23.7957
G01 X9.4198 Y-23.6849
G01 X9.5677 Y-23.5535
G01 X9.6971 Y-23.4038
G01 X9.8057 Y-23.2384
G01 X9.8915 Y-23.0601
G01 X9.9532 Y-22.8721
G01 X9.9896 Y-22.6776
G01 X10.0000 Y-22.4800
G01 Y-2.5000
G01 X9.9869 Y-2.3026
G01 X9.9480 Y-2.1085
G01 X9.8839 Y-1.9214
G01 X9.7957 Y-1.7442
G01 X9.6849 Y-1.5802
G01 X9.5535 Y-1.4323
G01 X9.4038 Y-1.3029
G01 X9.2384 Y-1.1943
G01 X9.0601 Y-1.1085
G01 X8.8721 Y-1.0468
G01 X8.6776 Y-1.0104
G01 X8.4800 Y-1.0000
G01 X-27.5000
G01 X-27.6877 Y-1.0116
G01 X-27.8724 Y-1.0467
G01 X-28.0512 Y-1.1047
G01 X-28.2214 Y-1.1846
G01 X-28.3802 Y-1.2852
G01 X-28.5252 Y-1.4050
G01 X-28.6540 Y-1.5419
G01 X-28.7646 Y-1.6939
G01 X-28.8553 Y-1.8586
G01 X-28.9246 Y-2.0334
G01 X-28.9715 Y-2.2155
G01 X-28.9952 Y-2.4020
G01 X-29.0000 Y-2.5200
G01 Y-22.5000
G01 X-28.9932 Y-22.6179
G01 X-28.9856 Y-22.6956
G01 Z-1.3500 F120
G01 X-28.9509 Y-22.8736 F150
G01 X-28.8950 Y-23.0462
G01 X-28.8188 Y-23.2107
G01 X-28.7232 Y-23.3649
G01 X-28.6098 Y-23.5064
G01 X-28.4801 Y-23.6333
G01 X-28.3361 Y-23.7435
G01 X-28.1799 Y-23.8357
G01 X-28.0137 Y-23.9083
G01 X-27.8399 Y-23.9603
G01 X-27.6612 Y-23.9910
G01 X-27.4800 Y-24.0000
G01 X8.5000
G01 X8.6974 Y-23.9869
G01 X8.8915 Y-23.9480
G01 X9.0786 Y-23.8839
G01 X9.2558 Y-23.7957
G01 X9.4198 Y-23.6849
G01 X9.5677 Y-23.5535
G01 X9.6971 Y-23.4038
G01 X9.8057 Y-23.2384
G01 X9.8915 Y-23.0601
G01 X9.9532 Y-22.8721
G01 X9.9896 Y-22.6776
G01 X10.0000 Y-22.4800
G01 Y-2.5000
G01 X9.9869 Y-2.3026
G01 X9.9480 Y-2.1085
G01 X9.8839 Y-1.9214
G01 X9.7957 Y-1.7442
G01 X9.6849 Y-1.5802
G01 X9.5535 Y-1.4323
G01 X9.4038 Y-1.3029
G01 X9.2384 Y-1.1943
G01 X9.0601 Y-1.1085
G01 X8.8721 Y-1.0468
G01 X8.6776 Y-1.0104
G01 X8.4800 Y-1.0000
G01 X-27.5000
G01 X-27.6877 Y-1.0116
G01 X-27.8724 Y-1.0467
G01 X-28.0512 Y-1.1047
G01 X-28.2214 Y-1.1846
G01 X-28.3802 Y-1.2852
G01 X-28.5252 Y-1.4050
G01 X-28.6540 Y-1.5419
G01 X-28.7646 Y-1.6939
G01 X-28.8553 Y-1.8586
G01 X-28.9246 Y-2.0334
G01 X-28.9715 Y-2.2155
G01 X-28.9952 Y-2.4020
G01 X-29.0000 Y-2.5200
G01 Y-22.5000
G01 X-28.9932 Y-22.6179
G01 X-28.9856 Y-22.6956
G01 Z-1.7000 F120
G01 X-28.9509 Y-22.8736 F150
G01 X-28.8950 Y-23.0462
G01 X-28.8188 Y-23.2107
G01 X-28.7232 Y-23.3649
G01 X-28.6098 Y-23.5064
G01 X-28.4801 Y-23.6333
G01 X-28.3361 Y-23.7435
G01 X-28.1799 Y-23.8357
G01 X-28.0137 Y-23.9083
G01 X-27.8399 Y-23.9603
G01 X-27.6612 Y-23.9910
G01 X-27.4800 Y-24.0000
G01 X8.5000
G01 X8.6974 Y-23.9869
G01 X8.8915 Y-23.9480
G01 X9.0786 Y-23.8839
G01 X9.2558 Y-23.7957
G01 X9.4198 Y-23.6849
G01 X9.5677 Y-23.5535
G01 X9.6971 Y-23.4038
G01 X9.8057 Y-23.2384
G01 X9.8915 Y-23.0601
G01 X9.9532 Y-22.8721
G01 X9.9896 Y-22.6776
G01 X10.0000 Y-22.4800
G01 Y-2.5000
G01 X9.9869 Y-2.3026
G01 X9.9480 Y-2.1085
G01 X9.8839 Y-1.9214
G01 X9.7957 Y-1.7442
G01 X9.6849 Y-1.5802
G01 X9.5535 Y-1.4323
G01 X9.4038 Y-1.3029
G01 X9.2384 Y-1.1943
G01 X9.0601 Y-1.1085
G01 X8.8721 Y-1.0468
G01 X8.6776 Y-1.0104
G01 X8.4800 Y-1.0000
G01 X-27.5000
G01 X-27.6877 Y-1.0116
G01 X-27.8724 Y-1.0467
G01 X-28.0512 Y-1.1047
G01 X-28.2214 Y-1.1846
G01 X-28.3802 Y-1.2852
G01 X-28.5252 Y-1.4050
G01 X-28.6540 Y-1.5419
G01 X-28.7646 Y-1.6939
G01 X-28.8553 Y-1.8586
G01 X-28.9246 Y-2.0334
G01 X-28.9715 Y-2.2155
G01 X-28.9952 Y-2.4020
G01 X-29.0000 Y-2.5200
G01 Y-22.5000
G01 X-28.9932 Y-22.6179
G01 X-28.9856 Y-22.6956
G00 Z1.0000 F500
G00 X0.0000 Y0.0000 F3000

M05
