;Project Corner35x35
;Created by Estlcam version 10 build 11.006
;Machining time about 00:06:57 hours

G90
G92 X0 Y0 Z0
M03 S24000
G00 Z1.0000 F500


;No. 1: Part 1
G00 X23.5082 Y36.6856 F3000
G00 Z0.5000 F500
G01 Z-1.2000 F120
G01 X23.4995 Y37.0368 F300
G01 X23.4821 Y37.2308
G01 X23.4397 Y37.4210
G01 X23.3730 Y37.6040
G01 X23.2831 Y37.7769
G01 X23.1716 Y37.9366
G01 X23.0404 Y38.0806
G01 X22.8916 Y38.2063
G01 X22.7277 Y38.3117
G01 X22.5516 Y38.3950
G01 X22.3662 Y38.4547
G01 X22.1746 Y38.4899
G01 X21.9800 Y38.5000
G01 X2.0000
G01 X1.8130 Y38.4883
G01 X1.6289 Y38.4534
G01 X1.4506 Y38.3958
G01 X1.2809 Y38.3164
G01 X1.1224 Y38.2164
G01 X0.9775 Y38.0975
G01 X0.8487 Y37.9615
G01 X0.7378 Y37.8105
G01 X0.6466 Y37.6468
G01 X0.5765 Y37.4730
G01 X0.5287 Y37.2918
G01 X0.5038 Y37.1061
G01 X0.5000 Y36.9800
G01 Y2.0000
G01 X0.5075 Y1.8502
G01 X0.5374 Y1.6673
G01 X0.5896 Y1.4894
G01 X0.6634 Y1.3193
G01 X0.7576 Y1.1596
G01 X0.8707 Y1.0127
G01 X1.0011 Y0.8810
G01 X1.1468 Y0.7663
G01 X1.3055 Y0.6704
G01 X1.4748 Y0.5949
G01 X1.6522 Y0.5408
G01 X1.8348 Y0.5090
G01 X2.0200 Y0.5000
G01 X37.0000
G01 X37.1974 Y0.5131
G01 X37.3915 Y0.5520
G01 X37.5786 Y0.6161
G01 X37.7558 Y0.7043
G01 X37.9198 Y0.8151
G01 X38.0677 Y0.9465
G01 X38.1971 Y1.0962
G01 X38.3057 Y1.2616
G01 X38.3915 Y1.4399
G01 X38.4532 Y1.6279
G01 X38.4896 Y1.8224
G01 X38.5000 Y2.0200
G01 Y22.0000
G01 X38.4883 Y22.1870
G01 X38.4534 Y22.3711
G01 X38.3958 Y22.5494
G01 X38.3164 Y22.7191
G01 X38.2164 Y22.8776
G01 X38.0975 Y23.0225
G01 X37.9615 Y23.1513
G01 X37.8105 Y23.2622
G01 X37.6468 Y23.3534
G01 X37.4730 Y23.4235
G01 X37.2918 Y23.4713
G01 X37.1061 Y23.4962
G01 X36.4501 Y23.5073
G01 X35.7954 Y23.5502
G01 X35.1436 Y23.6248
G01 X34.4962 Y23.7310
G01 X33.8547 Y23.8686
G01 X33.2206 Y24.0371
G01 X32.5955 Y24.2363
G01 X31.9808 Y24.4656
G01 X31.3779 Y24.7245
G01 X30.7884 Y25.0124
G01 X30.2135 Y25.3285
G01 X29.6547 Y25.6723
G01 X29.1132 Y26.0427
G01 X28.5904 Y26.4391
G01 X28.0874 Y26.8604
G01 X27.6055 Y27.3056
G01 X27.1458 Y27.7737
G01 X26.7094 Y28.2636
G01 X26.2973 Y28.7741
G01 X25.9105 Y29.3040
G01 X25.5499 Y29.8521
G01 X25.2163 Y30.4171
G01 X24.9106 Y30.9976
G01 X24.6334 Y31.5922
G01 X24.3855 Y32.1997
G01 X24.1674 Y32.8184
G01 X23.9796 Y33.4471
G01 X23.8225 Y34.0841
G01 X23.6966 Y34.7280
G01 X23.6021 Y35.3772
G01 X23.5393 Y36.0303
G01 X23.5082 Y36.6856
G01 Z-2.4000 F120
G01 X23.4995 Y37.0368 F300
G01 X23.4821 Y37.2308
G01 X23.4397 Y37.4210
G01 X23.3730 Y37.6040
G01 X23.2831 Y37.7769
G01 X23.1716 Y37.9366
G01 X23.0404 Y38.0806
G01 X22.8916 Y38.2063
G01 X22.7277 Y38.3117
G01 X22.5516 Y38.3950
G01 X22.3662 Y38.4547
G01 X22.1746 Y38.4899
G01 X21.9800 Y38.5000
G01 X2.0000
G01 X1.8130 Y38.4883
G01 X1.6289 Y38.4534
G01 X1.4506 Y38.3958
G01 X1.2809 Y38.3164
G01 X1.1224 Y38.2164
G01 X0.9775 Y38.0975
G01 X0.8487 Y37.9615
G01 X0.7378 Y37.8105
G01 X0.6466 Y37.6468
G01 X0.5765 Y37.4730
G01 X0.5287 Y37.2918
G01 X0.5038 Y37.1061
G01 X0.5000 Y36.9800
G01 Y2.0000
G01 X0.5075 Y1.8502
G01 X0.5374 Y1.6673
G01 X0.5896 Y1.4894
G01 X0.6634 Y1.3193
G01 X0.7576 Y1.1596
G01 X0.8707 Y1.0127
G01 X1.0011 Y0.8810
G01 X1.1468 Y0.7663
G01 X1.3055 Y0.6704
G01 X1.4748 Y0.5949
G01 X1.6522 Y0.5408
G01 X1.8348 Y0.5090
G01 X2.0200 Y0.5000
G01 X37.0000
G01 X37.1974 Y0.5131
G01 X37.3915 Y0.5520
G01 X37.5786 Y0.6161
G01 X37.7558 Y0.7043
G01 X37.9198 Y0.8151
G01 X38.0677 Y0.9465
G01 X38.1971 Y1.0962
G01 X38.3057 Y1.2616
G01 X38.3915 Y1.4399
G01 X38.4532 Y1.6279
G01 X38.4896 Y1.8224
G01 X38.5000 Y2.0200
G01 Y22.0000
G01 X38.4883 Y22.1870
G01 X38.4534 Y22.3711
G01 X38.3958 Y22.5494
G01 X38.3164 Y22.7191
G01 X38.2164 Y22.8776
G01 X38.0975 Y23.0225
G01 X37.9615 Y23.1513
G01 X37.8105 Y23.2622
G01 X37.6468 Y23.3534
G01 X37.4730 Y23.4235
G01 X37.2918 Y23.4713
G01 X37.1061 Y23.4962
G01 X36.4501 Y23.5073
G01 X35.7954 Y23.5502
G01 X35.1436 Y23.6248
G01 X34.4962 Y23.7310
G01 X33.8547 Y23.8686
G01 X33.2206 Y24.0371
G01 X32.5955 Y24.2363
G01 X31.9808 Y24.4656
G01 X31.3779 Y24.7245
G01 X30.7884 Y25.0124
G01 X30.2135 Y25.3285
G01 X29.6547 Y25.6723
G01 X29.1132 Y26.0427
G01 X28.5904 Y26.4391
G01 X28.0874 Y26.8604
G01 X27.6055 Y27.3056
G01 X27.1458 Y27.7737
G01 X26.7094 Y28.2636
G01 X26.2973 Y28.7741
G01 X25.9105 Y29.3040
G01 X25.5499 Y29.8521
G01 X25.2163 Y30.4171
G01 X24.9106 Y30.9976
G01 X24.6334 Y31.5922
G01 X24.3855 Y32.1997
G01 X24.1674 Y32.8184
G01 X23.9796 Y33.4471
G01 X23.8225 Y34.0841
G01 X23.6966 Y34.7280
G01 X23.6021 Y35.3772
G01 X23.5393 Y36.0303
G01 X23.5082 Y36.6856
G01 Z-3.6000 F120
G01 X23.4995 Y37.0368 F300
G01 X23.4821 Y37.2308
G01 X23.4397 Y37.4210
G01 X23.3730 Y37.6040
G01 X23.2831 Y37.7769
G01 X23.1716 Y37.9366
G01 X23.0404 Y38.0806
G01 X22.8916 Y38.2063
G01 X22.7277 Y38.3117
G01 X22.5516 Y38.3950
G01 X22.3662 Y38.4547
G01 X22.1746 Y38.4899
G01 X21.9800 Y38.5000
G01 X2.0000
G01 X1.8130 Y38.4883
G01 X1.6289 Y38.4534
G01 X1.4506 Y38.3958
G01 X1.2809 Y38.3164
G01 X1.1224 Y38.2164
G01 X0.9775 Y38.0975
G01 X0.8487 Y37.9615
G01 X0.7378 Y37.8105
G01 X0.6466 Y37.6468
G01 X0.5765 Y37.4730
G01 X0.5287 Y37.2918
G01 X0.5038 Y37.1061
G01 X0.5000 Y36.9800
G01 Y2.0000
G01 X0.5075 Y1.8502
G01 X0.5374 Y1.6673
G01 X0.5896 Y1.4894
G01 X0.6634 Y1.3193
G01 X0.7576 Y1.1596
G01 X0.8707 Y1.0127
G01 X1.0011 Y0.8810
G01 X1.1468 Y0.7663
G01 X1.3055 Y0.6704
G01 X1.4748 Y0.5949
G01 X1.6522 Y0.5408
G01 X1.8348 Y0.5090
G01 X2.0200 Y0.5000
G01 X37.0000
G01 X37.1974 Y0.5131
G01 X37.3915 Y0.5520
G01 X37.5786 Y0.6161
G01 X37.7558 Y0.7043
G01 X37.9198 Y0.8151
G01 X38.0677 Y0.9465
G01 X38.1971 Y1.0962
G01 X38.3057 Y1.2616
G01 X38.3915 Y1.4399
G01 X38.4532 Y1.6279
G01 X38.4896 Y1.8224
G01 X38.5000 Y2.0200
G01 Y22.0000
G01 X38.4883 Y22.1870
G01 X38.4534 Y22.3711
G01 X38.3958 Y22.5494
G01 X38.3164 Y22.7191
G01 X38.2164 Y22.8776
G01 X38.0975 Y23.0225
G01 X37.9615 Y23.1513
G01 X37.8105 Y23.2622
G01 X37.6468 Y23.3534
G01 X37.4730 Y23.4235
G01 X37.2918 Y23.4713
G01 X37.1061 Y23.4962
G01 X36.4501 Y23.5073
G01 X35.7954 Y23.5502
G01 X35.1436 Y23.6248
G01 X34.4962 Y23.7310
G01 X33.8547 Y23.8686
G01 X33.2206 Y24.0371
G01 X32.5955 Y24.2363
G01 X31.9808 Y24.4656
G01 X31.3779 Y24.7245
G01 X30.7884 Y25.0124
G01 X30.2135 Y25.3285
G01 X29.6547 Y25.6723
G01 X29.1132 Y26.0427
G01 X28.5904 Y26.4391
G01 X28.0874 Y26.8604
G01 X27.6055 Y27.3056
G01 X27.1458 Y27.7737
G01 X26.7094 Y28.2636
G01 X26.2973 Y28.7741
G01 X25.9105 Y29.3040
G01 X25.5499 Y29.8521
G01 X25.2163 Y30.4171
G01 X24.9106 Y30.9976
G01 X24.6334 Y31.5922
G01 X24.3855 Y32.1997
G01 X24.1674 Y32.8184
G01 X23.9796 Y33.4471
G01 X23.8225 Y34.0841
G01 X23.6966 Y34.7280
G01 X23.6021 Y35.3772
G01 X23.5393 Y36.0303
G01 X23.5082 Y36.6856
G01 Z-4.8000 F120
G01 X23.4995 Y37.0368 F300
G01 X23.4821 Y37.2308
G01 X23.4397 Y37.4210
G01 X23.3730 Y37.6040
G01 X23.2831 Y37.7769
G01 X23.1716 Y37.9366
G01 X23.0404 Y38.0806
G01 X22.8916 Y38.2063
G01 X22.7277 Y38.3117
G01 X22.5516 Y38.3950
G01 X22.3662 Y38.4547
G01 X22.1746 Y38.4899
G01 X21.9800 Y38.5000
G01 X2.0000
G01 X1.8130 Y38.4883
G01 X1.6289 Y38.4534
G01 X1.4506 Y38.3958
G01 X1.2809 Y38.3164
G01 X1.1224 Y38.2164
G01 X0.9775 Y38.0975
G01 X0.8487 Y37.9615
G01 X0.7378 Y37.8105
G01 X0.6466 Y37.6468
G01 X0.5765 Y37.4730
G01 X0.5287 Y37.2918
G01 X0.5038 Y37.1061
G01 X0.5000 Y36.9800
G01 Y2.0000
G01 X0.5075 Y1.8502
G01 X0.5374 Y1.6673
G01 X0.5896 Y1.4894
G01 X0.6634 Y1.3193
G01 X0.7576 Y1.1596
G01 X0.8707 Y1.0127
G01 X1.0011 Y0.8810
G01 X1.1468 Y0.7663
G01 X1.3055 Y0.6704
G01 X1.4748 Y0.5949
G01 X1.6522 Y0.5408
G01 X1.8348 Y0.5090
G01 X2.0200 Y0.5000
G01 X37.0000
G01 X37.1974 Y0.5131
G01 X37.3915 Y0.5520
G01 X37.5786 Y0.6161
G01 X37.7558 Y0.7043
G01 X37.9198 Y0.8151
G01 X38.0677 Y0.9465
G01 X38.1971 Y1.0962
G01 X38.3057 Y1.2616
G01 X38.3915 Y1.4399
G01 X38.4532 Y1.6279
G01 X38.4896 Y1.8224
G01 X38.5000 Y2.0200
G01 Y22.0000
G01 X38.4883 Y22.1870
G01 X38.4534 Y22.3711
G01 X38.3958 Y22.5494
G01 X38.3164 Y22.7191
G01 X38.2164 Y22.8776
G01 X38.0975 Y23.0225
G01 X37.9615 Y23.1513
G01 X37.8105 Y23.2622
G01 X37.6468 Y23.3534
G01 X37.4730 Y23.4235
G01 X37.2918 Y23.4713
G01 X37.1061 Y23.4962
G01 X36.4501 Y23.5073
G01 X35.7954 Y23.5502
G01 X35.1436 Y23.6248
G01 X34.4962 Y23.7310
G01 X33.8547 Y23.8686
G01 X33.2206 Y24.0371
G01 X32.5955 Y24.2363
G01 X31.9808 Y24.4656
G01 X31.3779 Y24.7245
G01 X30.7884 Y25.0124
G01 X30.2135 Y25.3285
G01 X29.6547 Y25.6723
G01 X29.1132 Y26.0427
G01 X28.5904 Y26.4391
G01 X28.0874 Y26.8604
G01 X27.6055 Y27.3056
G01 X27.1458 Y27.7737
G01 X26.7094 Y28.2636
G01 X26.2973 Y28.7741
G01 X25.9105 Y29.3040
G01 X25.5499 Y29.8521
G01 X25.2163 Y30.4171
G01 X24.9106 Y30.9976
G01 X24.6334 Y31.5922
G01 X24.3855 Y32.1997
G01 X24.1674 Y32.8184
G01 X23.9796 Y33.4471
G01 X23.8225 Y34.0841
G01 X23.6966 Y34.7280
G01 X23.6021 Y35.3772
G01 X23.5393 Y36.0303
G01 X23.5082 Y36.6856
G01 Z-6.0000 F120
G01 X23.4995 Y37.0368 F300
G01 X23.4821 Y37.2308
G01 X23.4397 Y37.4210
G01 X23.3730 Y37.6040
G01 X23.2831 Y37.7769
G01 X23.1716 Y37.9366
G01 X23.0404 Y38.0806
G01 X22.8916 Y38.2063
G01 X22.7277 Y38.3117
G01 X22.5516 Y38.3950
G01 X22.3662 Y38.4547
G01 X22.1746 Y38.4899
G01 X21.9800 Y38.5000
G01 X2.0000
G01 X1.8130 Y38.4883
G01 X1.6289 Y38.4534
G01 X1.4506 Y38.3958
G01 X1.2809 Y38.3164
G01 X1.1224 Y38.2164
G01 X0.9775 Y38.0975
G01 X0.8487 Y37.9615
G01 X0.7378 Y37.8105
G01 X0.6466 Y37.6468
G01 X0.5765 Y37.4730
G01 X0.5287 Y37.2918
G01 X0.5038 Y37.1061
G01 X0.5000 Y36.9800
G01 Y2.0000
G01 X0.5075 Y1.8502
G01 X0.5374 Y1.6673
G01 X0.5896 Y1.4894
G01 X0.6634 Y1.3193
G01 X0.7576 Y1.1596
G01 X0.8707 Y1.0127
G01 X1.0011 Y0.8810
G01 X1.1468 Y0.7663
G01 X1.3055 Y0.6704
G01 X1.4748 Y0.5949
G01 X1.6522 Y0.5408
G01 X1.8348 Y0.5090
G01 X2.0200 Y0.5000
G01 X37.0000
G01 X37.1974 Y0.5131
G01 X37.3915 Y0.5520
G01 X37.5786 Y0.6161
G01 X37.7558 Y0.7043
G01 X37.9198 Y0.8151
G01 X38.0677 Y0.9465
G01 X38.1971 Y1.0962
G01 X38.3057 Y1.2616
G01 X38.3915 Y1.4399
G01 X38.4532 Y1.6279
G01 X38.4896 Y1.8224
G01 X38.5000 Y2.0200
G01 Y22.0000
G01 X38.4883 Y22.1870
G01 X38.4534 Y22.3711
G01 X38.3958 Y22.5494
G01 X38.3164 Y22.7191
G01 X38.2164 Y22.8776
G01 X38.0975 Y23.0225
G01 X37.9615 Y23.1513
G01 X37.8105 Y23.2622
G01 X37.6468 Y23.3534
G01 X37.4730 Y23.4235
G01 X37.2918 Y23.4713
G01 X37.1061 Y23.4962
G01 X36.4501 Y23.5073
G01 X35.7954 Y23.5502
G01 X35.1436 Y23.6248
G01 X34.4962 Y23.7310
G01 X33.8547 Y23.8686
G01 X33.2206 Y24.0371
G01 X32.5955 Y24.2363
G01 X31.9808 Y24.4656
G01 X31.3779 Y24.7245
G01 X30.7884 Y25.0124
G01 X30.2135 Y25.3285
G01 X29.6547 Y25.6723
G01 X29.1132 Y26.0427
G01 X28.5904 Y26.4391
G01 X28.0874 Y26.8604
G01 X27.6055 Y27.3056
G01 X27.1458 Y27.7737
G01 X26.7094 Y28.2636
G01 X26.2973 Y28.7741
G01 X25.9105 Y29.3040
G01 X25.5499 Y29.8521
G01 X25.2163 Y30.4171
G01 X24.9106 Y30.9976
G01 X24.6334 Y31.5922
G01 X24.3855 Y32.1997
G01 X24.1674 Y32.8184
G01 X23.9796 Y33.4471
G01 X23.8225 Y34.0841
G01 X23.6966 Y34.7280
G01 X23.6021 Y35.3772
G01 X23.5393 Y36.0303
G01 X23.5082 Y36.6856
G01 Z-7.2000 F120
G01 X23.4995 Y37.0368 F300
G01 X23.4821 Y37.2308
G01 X23.4397 Y37.4210
G01 X23.3730 Y37.6040
G01 X23.2831 Y37.7769
G01 X23.1716 Y37.9366
G01 X23.0404 Y38.0806
G01 X22.8916 Y38.2063
G01 X22.7277 Y38.3117
G01 X22.5516 Y38.3950
G01 X22.3662 Y38.4547
G01 X22.1746 Y38.4899
G01 X21.9800 Y38.5000
G01 X2.0000
G01 X1.8130 Y38.4883
G01 X1.6289 Y38.4534
G01 X1.4506 Y38.3958
G01 X1.2809 Y38.3164
G01 X1.1224 Y38.2164
G01 X0.9775 Y38.0975
G01 X0.8487 Y37.9615
G01 X0.7378 Y37.8105
G01 X0.6466 Y37.6468
G01 X0.5765 Y37.4730
G01 X0.5287 Y37.2918
G01 X0.5038 Y37.1061
G01 X0.5000 Y36.9800
G01 Y2.0000
G01 X0.5075 Y1.8502
G01 X0.5374 Y1.6673
G01 X0.5896 Y1.4894
G01 X0.6634 Y1.3193
G01 X0.7576 Y1.1596
G01 X0.8707 Y1.0127
G01 X1.0011 Y0.8810
G01 X1.1468 Y0.7663
G01 X1.3055 Y0.6704
G01 X1.4748 Y0.5949
G01 X1.6522 Y0.5408
G01 X1.8348 Y0.5090
G01 X2.0200 Y0.5000
G01 X37.0000
G01 X37.1974 Y0.5131
G01 X37.3915 Y0.5520
G01 X37.5786 Y0.6161
G01 X37.7558 Y0.7043
G01 X37.9198 Y0.8151
G01 X38.0677 Y0.9465
G01 X38.1971 Y1.0962
G01 X38.3057 Y1.2616
G01 X38.3915 Y1.4399
G01 X38.4532 Y1.6279
G01 X38.4896 Y1.8224
G01 X38.5000 Y2.0200
G01 Y22.0000
G01 X38.4883 Y22.1870
G01 X38.4534 Y22.3711
G01 X38.3958 Y22.5494
G01 X38.3164 Y22.7191
G01 X38.2164 Y22.8776
G01 X38.0975 Y23.0225
G01 X37.9615 Y23.1513
G01 X37.8105 Y23.2622
G01 X37.6468 Y23.3534
G01 X37.4730 Y23.4235
G01 X37.2918 Y23.4713
G01 X37.1061 Y23.4962
G01 X36.4501 Y23.5073
G01 X35.7954 Y23.5502
G01 X35.1436 Y23.6248
G01 X34.4962 Y23.7310
G01 X33.8547 Y23.8686
G01 X33.2206 Y24.0371
G01 X32.5955 Y24.2363
G01 X31.9808 Y24.4656
G01 X31.3779 Y24.7245
G01 X30.7884 Y25.0124
G01 X30.2135 Y25.3285
G01 X29.6547 Y25.6723
G01 X29.1132 Y26.0427
G01 X28.5904 Y26.4391
G01 X28.0874 Y26.8604
G01 X27.6055 Y27.3056
G01 X27.1458 Y27.7737
G01 X26.7094 Y28.2636
G01 X26.2973 Y28.7741
G01 X25.9105 Y29.3040
G01 X25.5499 Y29.8521
G01 X25.2163 Y30.4171
G01 X24.9106 Y30.9976
G01 X24.6334 Y31.5922
G01 X24.3855 Y32.1997
G01 X24.1674 Y32.8184
G01 X23.9796 Y33.4471
G01 X23.8225 Y34.0841
G01 X23.6966 Y34.7280
G01 X23.6021 Y35.3772
G01 X23.5393 Y36.0303
G01 X23.5082 Y36.6856
G01 Z-8.4000 F120
G01 X23.4995 Y37.0368 F300
G01 X23.4821 Y37.2308
G01 X23.4397 Y37.4210
G01 X23.3730 Y37.6040
G01 X23.2831 Y37.7769
G01 X23.1716 Y37.9366
G01 X23.0404 Y38.0806
G01 X22.8916 Y38.2063
G01 X22.7277 Y38.3117
G01 X22.5516 Y38.3950
G01 X22.3662 Y38.4547
G01 X22.1746 Y38.4899
G01 X21.9800 Y38.5000
G01 X2.0000
G01 X1.8130 Y38.4883
G01 X1.6289 Y38.4534
G01 X1.4506 Y38.3958
G01 X1.2809 Y38.3164
G01 X1.1224 Y38.2164
G01 X0.9775 Y38.0975
G01 X0.8487 Y37.9615
G01 X0.7378 Y37.8105
G01 X0.6466 Y37.6468
G01 X0.5765 Y37.4730
G01 X0.5287 Y37.2918
G01 X0.5038 Y37.1061
G01 X0.5000 Y36.9800
G01 Y2.0000
G01 X0.5075 Y1.8502
G01 X0.5374 Y1.6673
G01 X0.5896 Y1.4894
G01 X0.6634 Y1.3193
G01 X0.7576 Y1.1596
G01 X0.8707 Y1.0127
G01 X1.0011 Y0.8810
G01 X1.1468 Y0.7663
G01 X1.3055 Y0.6704
G01 X1.4748 Y0.5949
G01 X1.6522 Y0.5408
G01 X1.8348 Y0.5090
G01 X2.0200 Y0.5000
G01 X37.0000
G01 X37.1974 Y0.5131
G01 X37.3915 Y0.5520
G01 X37.5786 Y0.6161
G01 X37.7558 Y0.7043
G01 X37.9198 Y0.8151
G01 X38.0677 Y0.9465
G01 X38.1971 Y1.0962
G01 X38.3057 Y1.2616
G01 X38.3915 Y1.4399
G01 X38.4532 Y1.6279
G01 X38.4896 Y1.8224
G01 X38.5000 Y2.0200
G01 Y22.0000
G01 X38.4883 Y22.1870
G01 X38.4534 Y22.3711
G01 X38.3958 Y22.5494
G01 X38.3164 Y22.7191
G01 X38.2164 Y22.8776
G01 X38.0975 Y23.0225
G01 X37.9615 Y23.1513
G01 X37.8105 Y23.2622
G01 X37.6468 Y23.3534
G01 X37.4730 Y23.4235
G01 X37.2918 Y23.4713
G01 X37.1061 Y23.4962
G01 X36.4501 Y23.5073
G01 X35.7954 Y23.5502
G01 X35.1436 Y23.6248
G01 X34.4962 Y23.7310
G01 X33.8547 Y23.8686
G01 X33.2206 Y24.0371
G01 X32.5955 Y24.2363
G01 X31.9808 Y24.4656
G01 X31.3779 Y24.7245
G01 X30.7884 Y25.0124
G01 X30.2135 Y25.3285
G01 X29.6547 Y25.6723
G01 X29.1132 Y26.0427
G01 X28.5904 Y26.4391
G01 X28.0874 Y26.8604
G01 X27.6055 Y27.3056
G01 X27.1458 Y27.7737
G01 X26.7094 Y28.2636
G01 X26.2973 Y28.7741
G01 X25.9105 Y29.3040
G01 X25.5499 Y29.8521
G01 X25.2163 Y30.4171
G01 X24.9106 Y30.9976
G01 X24.6334 Y31.5922
G01 X24.3855 Y32.1997
G01 X24.1674 Y32.8184
G01 X23.9796 Y33.4471
G01 X23.8225 Y34.0841
G01 X23.6966 Y34.7280
G01 X23.6021 Y35.3772
G01 X23.5393 Y36.0303
G01 X23.5082 Y36.6856
G01 Z-9.6000 F120
G01 X23.4995 Y37.0368 F300
G01 X23.4821 Y37.2308
G01 X23.4397 Y37.4210
G01 X23.3730 Y37.6040
G01 X23.2831 Y37.7769
G01 X23.1716 Y37.9366
G01 X23.0404 Y38.0806
G01 X22.8916 Y38.2063
G01 X22.7277 Y38.3117
G01 X22.5516 Y38.3950
G01 X22.3662 Y38.4547
G01 X22.1746 Y38.4899
G01 X21.9800 Y38.5000
G01 X2.0000
G01 X1.8130 Y38.4883
G01 X1.6289 Y38.4534
G01 X1.4506 Y38.3958
G01 X1.2809 Y38.3164
G01 X1.1224 Y38.2164
G01 X0.9775 Y38.0975
G01 X0.8487 Y37.9615
G01 X0.7378 Y37.8105
G01 X0.6466 Y37.6468
G01 X0.5765 Y37.4730
G01 X0.5287 Y37.2918
G01 X0.5038 Y37.1061
G01 X0.5000 Y36.9800
G01 Y2.0000
G01 X0.5075 Y1.8502
G01 X0.5374 Y1.6673
G01 X0.5896 Y1.4894
G01 X0.6634 Y1.3193
G01 X0.7576 Y1.1596
G01 X0.8707 Y1.0127
G01 X1.0011 Y0.8810
G01 X1.1468 Y0.7663
G01 X1.3055 Y0.6704
G01 X1.4748 Y0.5949
G01 X1.6522 Y0.5408
G01 X1.8348 Y0.5090
G01 X2.0200 Y0.5000
G01 X37.0000
G01 X37.1974 Y0.5131
G01 X37.3915 Y0.5520
G01 X37.5786 Y0.6161
G01 X37.7558 Y0.7043
G01 X37.9198 Y0.8151
G01 X38.0677 Y0.9465
G01 X38.1971 Y1.0962
G01 X38.3057 Y1.2616
G01 X38.3915 Y1.4399
G01 X38.4532 Y1.6279
G01 X38.4896 Y1.8224
G01 X38.5000 Y2.0200
G01 Y22.0000
G01 X38.4883 Y22.1870
G01 X38.4534 Y22.3711
G01 X38.3958 Y22.5494
G01 X38.3164 Y22.7191
G01 X38.2164 Y22.8776
G01 X38.0975 Y23.0225
G01 X37.9615 Y23.1513
G01 X37.8105 Y23.2622
G01 X37.6468 Y23.3534
G01 X37.4730 Y23.4235
G01 X37.2918 Y23.4713
G01 X37.1061 Y23.4962
G01 X36.4501 Y23.5073
G01 X35.7954 Y23.5502
G01 X35.1436 Y23.6248
G01 X34.4962 Y23.7310
G01 X33.8547 Y23.8686
G01 X33.2206 Y24.0371
G01 X32.5955 Y24.2363
G01 X31.9808 Y24.4656
G01 X31.3779 Y24.7245
G01 X30.7884 Y25.0124
G01 X30.2135 Y25.3285
G01 X29.6547 Y25.6723
G01 X29.1132 Y26.0427
G01 X28.5904 Y26.4391
G01 X28.0874 Y26.8604
G01 X27.6055 Y27.3056
G01 X27.1458 Y27.7737
G01 X26.7094 Y28.2636
G01 X26.2973 Y28.7741
G01 X25.9105 Y29.3040
G01 X25.5499 Y29.8521
G01 X25.2163 Y30.4171
G01 X24.9106 Y30.9976
G01 X24.6334 Y31.5922
G01 X24.3855 Y32.1997
G01 X24.1674 Y32.8184
G01 X23.9796 Y33.4471
G01 X23.8225 Y34.0841
G01 X23.6966 Y34.7280
G01 X23.6021 Y35.3772
G01 X23.5393 Y36.0303
G01 X23.5082 Y36.6856
G01 Z-10.8000 F120
G01 X23.4995 Y37.0368 F300
G01 X23.4821 Y37.2308
G01 X23.4397 Y37.4210
G01 X23.3730 Y37.6040
G01 X23.2831 Y37.7769
G01 X23.1716 Y37.9366
G01 X23.0404 Y38.0806
G01 X22.8916 Y38.2063
G01 X22.7277 Y38.3117
G01 X22.5516 Y38.3950
G01 X22.3662 Y38.4547
G01 X22.1746 Y38.4899
G01 X21.9800 Y38.5000
G01 X2.0000
G01 X1.8130 Y38.4883
G01 X1.6289 Y38.4534
G01 X1.4506 Y38.3958
G01 X1.2809 Y38.3164
G01 X1.1224 Y38.2164
G01 X0.9775 Y38.0975
G01 X0.8487 Y37.9615
G01 X0.7378 Y37.8105
G01 X0.6466 Y37.6468
G01 X0.5765 Y37.4730
G01 X0.5287 Y37.2918
G01 X0.5038 Y37.1061
G01 X0.5000 Y36.9800
G01 Y2.0000
G01 X0.5075 Y1.8502
G01 X0.5374 Y1.6673
G01 X0.5896 Y1.4894
G01 X0.6634 Y1.3193
G01 X0.7576 Y1.1596
G01 X0.8707 Y1.0127
G01 X1.0011 Y0.8810
G01 X1.1468 Y0.7663
G01 X1.3055 Y0.6704
G01 X1.4748 Y0.5949
G01 X1.6522 Y0.5408
G01 X1.8348 Y0.5090
G01 X2.0200 Y0.5000
G01 X37.0000
G01 X37.1974 Y0.5131
G01 X37.3915 Y0.5520
G01 X37.5786 Y0.6161
G01 X37.7558 Y0.7043
G01 X37.9198 Y0.8151
G01 X38.0677 Y0.9465
G01 X38.1971 Y1.0962
G01 X38.3057 Y1.2616
G01 X38.3915 Y1.4399
G01 X38.4532 Y1.6279
G01 X38.4896 Y1.8224
G01 X38.5000 Y2.0200
G01 Y22.0000
G01 X38.4883 Y22.1870
G01 X38.4534 Y22.3711
G01 X38.3958 Y22.5494
G01 X38.3164 Y22.7191
G01 X38.2164 Y22.8776
G01 X38.0975 Y23.0225
G01 X37.9615 Y23.1513
G01 X37.8105 Y23.2622
G01 X37.6468 Y23.3534
G01 X37.4730 Y23.4235
G01 X37.2918 Y23.4713
G01 X37.1061 Y23.4962
G01 X36.4501 Y23.5073
G01 X35.7954 Y23.5502
G01 X35.1436 Y23.6248
G01 X34.4962 Y23.7310
G01 X33.8547 Y23.8686
G01 X33.2206 Y24.0371
G01 X32.5955 Y24.2363
G01 X31.9808 Y24.4656
G01 X31.3779 Y24.7245
G01 X30.7884 Y25.0124
G01 X30.2135 Y25.3285
G01 X29.6547 Y25.6723
G01 X29.1132 Y26.0427
G01 X28.5904 Y26.4391
G01 X28.0874 Y26.8604
G01 X27.6055 Y27.3056
G01 X27.1458 Y27.7737
G01 X26.7094 Y28.2636
G01 X26.2973 Y28.7741
G01 X25.9105 Y29.3040
G01 X25.5499 Y29.8521
G01 X25.2163 Y30.4171
G01 X24.9106 Y30.9976
G01 X24.6334 Y31.5922
G01 X24.3855 Y32.1997
G01 X24.1674 Y32.8184
G01 X23.9796 Y33.4471
G01 X23.8225 Y34.0841
G01 X23.6966 Y34.7280
G01 X23.6021 Y35.3772
G01 X23.5393 Y36.0303
G01 X23.5082 Y36.6856
G01 Z-12.0000 F120
G01 X23.4995 Y37.0368 F300
G01 X23.4821 Y37.2308
G01 X23.4397 Y37.4210
G01 X23.3730 Y37.6040
G01 X23.2831 Y37.7769
G01 X23.1716 Y37.9366
G01 X23.0404 Y38.0806
G01 X22.8916 Y38.2063
G01 X22.7277 Y38.3117
G01 X22.5516 Y38.3950
G01 X22.3662 Y38.4547
G01 X22.1746 Y38.4899
G01 X21.9800 Y38.5000
G01 X2.0000
G01 X1.8130 Y38.4883
G01 X1.6289 Y38.4534
G01 X1.4506 Y38.3958
G01 X1.2809 Y38.3164
G01 X1.1224 Y38.2164
G01 X0.9775 Y38.0975
G01 X0.8487 Y37.9615
G01 X0.7378 Y37.8105
G01 X0.6466 Y37.6468
G01 X0.5765 Y37.4730
G01 X0.5287 Y37.2918
G01 X0.5038 Y37.1061
G01 X0.5000 Y36.9800
G01 Y2.0000
G01 X0.5075 Y1.8502
G01 X0.5374 Y1.6673
G01 X0.5896 Y1.4894
G01 X0.6634 Y1.3193
G01 X0.7576 Y1.1596
G01 X0.8707 Y1.0127
G01 X1.0011 Y0.8810
G01 X1.1468 Y0.7663
G01 X1.3055 Y0.6704
G01 X1.4748 Y0.5949
G01 X1.6522 Y0.5408
G01 X1.8348 Y0.5090
G01 X2.0200 Y0.5000
G01 X37.0000
G01 X37.1974 Y0.5131
G01 X37.3915 Y0.5520
G01 X37.5786 Y0.6161
G01 X37.7558 Y0.7043
G01 X37.9198 Y0.8151
G01 X38.0677 Y0.9465
G01 X38.1971 Y1.0962
G01 X38.3057 Y1.2616
G01 X38.3915 Y1.4399
G01 X38.4532 Y1.6279
G01 X38.4896 Y1.8224
G01 X38.5000 Y2.0200
G01 Y22.0000
G01 X38.4883 Y22.1870
G01 X38.4534 Y22.3711
G01 X38.3958 Y22.5494
G01 X38.3164 Y22.7191
G01 X38.2164 Y22.8776
G01 X38.0975 Y23.0225
G01 X37.9615 Y23.1513
G01 X37.8105 Y23.2622
G01 X37.6468 Y23.3534
G01 X37.4730 Y23.4235
G01 X37.2918 Y23.4713
G01 X37.1061 Y23.4962
G01 X36.4501 Y23.5073
G01 X35.7954 Y23.5502
G01 X35.1436 Y23.6248
G01 X34.4962 Y23.7310
G01 X33.8547 Y23.8686
G01 X33.2206 Y24.0371
G01 X32.5955 Y24.2363
G01 X31.9808 Y24.4656
G01 X31.3779 Y24.7245
G01 X30.7884 Y25.0124
G01 X30.2135 Y25.3285
G01 X29.6547 Y25.6723
G01 X29.1132 Y26.0427
G01 X28.5904 Y26.4391
G01 X28.0874 Y26.8604
G01 X27.6055 Y27.3056
G01 X27.1458 Y27.7737
G01 X26.7094 Y28.2636
G01 X26.2973 Y28.7741
G01 X25.9105 Y29.3040
G01 X25.5499 Y29.8521
G01 X25.2163 Y30.4171
G01 X24.9106 Y30.9976
G01 X24.6334 Y31.5922
G01 X24.3855 Y32.1997
G01 X24.1674 Y32.8184
G01 X23.9796 Y33.4471
G01 X23.8225 Y34.0841
G01 X23.6966 Y34.7280
G01 X23.6021 Y35.3772
G01 X23.5393 Y36.0303
G01 X23.5082 Y36.6856
G01 Z-13.2000 F120
G01 X23.4995 Y37.0368 F300
G01 X23.4821 Y37.2308
G01 X23.4397 Y37.4210
G01 X23.3730 Y37.6040
G01 X23.2831 Y37.7769
G01 X23.1716 Y37.9366
G01 X23.0404 Y38.0806
G01 X22.8916 Y38.2063
G01 X22.7277 Y38.3117
G01 X22.5516 Y38.3950
G01 X22.3662 Y38.4547
G01 X22.1746 Y38.4899
G01 X21.9800 Y38.5000
G01 X2.0000
G01 X1.8130 Y38.4883
G01 X1.6289 Y38.4534
G01 X1.4506 Y38.3958
G01 X1.2809 Y38.3164
G01 X1.1224 Y38.2164
G01 X0.9775 Y38.0975
G01 X0.8487 Y37.9615
G01 X0.7378 Y37.8105
G01 X0.6466 Y37.6468
G01 X0.5765 Y37.4730
G01 X0.5287 Y37.2918
G01 X0.5038 Y37.1061
G01 X0.5000 Y36.9800
G01 Y2.0000
G01 X0.5075 Y1.8502
G01 X0.5374 Y1.6673
G01 X0.5896 Y1.4894
G01 X0.6634 Y1.3193
G01 X0.7576 Y1.1596
G01 X0.8707 Y1.0127
G01 X1.0011 Y0.8810
G01 X1.1468 Y0.7663
G01 X1.3055 Y0.6704
G01 X1.4748 Y0.5949
G01 X1.6522 Y0.5408
G01 X1.8348 Y0.5090
G01 X2.0200 Y0.5000
G01 X37.0000
G01 X37.1974 Y0.5131
G01 X37.3915 Y0.5520
G01 X37.5786 Y0.6161
G01 X37.7558 Y0.7043
G01 X37.9198 Y0.8151
G01 X38.0677 Y0.9465
G01 X38.1971 Y1.0962
G01 X38.3057 Y1.2616
G01 X38.3915 Y1.4399
G01 X38.4532 Y1.6279
G01 X38.4896 Y1.8224
G01 X38.5000 Y2.0200
G01 Y22.0000
G01 X38.4883 Y22.1870
G01 X38.4534 Y22.3711
G01 X38.3958 Y22.5494
G01 X38.3164 Y22.7191
G01 X38.2164 Y22.8776
G01 X38.0975 Y23.0225
G01 X37.9615 Y23.1513
G01 X37.8105 Y23.2622
G01 X37.6468 Y23.3534
G01 X37.4730 Y23.4235
G01 X37.2918 Y23.4713
G01 X37.1061 Y23.4962
G01 X36.4501 Y23.5073
G01 X35.7954 Y23.5502
G01 X35.1436 Y23.6248
G01 X34.4962 Y23.7310
G01 X33.8547 Y23.8686
G01 X33.2206 Y24.0371
G01 X32.5955 Y24.2363
G01 X31.9808 Y24.4656
G01 X31.3779 Y24.7245
G01 X30.7884 Y25.0124
G01 X30.2135 Y25.3285
G01 X29.6547 Y25.6723
G01 X29.1132 Y26.0427
G01 X28.5904 Y26.4391
G01 X28.0874 Y26.8604
G01 X27.6055 Y27.3056
G01 X27.1458 Y27.7737
G01 X26.7094 Y28.2636
G01 X26.2973 Y28.7741
G01 X25.9105 Y29.3040
G01 X25.5499 Y29.8521
G01 X25.2163 Y30.4171
G01 X24.9106 Y30.9976
G01 X24.6334 Y31.5922
G01 X24.3855 Y32.1997
G01 X24.1674 Y32.8184
G01 X23.9796 Y33.4471
G01 X23.8225 Y34.0841
G01 X23.6966 Y34.7280
G01 X23.6021 Y35.3772
G01 X23.5393 Y36.0303
G01 X23.5082 Y36.6856
G01 Z-14.4000 F120
G01 X23.4995 Y37.0368 F300
G01 X23.4821 Y37.2308
G01 X23.4397 Y37.4210
G01 X23.3730 Y37.6040
G01 X23.2831 Y37.7769
G01 X23.1716 Y37.9366
G01 X23.0404 Y38.0806
G01 X22.8916 Y38.2063
G01 X22.7277 Y38.3117
G01 X22.5516 Y38.3950
G01 X22.3662 Y38.4547
G01 X22.1746 Y38.4899
G01 X21.9800 Y38.5000
G01 X2.0000
G01 X1.8130 Y38.4883
G01 X1.6289 Y38.4534
G01 X1.4506 Y38.3958
G01 X1.2809 Y38.3164
G01 X1.1224 Y38.2164
G01 X0.9775 Y38.0975
G01 X0.8487 Y37.9615
G01 X0.7378 Y37.8105
G01 X0.6466 Y37.6468
G01 X0.5765 Y37.4730
G01 X0.5287 Y37.2918
G01 X0.5038 Y37.1061
G01 X0.5000 Y36.9800
G01 Y2.0000
G01 X0.5075 Y1.8502
G01 X0.5374 Y1.6673
G01 X0.5896 Y1.4894
G01 X0.6634 Y1.3193
G01 X0.7576 Y1.1596
G01 X0.8707 Y1.0127
G01 X1.0011 Y0.8810
G01 X1.1468 Y0.7663
G01 X1.3055 Y0.6704
G01 X1.4748 Y0.5949
G01 X1.6522 Y0.5408
G01 X1.8348 Y0.5090
G01 X2.0200 Y0.5000
G01 X37.0000
G01 X37.1974 Y0.5131
G01 X37.3915 Y0.5520
G01 X37.5786 Y0.6161
G01 X37.7558 Y0.7043
G01 X37.9198 Y0.8151
G01 X38.0677 Y0.9465
G01 X38.1971 Y1.0962
G01 X38.3057 Y1.2616
G01 X38.3915 Y1.4399
G01 X38.4532 Y1.6279
G01 X38.4896 Y1.8224
G01 X38.5000 Y2.0200
G01 Y22.0000
G01 X38.4883 Y22.1870
G01 X38.4534 Y22.3711
G01 X38.3958 Y22.5494
G01 X38.3164 Y22.7191
G01 X38.2164 Y22.8776
G01 X38.0975 Y23.0225
G01 X37.9615 Y23.1513
G01 X37.8105 Y23.2622
G01 X37.6468 Y23.3534
G01 X37.4730 Y23.4235
G01 X37.2918 Y23.4713
G01 X37.1061 Y23.4962
G01 X36.4501 Y23.5073
G01 X35.7954 Y23.5502
G01 X35.1436 Y23.6248
G01 X34.4962 Y23.7310
G01 X33.8547 Y23.8686
G01 X33.2206 Y24.0371
G01 X32.5955 Y24.2363
G01 X31.9808 Y24.4656
G01 X31.3779 Y24.7245
G01 X30.7884 Y25.0124
G01 X30.2135 Y25.3285
G01 X29.6547 Y25.6723
G01 X29.1132 Y26.0427
G01 X28.5904 Y26.4391
G01 X28.0874 Y26.8604
G01 X27.6055 Y27.3056
G01 X27.1458 Y27.7737
G01 X26.7094 Y28.2636
G01 X26.2973 Y28.7741
G01 X25.9105 Y29.3040
G01 X25.5499 Y29.8521
G01 X25.2163 Y30.4171
G01 X24.9106 Y30.9976
G01 X24.6334 Y31.5922
G01 X24.3855 Y32.1997
G01 X24.1674 Y32.8184
G01 X23.9796 Y33.4471
G01 X23.8225 Y34.0841
G01 X23.6966 Y34.7280
G01 X23.6021 Y35.3772
G01 X23.5393 Y36.0303
G01 X23.5082 Y36.6856
G01 Z-15.6000 F120
G01 X23.4995 Y37.0368 F300
G01 X23.4821 Y37.2308
G01 X23.4397 Y37.4210
G01 X23.3730 Y37.6040
G01 X23.2831 Y37.7769
G01 X23.1716 Y37.9366
G01 X23.0404 Y38.0806
G01 X22.8916 Y38.2063
G01 X22.7277 Y38.3117
G01 X22.5516 Y38.3950
G01 X22.3662 Y38.4547
G01 X22.1746 Y38.4899
G01 X21.9800 Y38.5000
G01 X2.0000
G01 X1.8130 Y38.4883
G01 X1.6289 Y38.4534
G01 X1.4506 Y38.3958
G01 X1.2809 Y38.3164
G01 X1.1224 Y38.2164
G01 X0.9775 Y38.0975
G01 X0.8487 Y37.9615
G01 X0.7378 Y37.8105
G01 X0.6466 Y37.6468
G01 X0.5765 Y37.4730
G01 X0.5287 Y37.2918
G01 X0.5038 Y37.1061
G01 X0.5000 Y36.9800
G01 Y2.0000
G01 X0.5075 Y1.8502
G01 X0.5374 Y1.6673
G01 X0.5896 Y1.4894
G01 X0.6634 Y1.3193
G01 X0.7576 Y1.1596
G01 X0.8707 Y1.0127
G01 X1.0011 Y0.8810
G01 X1.1468 Y0.7663
G01 X1.3055 Y0.6704
G01 X1.4748 Y0.5949
G01 X1.6522 Y0.5408
G01 X1.8348 Y0.5090
G01 X2.0200 Y0.5000
G01 X37.0000
G01 X37.1974 Y0.5131
G01 X37.3915 Y0.5520
G01 X37.5786 Y0.6161
G01 X37.7558 Y0.7043
G01 X37.9198 Y0.8151
G01 X38.0677 Y0.9465
G01 X38.1971 Y1.0962
G01 X38.3057 Y1.2616
G01 X38.3915 Y1.4399
G01 X38.4532 Y1.6279
G01 X38.4896 Y1.8224
G01 X38.5000 Y2.0200
G01 Y22.0000
G01 X38.4883 Y22.1870
G01 X38.4534 Y22.3711
G01 X38.3958 Y22.5494
G01 X38.3164 Y22.7191
G01 X38.2164 Y22.8776
G01 X38.0975 Y23.0225
G01 X37.9615 Y23.1513
G01 X37.8105 Y23.2622
G01 X37.6468 Y23.3534
G01 X37.4730 Y23.4235
G01 X37.2918 Y23.4713
G01 X37.1061 Y23.4962
G01 X36.4501 Y23.5073
G01 X35.7954 Y23.5502
G01 X35.1436 Y23.6248
G01 X34.4962 Y23.7310
G01 X33.8547 Y23.8686
G01 X33.2206 Y24.0371
G01 X32.5955 Y24.2363
G01 X31.9808 Y24.4656
G01 X31.3779 Y24.7245
G01 X30.7884 Y25.0124
G01 X30.2135 Y25.3285
G01 X29.6547 Y25.6723
G01 X29.1132 Y26.0427
G01 X28.5904 Y26.4391
G01 X28.0874 Y26.8604
G01 X27.6055 Y27.3056
G01 X27.1458 Y27.7737
G01 X26.7094 Y28.2636
G01 X26.2973 Y28.7741
G01 X25.9105 Y29.3040
G01 X25.5499 Y29.8521
G01 X25.2163 Y30.4171
G01 X24.9106 Y30.9976
G01 X24.6334 Y31.5922
G01 X24.3855 Y32.1997
G01 X24.1674 Y32.8184
G01 X23.9796 Y33.4471
G01 X23.8225 Y34.0841
G01 X23.6966 Y34.7280
G01 X23.6021 Y35.3772
G01 X23.5393 Y36.0303
G01 X23.5082 Y36.6856
G01 Z-16.0000 F120
G01 X23.4995 Y37.0368 F300
G01 X23.4821 Y37.2308
G01 X23.4397 Y37.4210
G01 X23.3730 Y37.6040
G01 X23.2831 Y37.7769
G01 X23.1716 Y37.9366
G01 X23.0404 Y38.0806
G01 X22.8916 Y38.2063
G01 X22.7277 Y38.3117
G01 X22.5516 Y38.3950
G01 X22.3662 Y38.4547
G01 X22.1746 Y38.4899
G01 X21.9800 Y38.5000
G01 X2.0000
G01 X1.8130 Y38.4883
G01 X1.6289 Y38.4534
G01 X1.4506 Y38.3958
G01 X1.2809 Y38.3164
G01 X1.1224 Y38.2164
G01 X0.9775 Y38.0975
G01 X0.8487 Y37.9615
G01 X0.7378 Y37.8105
G01 X0.6466 Y37.6468
G01 X0.5765 Y37.4730
G01 X0.5287 Y37.2918
G01 X0.5038 Y37.1061
G01 X0.5000 Y36.9800
G01 Y2.0000
G01 X0.5075 Y1.8502
G01 X0.5374 Y1.6673
G01 X0.5896 Y1.4894
G01 X0.6634 Y1.3193
G01 X0.7576 Y1.1596
G01 X0.8707 Y1.0127
G01 X1.0011 Y0.8810
G01 X1.1468 Y0.7663
G01 X1.3055 Y0.6704
G01 X1.4748 Y0.5949
G01 X1.6522 Y0.5408
G01 X1.8348 Y0.5090
G01 X2.0200 Y0.5000
G01 X37.0000
G01 X37.1974 Y0.5131
G01 X37.3915 Y0.5520
G01 X37.5786 Y0.6161
G01 X37.7558 Y0.7043
G01 X37.9198 Y0.8151
G01 X38.0677 Y0.9465
G01 X38.1971 Y1.0962
G01 X38.3057 Y1.2616
G01 X38.3915 Y1.4399
G01 X38.4532 Y1.6279
G01 X38.4896 Y1.8224
G01 X38.5000 Y2.0200
G01 Y22.0000
G01 X38.4883 Y22.1870
G01 X38.4534 Y22.3711
G01 X38.3958 Y22.5494
G01 X38.3164 Y22.7191
G01 X38.2164 Y22.8776
G01 X38.0975 Y23.0225
G01 X37.9615 Y23.1513
G01 X37.8105 Y23.2622
G01 X37.6468 Y23.3534
G01 X37.4730 Y23.4235
G01 X37.2918 Y23.4713
G01 X37.1061 Y23.4962
G01 X36.4501 Y23.5073
G01 X35.7954 Y23.5502
G01 X35.1436 Y23.6248
G01 X34.4962 Y23.7310
G01 X33.8547 Y23.8686
G01 X33.2206 Y24.0371
G01 X32.5955 Y24.2363
G01 X31.9808 Y24.4656
G01 X31.3779 Y24.7245
G01 X30.7884 Y25.0124
G01 X30.2135 Y25.3285
G01 X29.6547 Y25.6723
G01 X29.1132 Y26.0427
G01 X28.5904 Y26.4391
G01 X28.0874 Y26.8604
G01 X27.6055 Y27.3056
G01 X27.1458 Y27.7737
G01 X26.7094 Y28.2636
G01 X26.2973 Y28.7741
G01 X25.9105 Y29.3040
G01 X25.5499 Y29.8521
G01 X25.2163 Y30.4171
G01 X24.9106 Y30.9976
G01 X24.6334 Y31.5922
G01 X24.3855 Y32.1997
G01 X24.1674 Y32.8184
G01 X23.9796 Y33.4471
G01 X23.8225 Y34.0841
G01 X23.6966 Y34.7280
G01 X23.6021 Y35.3772
G01 X23.5393 Y36.0303
G01 X23.5082 Y36.6856
G00 Z1.0000 F500
G00 X0.0000 Y0.0000 F3000

M05
