;Project AudioProcessor-F.Cu
;Created by Estlcam version 10 build 11.006
;Machining time about 01:27:47 hours

G90
G92 X0 Y0 Z0
M03 S24000
G00 Z1.0000 F500


;No. 1: Engraving 34
G00 X0.0000 Y315.0000 F3000
G00 Z0.5000 F500
G01 Z-1.0000 F120
G01 X0.0167 Y0.0260 F300
G00 Z1.0000 F500
G00 X0.0000 Y315.0000 F3000
G00 Z-0.5000 F500
G01 Z-2.0000 F120
G01 X0.0167 Y0.0260 F300
G00 Z1.0000 F500
G00 X0.0000 Y315.0000 F3000
G00 Z-1.5000 F500
G01 Z-3.0000 F120
G01 X0.0167 Y0.0260 F300
G00 Z1.0000 F500
G00 X0.0000 Y315.0000 F3000
G00 Z-2.5000 F500
G01 Z-4.0000 F120
G01 X0.0167 Y0.0260 F300
G00 Z1.0000 F500
G00 X0.0000 Y315.0000 F3000
G00 Z-3.5000 F500
G01 Z-5.0000 F120
G01 X0.0167 Y0.0260 F300
G00 Z1.0000 F500
G00 X0.0000 Y315.0000 F3000
G00 Z-4.5000 F500
G01 Z-6.0000 F120
G01 X0.0167 Y0.0260 F300
G00 Z1.0000 F500
G00 X0.0000 Y315.0000 F3000
G00 Z-5.5000 F500
G01 Z-7.0000 F120
G01 X0.0167 Y0.0260 F300
G00 Z1.0000 F500
G00 X0.0000 Y315.0000 F3000
G00 Z-6.5000 F500
G01 Z-8.0000 F120
G01 X0.0167 Y0.0260 F300
G00 Z1.0000 F500
G00 X0.0000 Y315.0000 F3000
G00 Z-7.5000 F500
G01 Z-9.0000 F120
G01 X0.0167 Y0.0260 F300
G00 Z1.0000 F500
G00 X0.0000 Y315.0000 F3000
G00 Z-8.5000 F500
G01 Z-10.0000 F120
G01 X0.0167 Y0.0260 F300
G00 Z1.0000 F500
G00 X0.0000 Y315.0000 F3000
G00 Z-9.5000 F500
G01 Z-11.0000 F120
G01 X0.0167 Y0.0260 F300
G00 Z1.0000 F500
G00 X0.0000 Y315.0000 F3000
G00 Z-10.5000 F500
G01 Z-12.0000 F120
G01 X0.0167 Y0.0260 F300
G00 Z1.0000 F500
G00 X0.0000 Y315.0000 F3000
G00 Z-11.5000 F500
G01 Z-13.0000 F120
G01 X0.0167 Y0.0260 F300
G00 Z1.0000 F500
G00 X0.0000 Y315.0000 F3000
G00 Z-12.5000 F500
G01 Z-14.0000 F120
G01 X0.0167 Y0.0260 F300
G00 Z1.0000 F500
G00 X0.0000 Y315.0000 F3000
G00 Z-13.5000 F500
G01 Z-15.0000 F120
G01 X0.0167 Y0.0260 F300
G00 Z1.0000 F500
G00 X0.0000 Y315.0000 F3000
G00 Z-14.5000 F500
G01 Z-16.0000 F120
G01 X0.0167 Y0.0260 F300
G00 Z1.0000 F500
G00 X0.0000 Y315.0000 F3000
G00 Z-15.5000 F500
G01 Z-17.0000 F120
G01 X0.0167 Y0.0260 F300
G00 Z1.0000 F500
G00 X0.0000 Y315.0000 F3000
G00 Z-16.5000 F500
G01 Z-18.0000 F120
G01 X0.0167 Y0.0260 F300
G00 Z1.0000 F500
G00 X0.0000 Y315.0000 F3000
G00 Z-17.5000 F500
G01 Z-19.0000 F120
G01 X0.0167 Y0.0260 F300
G00 Z1.0000 F500
G00 X0.0000 Y0.0000 F3000

M05
