;Project ElectronicSide
;Created by Estlcam version 10 build 11.006
;Machining time about 00:08:05 hours

G90
G92 X0 Y0 Z0
M03 S24000
G00 Z1.0000 F500


;No. 1: Part 1
G00 X-0.0232 Y-1.5487 F3000
G00 Z0.5000 F500
G01 Z-1.0000 F120
G01 X0.0200 Y-1.5500 F300
G01 X46.3000
G01 X46.5040 Y-1.5365
G01 X46.7044 Y-1.4963
G01 X46.8978 Y-1.4301
G01 X47.0808 Y-1.3390
G01 X47.2502 Y-1.2246
G01 X47.4031 Y-1.0889
G01 X47.5368 Y-0.9343
G01 X47.6490 Y-0.7634
G01 X47.7377 Y-0.5793
G01 X47.8015 Y-0.3850
G01 X47.8391 Y-0.1841
G01 X47.8500 Y0.0200
G01 Y120.9000
G01 X47.8365 Y121.1040
G01 X47.7963 Y121.3044
G01 X47.7301 Y121.4978
G01 X47.6390 Y121.6808
G01 X47.5246 Y121.8502
G01 X47.3889 Y122.0031
G01 X47.2343 Y122.1368
G01 X47.0634 Y122.2490
G01 X46.8793 Y122.3377
G01 X46.6850 Y122.4015
G01 X46.4841 Y122.4391
G01 X46.2800 Y122.4500
G01 X0.0000
G01 X-0.1932 Y122.4379
G01 X-0.3835 Y122.4018
G01 X-0.5677 Y122.3423
G01 X-0.7431 Y122.2603
G01 X-0.9069 Y122.1570
G01 X-1.0565 Y122.0341
G01 X-1.1897 Y121.8935
G01 X-1.3043 Y121.7375
G01 X-1.3985 Y121.5683
G01 X-1.4709 Y121.3887
G01 X-1.5204 Y121.2015
G01 X-1.5461 Y121.0096
G01 X-1.5500 Y120.8800
G01 Y0.0000
G01 X-1.5423 Y-0.1547
G01 X-1.5123 Y-0.3402
G01 X-1.4601 Y-0.5208
G01 X-1.3864 Y-0.6936
G01 X-1.2923 Y-0.8562
G01 X-1.1791 Y-1.0063
G01 X-1.0487 Y-1.1415
G01 X-0.9027 Y-1.2599
G01 X-0.7436 Y-1.3598
G01 X-0.5735 Y-1.4396
G01 X-0.3949 Y-1.4982
G01 X-0.2106 Y-1.5348
G01 X-0.0232 Y-1.5487
G01 Z-2.0000 F120
G01 X0.0200 Y-1.5500 F300
G01 X46.3000
G01 X46.5040 Y-1.5365
G01 X46.7044 Y-1.4963
G01 X46.8978 Y-1.4301
G01 X47.0808 Y-1.3390
G01 X47.2502 Y-1.2246
G01 X47.4031 Y-1.0889
G01 X47.5368 Y-0.9343
G01 X47.6490 Y-0.7634
G01 X47.7377 Y-0.5793
G01 X47.8015 Y-0.3850
G01 X47.8391 Y-0.1841
G01 X47.8500 Y0.0200
G01 Y120.9000
G01 X47.8365 Y121.1040
G01 X47.7963 Y121.3044
G01 X47.7301 Y121.4978
G01 X47.6390 Y121.6808
G01 X47.5246 Y121.8502
G01 X47.3889 Y122.0031
G01 X47.2343 Y122.1368
G01 X47.0634 Y122.2490
G01 X46.8793 Y122.3377
G01 X46.6850 Y122.4015
G01 X46.4841 Y122.4391
G01 X46.2800 Y122.4500
G01 X0.0000
G01 X-0.1932 Y122.4379
G01 X-0.3835 Y122.4018
G01 X-0.5677 Y122.3423
G01 X-0.7431 Y122.2603
G01 X-0.9069 Y122.1570
G01 X-1.0565 Y122.0341
G01 X-1.1897 Y121.8935
G01 X-1.3043 Y121.7375
G01 X-1.3985 Y121.5683
G01 X-1.4709 Y121.3887
G01 X-1.5204 Y121.2015
G01 X-1.5461 Y121.0096
G01 X-1.5500 Y120.8800
G01 Y0.0000
G01 X-1.5423 Y-0.1547
G01 X-1.5123 Y-0.3402
G01 X-1.4601 Y-0.5208
G01 X-1.3864 Y-0.6936
G01 X-1.2923 Y-0.8562
G01 X-1.1791 Y-1.0063
G01 X-1.0487 Y-1.1415
G01 X-0.9027 Y-1.2599
G01 X-0.7436 Y-1.3598
G01 X-0.5735 Y-1.4396
G01 X-0.3949 Y-1.4982
G01 X-0.2106 Y-1.5348
G01 X-0.0232 Y-1.5487
G01 Z-3.0000 F120
G01 X0.0200 Y-1.5500 F300
G01 X46.3000
G01 X46.5040 Y-1.5365
G01 X46.7044 Y-1.4963
G01 X46.8978 Y-1.4301
G01 X47.0808 Y-1.3390
G01 X47.2502 Y-1.2246
G01 X47.4031 Y-1.0889
G01 X47.5368 Y-0.9343
G01 X47.6490 Y-0.7634
G01 X47.7377 Y-0.5793
G01 X47.8015 Y-0.3850
G01 X47.8391 Y-0.1841
G01 X47.8500 Y0.0200
G01 Y120.9000
G01 X47.8365 Y121.1040
G01 X47.7963 Y121.3044
G01 X47.7301 Y121.4978
G01 X47.6390 Y121.6808
G01 X47.5246 Y121.8502
G01 X47.3889 Y122.0031
G01 X47.2343 Y122.1368
G01 X47.0634 Y122.2490
G01 X46.8793 Y122.3377
G01 X46.6850 Y122.4015
G01 X46.4841 Y122.4391
G01 X46.2800 Y122.4500
G01 X0.0000
G01 X-0.1932 Y122.4379
G01 X-0.3835 Y122.4018
G01 X-0.5677 Y122.3423
G01 X-0.7431 Y122.2603
G01 X-0.9069 Y122.1570
G01 X-1.0565 Y122.0341
G01 X-1.1897 Y121.8935
G01 X-1.3043 Y121.7375
G01 X-1.3985 Y121.5683
G01 X-1.4709 Y121.3887
G01 X-1.5204 Y121.2015
G01 X-1.5461 Y121.0096
G01 X-1.5500 Y120.8800
G01 Y0.0000
G01 X-1.5423 Y-0.1547
G01 X-1.5123 Y-0.3402
G01 X-1.4601 Y-0.5208
G01 X-1.3864 Y-0.6936
G01 X-1.2923 Y-0.8562
G01 X-1.1791 Y-1.0063
G01 X-1.0487 Y-1.1415
G01 X-0.9027 Y-1.2599
G01 X-0.7436 Y-1.3598
G01 X-0.5735 Y-1.4396
G01 X-0.3949 Y-1.4982
G01 X-0.2106 Y-1.5348
G01 X-0.0232 Y-1.5487
G01 Z-4.0000 F120
G01 X0.0200 Y-1.5500 F300
G01 X46.3000
G01 X46.5040 Y-1.5365
G01 X46.7044 Y-1.4963
G01 X46.8978 Y-1.4301
G01 X47.0808 Y-1.3390
G01 X47.2502 Y-1.2246
G01 X47.4031 Y-1.0889
G01 X47.5368 Y-0.9343
G01 X47.6490 Y-0.7634
G01 X47.7377 Y-0.5793
G01 X47.8015 Y-0.3850
G01 X47.8391 Y-0.1841
G01 X47.8500 Y0.0200
G01 Y120.9000
G01 X47.8365 Y121.1040
G01 X47.7963 Y121.3044
G01 X47.7301 Y121.4978
G01 X47.6390 Y121.6808
G01 X47.5246 Y121.8502
G01 X47.3889 Y122.0031
G01 X47.2343 Y122.1368
G01 X47.0634 Y122.2490
G01 X46.8793 Y122.3377
G01 X46.6850 Y122.4015
G01 X46.4841 Y122.4391
G01 X46.2800 Y122.4500
G01 X0.0000
G01 X-0.1932 Y122.4379
G01 X-0.3835 Y122.4018
G01 X-0.5677 Y122.3423
G01 X-0.7431 Y122.2603
G01 X-0.9069 Y122.1570
G01 X-1.0565 Y122.0341
G01 X-1.1897 Y121.8935
G01 X-1.3043 Y121.7375
G01 X-1.3985 Y121.5683
G01 X-1.4709 Y121.3887
G01 X-1.5204 Y121.2015
G01 X-1.5461 Y121.0096
G01 X-1.5500 Y120.8800
G01 Y0.0000
G01 X-1.5423 Y-0.1547
G01 X-1.5123 Y-0.3402
G01 X-1.4601 Y-0.5208
G01 X-1.3864 Y-0.6936
G01 X-1.2923 Y-0.8562
G01 X-1.1791 Y-1.0063
G01 X-1.0487 Y-1.1415
G01 X-0.9027 Y-1.2599
G01 X-0.7436 Y-1.3598
G01 X-0.5735 Y-1.4396
G01 X-0.3949 Y-1.4982
G01 X-0.2106 Y-1.5348
G01 X-0.0232 Y-1.5487
G01 Z-5.0000 F120
G01 X0.0200 Y-1.5500 F300
G01 X46.3000
G01 X46.5040 Y-1.5365
G01 X46.7044 Y-1.4963
G01 X46.8978 Y-1.4301
G01 X47.0808 Y-1.3390
G01 X47.2502 Y-1.2246
G01 X47.4031 Y-1.0889
G01 X47.5368 Y-0.9343
G01 X47.6490 Y-0.7634
G01 X47.7377 Y-0.5793
G01 X47.8015 Y-0.3850
G01 X47.8391 Y-0.1841
G01 X47.8500 Y0.0200
G01 Y120.9000
G01 X47.8365 Y121.1040
G01 X47.7963 Y121.3044
G01 X47.7301 Y121.4978
G01 X47.6390 Y121.6808
G01 X47.5246 Y121.8502
G01 X47.3889 Y122.0031
G01 X47.2343 Y122.1368
G01 X47.0634 Y122.2490
G01 X46.8793 Y122.3377
G01 X46.6850 Y122.4015
G01 X46.4841 Y122.4391
G01 X46.2800 Y122.4500
G01 X0.0000
G01 X-0.1932 Y122.4379
G01 X-0.3835 Y122.4018
G01 X-0.5677 Y122.3423
G01 X-0.7431 Y122.2603
G01 X-0.9069 Y122.1570
G01 X-1.0565 Y122.0341
G01 X-1.1897 Y121.8935
G01 X-1.3043 Y121.7375
G01 X-1.3985 Y121.5683
G01 X-1.4709 Y121.3887
G01 X-1.5204 Y121.2015
G01 X-1.5461 Y121.0096
G01 X-1.5500 Y120.8800
G01 Y0.0000
G01 X-1.5423 Y-0.1547
G01 X-1.5123 Y-0.3402
G01 X-1.4601 Y-0.5208
G01 X-1.3864 Y-0.6936
G01 X-1.2923 Y-0.8562
G01 X-1.1791 Y-1.0063
G01 X-1.0487 Y-1.1415
G01 X-0.9027 Y-1.2599
G01 X-0.7436 Y-1.3598
G01 X-0.5735 Y-1.4396
G01 X-0.3949 Y-1.4982
G01 X-0.2106 Y-1.5348
G01 X-0.0232 Y-1.5487
G01 Z-6.0000 F120
G01 X0.0200 Y-1.5500 F300
G01 X46.3000
G01 X46.5040 Y-1.5365
G01 X46.7044 Y-1.4963
G01 X46.8978 Y-1.4301
G01 X47.0808 Y-1.3390
G01 X47.2502 Y-1.2246
G01 X47.4031 Y-1.0889
G01 X47.5368 Y-0.9343
G01 X47.6490 Y-0.7634
G01 X47.7377 Y-0.5793
G01 X47.8015 Y-0.3850
G01 X47.8391 Y-0.1841
G01 X47.8500 Y0.0200
G01 Y120.9000
G01 X47.8365 Y121.1040
G01 X47.7963 Y121.3044
G01 X47.7301 Y121.4978
G01 X47.6390 Y121.6808
G01 X47.5246 Y121.8502
G01 X47.3889 Y122.0031
G01 X47.2343 Y122.1368
G01 X47.0634 Y122.2490
G01 X46.8793 Y122.3377
G01 X46.6850 Y122.4015
G01 X46.4841 Y122.4391
G01 X46.2800 Y122.4500
G01 X0.0000
G01 X-0.1932 Y122.4379
G01 X-0.3835 Y122.4018
G01 X-0.5677 Y122.3423
G01 X-0.7431 Y122.2603
G01 X-0.9069 Y122.1570
G01 X-1.0565 Y122.0341
G01 X-1.1897 Y121.8935
G01 X-1.3043 Y121.7375
G01 X-1.3985 Y121.5683
G01 X-1.4709 Y121.3887
G01 X-1.5204 Y121.2015
G01 X-1.5461 Y121.0096
G01 X-1.5500 Y120.8800
G01 Y0.0000
G01 X-1.5423 Y-0.1547
G01 X-1.5123 Y-0.3402
G01 X-1.4601 Y-0.5208
G01 X-1.3864 Y-0.6936
G01 X-1.2923 Y-0.8562
G01 X-1.1791 Y-1.0063
G01 X-1.0487 Y-1.1415
G01 X-0.9027 Y-1.2599
G01 X-0.7436 Y-1.3598
G01 X-0.5735 Y-1.4396
G01 X-0.3949 Y-1.4982
G01 X-0.2106 Y-1.5348
G01 X-0.0232 Y-1.5487
G01 Z-6.1000 F120
G01 X0.0200 Y-1.5500 F300
G01 X46.3000
G01 X46.5040 Y-1.5365
G01 X46.7044 Y-1.4963
G01 X46.8978 Y-1.4301
G01 X47.0808 Y-1.3390
G01 X47.2502 Y-1.2246
G01 X47.4031 Y-1.0889
G01 X47.5368 Y-0.9343
G01 X47.6490 Y-0.7634
G01 X47.7377 Y-0.5793
G01 X47.8015 Y-0.3850
G01 X47.8391 Y-0.1841
G01 X47.8500 Y0.0200
G01 Y120.9000
G01 X47.8365 Y121.1040
G01 X47.7963 Y121.3044
G01 X47.7301 Y121.4978
G01 X47.6390 Y121.6808
G01 X47.5246 Y121.8502
G01 X47.3889 Y122.0031
G01 X47.2343 Y122.1368
G01 X47.0634 Y122.2490
G01 X46.8793 Y122.3377
G01 X46.6850 Y122.4015
G01 X46.4841 Y122.4391
G01 X46.2800 Y122.4500
G01 X0.0000
G01 X-0.1932 Y122.4379
G01 X-0.3835 Y122.4018
G01 X-0.5677 Y122.3423
G01 X-0.7431 Y122.2603
G01 X-0.9069 Y122.1570
G01 X-1.0565 Y122.0341
G01 X-1.1897 Y121.8935
G01 X-1.3043 Y121.7375
G01 X-1.3985 Y121.5683
G01 X-1.4709 Y121.3887
G01 X-1.5204 Y121.2015
G01 X-1.5461 Y121.0096
G01 X-1.5500 Y120.8800
G01 Y0.0000
G01 X-1.5423 Y-0.1547
G01 X-1.5123 Y-0.3402
G01 X-1.4601 Y-0.5208
G01 X-1.3864 Y-0.6936
G01 X-1.2923 Y-0.8562
G01 X-1.1791 Y-1.0063
G01 X-1.0487 Y-1.1415
G01 X-0.9027 Y-1.2599
G01 X-0.7436 Y-1.3598
G01 X-0.5735 Y-1.4396
G01 X-0.3949 Y-1.4982
G01 X-0.2106 Y-1.5348
G01 X-0.0232 Y-1.5487
G00 Z1.0000 F500
G00 X0.0000 Y0.0000 F3000

M05
