;Project ElectronicSideFace
;Created by Estlcam version 10 build 11.006
;Machining time about 00:08:01 hours

G90
G92 X0 Y0 Z0
M03 S24000
G00 Z1.0000 F500


;No. 1: Part 2
G00 X48.3365 Y-5.4605 F3000
G00 Z0.5000 F500
G01 Z-1.2000 F120
G01 X48.3172 Y-5.2614 F300
G01 X48.2725 Y-5.0664
G01 X48.2030 Y-4.8787
G01 X48.1098 Y-4.7017
G01 X47.9945 Y-4.5381
G01 X47.8592 Y-4.3908
G01 X47.7059 Y-4.2622
G01 X47.5373 Y-4.1544
G01 X47.3562 Y-4.0693
G01 X47.1657 Y-4.0083
G01 X46.9689 Y-3.9723
G01 X46.7690 Y-3.9621
G01 X0.4890
G01 X0.2958 Y-3.9742
G01 X0.1056 Y-4.0103
G01 X-0.0787 Y-4.0698
G01 X-0.2541 Y-4.1519
G01 X-0.4179 Y-4.2551
G01 X-0.5675 Y-4.3780
G01 X-0.7007 Y-4.5186
G01 X-0.8152 Y-4.6746
G01 X-0.9095 Y-4.8438
G01 X-0.9819 Y-5.0234
G01 X-1.0314 Y-5.2106
G01 X-1.0571 Y-5.4025
G01 X-1.0610 Y-5.5321
G01 Y-48.1121
G01 X-1.0532 Y-48.2668
G01 X-1.0224 Y-48.4559
G01 X-0.9684 Y-48.6396
G01 X-0.8922 Y-48.8154
G01 X-0.7949 Y-48.9803
G01 X-0.6781 Y-49.1321
G01 X-0.5434 Y-49.2682
G01 X-0.3929 Y-49.3867
G01 X-0.2290 Y-49.4858
G01 X-0.0541 Y-49.5639
G01 X0.1291 Y-49.6198
G01 X0.3177 Y-49.6527
G01 X0.5090 Y-49.6621
G01 X46.7890
G01 X46.9930 Y-49.6486
G01 X47.1934 Y-49.6084
G01 X47.3868 Y-49.5422
G01 X47.5698 Y-49.4511
G01 X47.7392 Y-49.3367
G01 X47.8921 Y-49.2010
G01 X48.0258 Y-49.0464
G01 X48.1380 Y-48.8755
G01 X48.2268 Y-48.6914
G01 X48.2905 Y-48.4972
G01 X48.3282 Y-48.2962
G01 X48.3390 Y-48.0921
G01 Y-5.5121
G01 X48.3365 Y-5.4605
G01 Z-2.4000 F120
G01 X48.3172 Y-5.2614 F300
G01 X48.2725 Y-5.0664
G01 X48.2030 Y-4.8787
G01 X48.1098 Y-4.7017
G01 X47.9945 Y-4.5381
G01 X47.8592 Y-4.3908
G01 X47.7059 Y-4.2622
G01 X47.5373 Y-4.1544
G01 X47.3562 Y-4.0693
G01 X47.1657 Y-4.0083
G01 X46.9689 Y-3.9723
G01 X46.7690 Y-3.9621
G01 X0.4890
G01 X0.2958 Y-3.9742
G01 X0.1056 Y-4.0103
G01 X-0.0787 Y-4.0698
G01 X-0.2541 Y-4.1519
G01 X-0.4179 Y-4.2551
G01 X-0.5675 Y-4.3780
G01 X-0.7007 Y-4.5186
G01 X-0.8152 Y-4.6746
G01 X-0.9095 Y-4.8438
G01 X-0.9819 Y-5.0234
G01 X-1.0314 Y-5.2106
G01 X-1.0571 Y-5.4025
G01 X-1.0610 Y-5.5321
G01 Y-48.1121
G01 X-1.0532 Y-48.2668
G01 X-1.0224 Y-48.4559
G01 X-0.9684 Y-48.6396
G01 X-0.8922 Y-48.8154
G01 X-0.7949 Y-48.9803
G01 X-0.6781 Y-49.1321
G01 X-0.5434 Y-49.2682
G01 X-0.3929 Y-49.3867
G01 X-0.2290 Y-49.4858
G01 X-0.0541 Y-49.5639
G01 X0.1291 Y-49.6198
G01 X0.3177 Y-49.6527
G01 X0.5090 Y-49.6621
G01 X46.7890
G01 X46.9930 Y-49.6486
G01 X47.1934 Y-49.6084
G01 X47.3868 Y-49.5422
G01 X47.5698 Y-49.4511
G01 X47.7392 Y-49.3367
G01 X47.8921 Y-49.2010
G01 X48.0258 Y-49.0464
G01 X48.1380 Y-48.8755
G01 X48.2268 Y-48.6914
G01 X48.2905 Y-48.4972
G01 X48.3282 Y-48.2962
G01 X48.3390 Y-48.0921
G01 Y-5.5121
G01 X48.3365 Y-5.4605
G01 Z-3.6000 F120
G01 X48.3172 Y-5.2614 F300
G01 X48.2725 Y-5.0664
G01 X48.2030 Y-4.8787
G01 X48.1098 Y-4.7017
G01 X47.9945 Y-4.5381
G01 X47.8592 Y-4.3908
G01 X47.7059 Y-4.2622
G01 X47.5373 Y-4.1544
G01 X47.3562 Y-4.0693
G01 X47.1657 Y-4.0083
G01 X46.9689 Y-3.9723
G01 X46.7690 Y-3.9621
G01 X0.4890
G01 X0.2958 Y-3.9742
G01 X0.1056 Y-4.0103
G01 X-0.0787 Y-4.0698
G01 X-0.2541 Y-4.1519
G01 X-0.4179 Y-4.2551
G01 X-0.5675 Y-4.3780
G01 X-0.7007 Y-4.5186
G01 X-0.8152 Y-4.6746
G01 X-0.9095 Y-4.8438
G01 X-0.9819 Y-5.0234
G01 X-1.0314 Y-5.2106
G01 X-1.0571 Y-5.4025
G01 X-1.0610 Y-5.5321
G01 Y-48.1121
G01 X-1.0532 Y-48.2668
G01 X-1.0224 Y-48.4559
G01 X-0.9684 Y-48.6396
G01 X-0.8922 Y-48.8154
G01 X-0.7949 Y-48.9803
G01 X-0.6781 Y-49.1321
G01 X-0.5434 Y-49.2682
G01 X-0.3929 Y-49.3867
G01 X-0.2290 Y-49.4858
G01 X-0.0541 Y-49.5639
G01 X0.1291 Y-49.6198
G01 X0.3177 Y-49.6527
G01 X0.5090 Y-49.6621
G01 X46.7890
G01 X46.9930 Y-49.6486
G01 X47.1934 Y-49.6084
G01 X47.3868 Y-49.5422
G01 X47.5698 Y-49.4511
G01 X47.7392 Y-49.3367
G01 X47.8921 Y-49.2010
G01 X48.0258 Y-49.0464
G01 X48.1380 Y-48.8755
G01 X48.2268 Y-48.6914
G01 X48.2905 Y-48.4972
G01 X48.3282 Y-48.2962
G01 X48.3390 Y-48.0921
G01 Y-5.5121
G01 X48.3365 Y-5.4605
G01 Z-4.8000 F120
G01 X48.3172 Y-5.2614 F300
G01 X48.2725 Y-5.0664
G01 X48.2030 Y-4.8787
G01 X48.1098 Y-4.7017
G01 X47.9945 Y-4.5381
G01 X47.8592 Y-4.3908
G01 X47.7059 Y-4.2622
G01 X47.5373 Y-4.1544
G01 X47.3562 Y-4.0693
G01 X47.1657 Y-4.0083
G01 X46.9689 Y-3.9723
G01 X46.7690 Y-3.9621
G01 X0.4890
G01 X0.2958 Y-3.9742
G01 X0.1056 Y-4.0103
G01 X-0.0787 Y-4.0698
G01 X-0.2541 Y-4.1519
G01 X-0.4179 Y-4.2551
G01 X-0.5675 Y-4.3780
G01 X-0.7007 Y-4.5186
G01 X-0.8152 Y-4.6746
G01 X-0.9095 Y-4.8438
G01 X-0.9819 Y-5.0234
G01 X-1.0314 Y-5.2106
G01 X-1.0571 Y-5.4025
G01 X-1.0610 Y-5.5321
G01 Y-48.1121
G01 X-1.0532 Y-48.2668
G01 X-1.0224 Y-48.4559
G01 X-0.9684 Y-48.6396
G01 X-0.8922 Y-48.8154
G01 X-0.7949 Y-48.9803
G01 X-0.6781 Y-49.1321
G01 X-0.5434 Y-49.2682
G01 X-0.3929 Y-49.3867
G01 X-0.2290 Y-49.4858
G01 X-0.0541 Y-49.5639
G01 X0.1291 Y-49.6198
G01 X0.3177 Y-49.6527
G01 X0.5090 Y-49.6621
G01 X46.7890
G01 X46.9930 Y-49.6486
G01 X47.1934 Y-49.6084
G01 X47.3868 Y-49.5422
G01 X47.5698 Y-49.4511
G01 X47.7392 Y-49.3367
G01 X47.8921 Y-49.2010
G01 X48.0258 Y-49.0464
G01 X48.1380 Y-48.8755
G01 X48.2268 Y-48.6914
G01 X48.2905 Y-48.4972
G01 X48.3282 Y-48.2962
G01 X48.3390 Y-48.0921
G01 Y-5.5121
G01 X48.3365 Y-5.4605
G01 Z-6.0000 F120
G01 X48.3172 Y-5.2614 F300
G01 X48.2725 Y-5.0664
G01 X48.2030 Y-4.8787
G01 X48.1098 Y-4.7017
G01 X47.9945 Y-4.5381
G01 X47.8592 Y-4.3908
G01 X47.7059 Y-4.2622
G01 X47.5373 Y-4.1544
G01 X47.3562 Y-4.0693
G01 X47.1657 Y-4.0083
G01 X46.9689 Y-3.9723
G01 X46.7690 Y-3.9621
G01 X0.4890
G01 X0.2958 Y-3.9742
G01 X0.1056 Y-4.0103
G01 X-0.0787 Y-4.0698
G01 X-0.2541 Y-4.1519
G01 X-0.4179 Y-4.2551
G01 X-0.5675 Y-4.3780
G01 X-0.7007 Y-4.5186
G01 X-0.8152 Y-4.6746
G01 X-0.9095 Y-4.8438
G01 X-0.9819 Y-5.0234
G01 X-1.0314 Y-5.2106
G01 X-1.0571 Y-5.4025
G01 X-1.0610 Y-5.5321
G01 Y-48.1121
G01 X-1.0532 Y-48.2668
G01 X-1.0224 Y-48.4559
G01 X-0.9684 Y-48.6396
G01 X-0.8922 Y-48.8154
G01 X-0.7949 Y-48.9803
G01 X-0.6781 Y-49.1321
G01 X-0.5434 Y-49.2682
G01 X-0.3929 Y-49.3867
G01 X-0.2290 Y-49.4858
G01 X-0.0541 Y-49.5639
G01 X0.1291 Y-49.6198
G01 X0.3177 Y-49.6527
G01 X0.5090 Y-49.6621
G01 X46.7890
G01 X46.9930 Y-49.6486
G01 X47.1934 Y-49.6084
G01 X47.3868 Y-49.5422
G01 X47.5698 Y-49.4511
G01 X47.7392 Y-49.3367
G01 X47.8921 Y-49.2010
G01 X48.0258 Y-49.0464
G01 X48.1380 Y-48.8755
G01 X48.2268 Y-48.6914
G01 X48.2905 Y-48.4972
G01 X48.3282 Y-48.2962
G01 X48.3390 Y-48.0921
G01 Y-5.5121
G01 X48.3365 Y-5.4605
G01 Z-6.3000 F120
G01 X48.3172 Y-5.2614 F300
G01 X48.2725 Y-5.0664
G01 X48.2030 Y-4.8787
G01 X48.1098 Y-4.7017
G01 X47.9945 Y-4.5381
G01 X47.8592 Y-4.3908
G01 X47.7059 Y-4.2622
G01 X47.5373 Y-4.1544
G01 X47.3562 Y-4.0693
G01 X47.1657 Y-4.0083
G01 X46.9689 Y-3.9723
G01 X46.7690 Y-3.9621
G01 X0.4890
G01 X0.2958 Y-3.9742
G01 X0.1056 Y-4.0103
G01 X-0.0787 Y-4.0698
G01 X-0.2541 Y-4.1519
G01 X-0.4179 Y-4.2551
G01 X-0.5675 Y-4.3780
G01 X-0.7007 Y-4.5186
G01 X-0.8152 Y-4.6746
G01 X-0.9095 Y-4.8438
G01 X-0.9819 Y-5.0234
G01 X-1.0314 Y-5.2106
G01 X-1.0571 Y-5.4025
G01 X-1.0610 Y-5.5321
G01 Y-48.1121
G01 X-1.0532 Y-48.2668
G01 X-1.0224 Y-48.4559
G01 X-0.9684 Y-48.6396
G01 X-0.8922 Y-48.8154
G01 X-0.7949 Y-48.9803
G01 X-0.6781 Y-49.1321
G01 X-0.5434 Y-49.2682
G01 X-0.3929 Y-49.3867
G01 X-0.2290 Y-49.4858
G01 X-0.0541 Y-49.5639
G01 X0.1291 Y-49.6198
G01 X0.3177 Y-49.6527
G01 X0.5090 Y-49.6621
G01 X46.7890
G01 X46.9930 Y-49.6486
G01 X47.1934 Y-49.6084
G01 X47.3868 Y-49.5422
G01 X47.5698 Y-49.4511
G01 X47.7392 Y-49.3367
G01 X47.8921 Y-49.2010
G01 X48.0258 Y-49.0464
G01 X48.1380 Y-48.8755
G01 X48.2268 Y-48.6914
G01 X48.2905 Y-48.4972
G01 X48.3282 Y-48.2962
G01 X48.3390 Y-48.0921
G01 Y-5.5121
G01 X48.3365 Y-5.4605
G00 Z1.0000 F500


;No. 2: Part 1
G00 X48.3365 Y48.8395 Z1.0000 F3000
G00 Z0.5000 F500
G01 Z-1.2000 F120
G01 X48.3172 Y49.0386 F300
G01 X48.2725 Y49.2336
G01 X48.2030 Y49.4213
G01 X48.1098 Y49.5983
G01 X47.9945 Y49.7619
G01 X47.8592 Y49.9092
G01 X47.7059 Y50.0378
G01 X47.5373 Y50.1456
G01 X47.3562 Y50.2307
G01 X47.1657 Y50.2917
G01 X46.9689 Y50.3277
G01 X46.7690 Y50.3379
G01 X0.4890
G01 X0.2958 Y50.3258
G01 X0.1056 Y50.2897
G01 X-0.0787 Y50.2302
G01 X-0.2541 Y50.1481
G01 X-0.4179 Y50.0449
G01 X-0.5675 Y49.9220
G01 X-0.7007 Y49.7814
G01 X-0.8152 Y49.6254
G01 X-0.9095 Y49.4562
G01 X-0.9819 Y49.2766
G01 X-1.0314 Y49.0894
G01 X-1.0571 Y48.8975
G01 X-1.0610 Y48.7679
G01 Y6.1879
G01 X-1.0532 Y6.0332
G01 X-1.0224 Y5.8441
G01 X-0.9684 Y5.6604
G01 X-0.8922 Y5.4846
G01 X-0.7949 Y5.3197
G01 X-0.6781 Y5.1679
G01 X-0.5434 Y5.0318
G01 X-0.3929 Y4.9133
G01 X-0.2290 Y4.8142
G01 X-0.0541 Y4.7361
G01 X0.1291 Y4.6802
G01 X0.3177 Y4.6473
G01 X0.5090 Y4.6379
G01 X46.7890
G01 X46.9930 Y4.6514
G01 X47.1934 Y4.6916
G01 X47.3868 Y4.7578
G01 X47.5698 Y4.8489
G01 X47.7392 Y4.9633
G01 X47.8921 Y5.0990
G01 X48.0258 Y5.2536
G01 X48.1380 Y5.4245
G01 X48.2268 Y5.6086
G01 X48.2905 Y5.8028
G01 X48.3282 Y6.0038
G01 X48.3390 Y6.2079
G01 Y48.7879
G01 X48.3365 Y48.8395
G01 Z-2.4000 F120
G01 X48.3172 Y49.0386 F300
G01 X48.2725 Y49.2336
G01 X48.2030 Y49.4213
G01 X48.1098 Y49.5983
G01 X47.9945 Y49.7619
G01 X47.8592 Y49.9092
G01 X47.7059 Y50.0378
G01 X47.5373 Y50.1456
G01 X47.3562 Y50.2307
G01 X47.1657 Y50.2917
G01 X46.9689 Y50.3277
G01 X46.7690 Y50.3379
G01 X0.4890
G01 X0.2958 Y50.3258
G01 X0.1056 Y50.2897
G01 X-0.0787 Y50.2302
G01 X-0.2541 Y50.1481
G01 X-0.4179 Y50.0449
G01 X-0.5675 Y49.9220
G01 X-0.7007 Y49.7814
G01 X-0.8152 Y49.6254
G01 X-0.9095 Y49.4562
G01 X-0.9819 Y49.2766
G01 X-1.0314 Y49.0894
G01 X-1.0571 Y48.8975
G01 X-1.0610 Y48.7679
G01 Y6.1879
G01 X-1.0532 Y6.0332
G01 X-1.0224 Y5.8441
G01 X-0.9684 Y5.6604
G01 X-0.8922 Y5.4846
G01 X-0.7949 Y5.3197
G01 X-0.6781 Y5.1679
G01 X-0.5434 Y5.0318
G01 X-0.3929 Y4.9133
G01 X-0.2290 Y4.8142
G01 X-0.0541 Y4.7361
G01 X0.1291 Y4.6802
G01 X0.3177 Y4.6473
G01 X0.5090 Y4.6379
G01 X46.7890
G01 X46.9930 Y4.6514
G01 X47.1934 Y4.6916
G01 X47.3868 Y4.7578
G01 X47.5698 Y4.8489
G01 X47.7392 Y4.9633
G01 X47.8921 Y5.0990
G01 X48.0258 Y5.2536
G01 X48.1380 Y5.4245
G01 X48.2268 Y5.6086
G01 X48.2905 Y5.8028
G01 X48.3282 Y6.0038
G01 X48.3390 Y6.2079
G01 Y48.7879
G01 X48.3365 Y48.8395
G01 Z-3.6000 F120
G01 X48.3172 Y49.0386 F300
G01 X48.2725 Y49.2336
G01 X48.2030 Y49.4213
G01 X48.1098 Y49.5983
G01 X47.9945 Y49.7619
G01 X47.8592 Y49.9092
G01 X47.7059 Y50.0378
G01 X47.5373 Y50.1456
G01 X47.3562 Y50.2307
G01 X47.1657 Y50.2917
G01 X46.9689 Y50.3277
G01 X46.7690 Y50.3379
G01 X0.4890
G01 X0.2958 Y50.3258
G01 X0.1056 Y50.2897
G01 X-0.0787 Y50.2302
G01 X-0.2541 Y50.1481
G01 X-0.4179 Y50.0449
G01 X-0.5675 Y49.9220
G01 X-0.7007 Y49.7814
G01 X-0.8152 Y49.6254
G01 X-0.9095 Y49.4562
G01 X-0.9819 Y49.2766
G01 X-1.0314 Y49.0894
G01 X-1.0571 Y48.8975
G01 X-1.0610 Y48.7679
G01 Y6.1879
G01 X-1.0532 Y6.0332
G01 X-1.0224 Y5.8441
G01 X-0.9684 Y5.6604
G01 X-0.8922 Y5.4846
G01 X-0.7949 Y5.3197
G01 X-0.6781 Y5.1679
G01 X-0.5434 Y5.0318
G01 X-0.3929 Y4.9133
G01 X-0.2290 Y4.8142
G01 X-0.0541 Y4.7361
G01 X0.1291 Y4.6802
G01 X0.3177 Y4.6473
G01 X0.5090 Y4.6379
G01 X46.7890
G01 X46.9930 Y4.6514
G01 X47.1934 Y4.6916
G01 X47.3868 Y4.7578
G01 X47.5698 Y4.8489
G01 X47.7392 Y4.9633
G01 X47.8921 Y5.0990
G01 X48.0258 Y5.2536
G01 X48.1380 Y5.4245
G01 X48.2268 Y5.6086
G01 X48.2905 Y5.8028
G01 X48.3282 Y6.0038
G01 X48.3390 Y6.2079
G01 Y48.7879
G01 X48.3365 Y48.8395
G01 Z-4.8000 F120
G01 X48.3172 Y49.0386 F300
G01 X48.2725 Y49.2336
G01 X48.2030 Y49.4213
G01 X48.1098 Y49.5983
G01 X47.9945 Y49.7619
G01 X47.8592 Y49.9092
G01 X47.7059 Y50.0378
G01 X47.5373 Y50.1456
G01 X47.3562 Y50.2307
G01 X47.1657 Y50.2917
G01 X46.9689 Y50.3277
G01 X46.7690 Y50.3379
G01 X0.4890
G01 X0.2958 Y50.3258
G01 X0.1056 Y50.2897
G01 X-0.0787 Y50.2302
G01 X-0.2541 Y50.1481
G01 X-0.4179 Y50.0449
G01 X-0.5675 Y49.9220
G01 X-0.7007 Y49.7814
G01 X-0.8152 Y49.6254
G01 X-0.9095 Y49.4562
G01 X-0.9819 Y49.2766
G01 X-1.0314 Y49.0894
G01 X-1.0571 Y48.8975
G01 X-1.0610 Y48.7679
G01 Y6.1879
G01 X-1.0532 Y6.0332
G01 X-1.0224 Y5.8441
G01 X-0.9684 Y5.6604
G01 X-0.8922 Y5.4846
G01 X-0.7949 Y5.3197
G01 X-0.6781 Y5.1679
G01 X-0.5434 Y5.0318
G01 X-0.3929 Y4.9133
G01 X-0.2290 Y4.8142
G01 X-0.0541 Y4.7361
G01 X0.1291 Y4.6802
G01 X0.3177 Y4.6473
G01 X0.5090 Y4.6379
G01 X46.7890
G01 X46.9930 Y4.6514
G01 X47.1934 Y4.6916
G01 X47.3868 Y4.7578
G01 X47.5698 Y4.8489
G01 X47.7392 Y4.9633
G01 X47.8921 Y5.0990
G01 X48.0258 Y5.2536
G01 X48.1380 Y5.4245
G01 X48.2268 Y5.6086
G01 X48.2905 Y5.8028
G01 X48.3282 Y6.0038
G01 X48.3390 Y6.2079
G01 Y48.7879
G01 X48.3365 Y48.8395
G01 Z-6.0000 F120
G01 X48.3172 Y49.0386 F300
G01 X48.2725 Y49.2336
G01 X48.2030 Y49.4213
G01 X48.1098 Y49.5983
G01 X47.9945 Y49.7619
G01 X47.8592 Y49.9092
G01 X47.7059 Y50.0378
G01 X47.5373 Y50.1456
G01 X47.3562 Y50.2307
G01 X47.1657 Y50.2917
G01 X46.9689 Y50.3277
G01 X46.7690 Y50.3379
G01 X0.4890
G01 X0.2958 Y50.3258
G01 X0.1056 Y50.2897
G01 X-0.0787 Y50.2302
G01 X-0.2541 Y50.1481
G01 X-0.4179 Y50.0449
G01 X-0.5675 Y49.9220
G01 X-0.7007 Y49.7814
G01 X-0.8152 Y49.6254
G01 X-0.9095 Y49.4562
G01 X-0.9819 Y49.2766
G01 X-1.0314 Y49.0894
G01 X-1.0571 Y48.8975
G01 X-1.0610 Y48.7679
G01 Y6.1879
G01 X-1.0532 Y6.0332
G01 X-1.0224 Y5.8441
G01 X-0.9684 Y5.6604
G01 X-0.8922 Y5.4846
G01 X-0.7949 Y5.3197
G01 X-0.6781 Y5.1679
G01 X-0.5434 Y5.0318
G01 X-0.3929 Y4.9133
G01 X-0.2290 Y4.8142
G01 X-0.0541 Y4.7361
G01 X0.1291 Y4.6802
G01 X0.3177 Y4.6473
G01 X0.5090 Y4.6379
G01 X46.7890
G01 X46.9930 Y4.6514
G01 X47.1934 Y4.6916
G01 X47.3868 Y4.7578
G01 X47.5698 Y4.8489
G01 X47.7392 Y4.9633
G01 X47.8921 Y5.0990
G01 X48.0258 Y5.2536
G01 X48.1380 Y5.4245
G01 X48.2268 Y5.6086
G01 X48.2905 Y5.8028
G01 X48.3282 Y6.0038
G01 X48.3390 Y6.2079
G01 Y48.7879
G01 X48.3365 Y48.8395
G01 Z-6.3000 F120
G01 X48.3172 Y49.0386 F300
G01 X48.2725 Y49.2336
G01 X48.2030 Y49.4213
G01 X48.1098 Y49.5983
G01 X47.9945 Y49.7619
G01 X47.8592 Y49.9092
G01 X47.7059 Y50.0378
G01 X47.5373 Y50.1456
G01 X47.3562 Y50.2307
G01 X47.1657 Y50.2917
G01 X46.9689 Y50.3277
G01 X46.7690 Y50.3379
G01 X0.4890
G01 X0.2958 Y50.3258
G01 X0.1056 Y50.2897
G01 X-0.0787 Y50.2302
G01 X-0.2541 Y50.1481
G01 X-0.4179 Y50.0449
G01 X-0.5675 Y49.9220
G01 X-0.7007 Y49.7814
G01 X-0.8152 Y49.6254
G01 X-0.9095 Y49.4562
G01 X-0.9819 Y49.2766
G01 X-1.0314 Y49.0894
G01 X-1.0571 Y48.8975
G01 X-1.0610 Y48.7679
G01 Y6.1879
G01 X-1.0532 Y6.0332
G01 X-1.0224 Y5.8441
G01 X-0.9684 Y5.6604
G01 X-0.8922 Y5.4846
G01 X-0.7949 Y5.3197
G01 X-0.6781 Y5.1679
G01 X-0.5434 Y5.0318
G01 X-0.3929 Y4.9133
G01 X-0.2290 Y4.8142
G01 X-0.0541 Y4.7361
G01 X0.1291 Y4.6802
G01 X0.3177 Y4.6473
G01 X0.5090 Y4.6379
G01 X46.7890
G01 X46.9930 Y4.6514
G01 X47.1934 Y4.6916
G01 X47.3868 Y4.7578
G01 X47.5698 Y4.8489
G01 X47.7392 Y4.9633
G01 X47.8921 Y5.0990
G01 X48.0258 Y5.2536
G01 X48.1380 Y5.4245
G01 X48.2268 Y5.6086
G01 X48.2905 Y5.8028
G01 X48.3282 Y6.0038
G01 X48.3390 Y6.2079
G01 Y48.7879
G01 X48.3365 Y48.8395
G00 Z1.0000 F500
G00 X0.0000 Y0.0000 F3000

M05
