;Project AudioProcessor-F.Cu
;Created by Estlcam version 10 build 11.006
;Machining time about 00:46:37 hours

G90
G92 X0 Y0 Z0
M03 S24000
G00 Z5.0000 F500


;No. 1: Hole 12
G00 X1.8000 Y2.8000 F3000
G00 Z0.5000 F500
G01 Z-0.1000 F120
G01 X198.2000 F450
G01 Y5.5000
G01 X1.8000
G01 Y8.2000
G01 X198.2000
G01 Y10.9000
G01 X1.8000
G01 Y13.6000
G01 X198.2000
G01 Y16.3000
G01 X1.8000
G01 Y19.0000
G01 X198.2000
G01 Y21.7000
G01 X1.8000
G01 Y24.4000
G01 X198.2000
G01 Y27.1000
G01 X1.8000
G01 Y29.8000
G01 X198.2000
G01 Y32.5000
G01 X1.8000
G01 Y35.2000
G01 X198.2000
G01 Y37.9000
G01 X1.8000
G01 Y40.6000
G01 X198.2000
G01 Y43.3000
G01 X1.8000
G01 Y46.0000
G01 X198.2000
G01 Y48.7000
G01 X1.8000
G01 Y51.4000
G01 X198.2000
G01 Y54.1000
G01 X1.8000
G01 Y56.8000
G01 X198.2000
G01 Y59.5000
G01 X1.8000
G01 Y62.2000
G01 X198.2000
G01 Y64.9000
G01 X1.8000
G01 Y67.6000
G01 X198.2000
G01 Y70.3000
G01 X1.8000
G01 Y73.0000
G01 X198.2000
G01 Y75.7000
G01 X1.8000
G01 Y78.4000
G01 X198.2000
G01 Y81.1000
G01 X1.8000
G01 Y83.8000
G01 X198.2000
G01 Y86.5000
G01 X1.8000
G01 Y89.2000
G01 X198.2000
G01 Y91.9000
G01 X1.8000
G01 Y94.6000
G01 X198.2000
G01 Y97.3000
G01 X1.8000
G01 Y100.0000
G01 X198.2000
G01 Y102.7000
G01 X1.8000
G01 Y105.4000
G01 X198.2000
G01 Y108.1000
G01 X1.8000
G01 Y110.8000
G01 X198.2000
G01 Y113.5000
G01 X1.8000
G01 Y116.2000
G01 X198.2000
G01 Y118.9000
G01 X1.8000
G01 Y121.6000
G01 X198.2000
G01 Y124.3000
G01 X1.8000
G01 Y127.0000
G01 X198.2000
G01 Y129.7000
G01 X1.8000
G01 Y132.4000
G01 X198.2000
G01 Y135.1000
G01 X1.8000
G01 Y137.8000
G01 X198.2000
G01 Y140.5000
G01 X1.8000
G01 Y143.2000
G01 X198.2000
G01 Y145.9000
G01 X1.8000
G01 Y148.6000
G01 X198.2000
G01 Y151.3000
G01 X1.8000
G01 Y154.0000
G01 X198.2000
G01 Y156.7000
G01 X1.8000
G01 Y159.4000
G01 X198.2000
G01 Y162.1000
G01 X1.8000
G01 Y164.8000
G01 X198.2000
G01 Y167.5000
G01 X1.8000
G01 Y170.2000
G01 X198.2000
G01 Y172.9000
G01 X1.8000
G01 Y175.6000
G01 X198.2000
G01 Y178.3000
G01 X1.8000
G01 Y181.0000
G01 X198.2000
G01 Y183.7000
G01 X1.8000
G01 Y186.4000
G01 X198.2000
G01 Y189.1000
G01 X1.8000
G01 Y191.8000
G01 X198.2000
G01 Y194.5000
G01 X1.8000
G01 Y197.2000
G01 X198.2000
G00 Z5.0000 F500
G00 Z0.5000
G01 Z-0.1000 F120
G01 X198.5000 F450
G01 Y1.5007
G01 X1.5000 Y1.5882
G01 Y198.5000
G01 X198.5000
G01 Y197.2000
G01 X198.2000
G00 Z5.0000 F500


;No. 2: Hole 10
G00 X13.6333 Y2.3000 Z5.0000 F3000
G00 Z0.5000 F500
G01 Z-0.1000 F120
G01 X6.5848 F450
G01 X9.5456 Y5.0000
G01 X14.3138
G01 X12.2456 Y7.7000
G01 X20.2000
G00 Z5.0000 F500
G00 Z0.5000
G01 Z-0.1000 F120
G01 X20.5000 F450
G01 Y5.5000
G01 X18.6213
G01 X18.0748 Y6.0465
G01 X17.9357 Y6.1725
G01 X17.7819 Y6.2802
G01 X17.6158 Y6.3678
G01 X17.4401 Y6.4340
G01 X17.2575 Y6.4777
G01 X17.0709 Y6.4983
G01 X16.8832 Y6.4954
G01 X16.6973 Y6.4691
G01 X16.5162 Y6.4198
G01 X16.3426 Y6.3483
G01 X16.1793 Y6.2556
G01 X16.0289 Y6.1432
G01 X15.4579 Y5.6590
G01 X15.1930 Y5.4958
G01 X14.9512 Y5.2999
G01 X14.7366 Y5.0747
G01 X14.5526 Y4.8238
G01 X14.4022 Y4.5514
G01 X14.2880 Y4.2619
G01 X14.2119 Y3.9603
G01 X14.1750 Y3.6513
G01 Y3.4587
G01 X14.1734 Y3.4427
G01 X13.7759 Y1.5000
G01 X1.5429 Y1.5054
G01 X1.5259 Y2.5000
G01 X5.9800
G01 X6.1296 Y2.5055
G01 X6.2779 Y2.5259
G01 X6.4234 Y2.5610
G01 X6.5648 Y2.6104
G01 X6.7005 Y2.6736
G01 X6.8292 Y2.7500
G01 X6.9496 Y2.8389
G01 X7.0607 Y2.9393
G01 X12.6213 Y8.5000
G01 X20.5000
G01 Y7.7000
G01 X20.2000
G00 Z5.0000 F500


;No. 3: Hole 9
G00 X31.3648 Y14.1800 Z5.0000 F3000
G00 Z0.5000 F500
G01 Z-0.1000 F120
G01 X33.0750 F450
G01 Y16.8800
G01 X29.2750
G01 Y19.5800
G01 X33.0750
G01 Y22.2800
G01 X29.2750
G01 Y24.9800
G01 X33.0750
G00 Z5.0000 F500
G00 Z0.5000
G01 Z-0.1000 F120
G01 X33.3750 F450
G01 Y12.8000
G01 X33.3739 Y12.7898
G01 X31.8159 Y13.3092
G01 X31.8061 Y13.3152
G01 X31.0322 Y14.0883
G01 X30.8580 Y14.2304
G01 X30.6645 Y14.3448
G01 X30.4561 Y14.4290
G01 X30.2374 Y14.4811
G01 X28.9750 Y14.6900
G01 Y26.6600
G01 X33.3750
G01 Y24.9800
G01 X33.0750
G00 Z5.0000 F500


;No. 4: Hole 11
G00 X41.9189 Y1.5000 Z5.0000 F3000
G00 Z0.5000 F500
G01 Z-0.1000 F120
G01 X19.5800 F450
G01 X19.5830 Y1.5152
G01 X20.2807 Y1.5237
G01 X20.9784 Y1.5248
G01 X21.6761 Y1.5186
G01 X22.3737 Y1.5050
G01 X25.4261 Y1.5143
G01 X25.4470 Y1.5610
G01 X25.4590 Y1.5688
G01 X26.1710
G01 X26.0732
G01 X26.2021 Y1.5542
G01 X26.2903 Y1.5032
G01 X28.6597
G01 X28.8475 Y1.6197
G01 X29.0206 Y1.7572
G01 X29.1766 Y1.9137
G01 X29.3134 Y2.0872
G01 X29.3987 Y6.0635
G01 X29.3689 Y6.2850
G01 X29.4000 Y6.4450
G01 Y6.0650
G01 X29.4237 Y2.1025
G01 X29.5612 Y1.9229
G01 X29.7198 Y1.7615
G01 X29.8970 Y1.6209
G01 X30.0903 Y1.5032
G01 X32.4597
G01 X32.5306 Y1.5442
G01 X32.6768 Y1.5688
G01 X32.5790
G01 X33.8710
G01 X33.7732
G01 X33.9021 Y1.5542
G01 X33.9903 Y1.5032
G01 X38.1057 Y1.5020
G01 X38.3095 Y1.5250
G01 X40.2182
G01 X41.9156 Y1.5097
G01 X41.9189 Y1.5000
G00 Z5.0000 F500


;No. 5: Hole 8
G00 X44.8000 Y4.3000 Z5.0000 F3000
G00 Z0.5000 F500
G01 Z-0.1000 F120
G01 X54.3263 F450
G00 Z5.0000 F500
G00 Z0.5000
G01 Z-0.1000 F120
G01 X54.6263 Y4.3010 F450
G01 X54.6358 Y1.5327
G01 X44.5000 Y1.5042
G01 Y4.8200
G01 X44.5086 Y4.8310
G01 X47.4012 Y5.5547
G01 X47.6298 Y5.6386
G01 X47.8418 Y5.7584
G01 X48.0315 Y5.9110
G01 X48.1941 Y6.0922
G01 X48.3253 Y6.2974
G01 X48.4215 Y6.5210
G01 X48.4802 Y6.7573
G01 X48.5000 Y7.0000
G01 Y9.0600
G01 X48.5098 Y9.0680
G01 X51.3113 Y7.6673
G01 X51.5293 Y7.5757
G01 X51.7589 Y7.5194
G01 X51.9946 Y7.5000
G01 X52.2304 Y7.5178
G01 X52.4604 Y7.5724
G01 X52.6790 Y7.6625
G01 X52.8808 Y7.7858
G01 X53.0607 Y7.9393
G01 X54.0465 Y8.9252
G01 X54.1484 Y9.0349
G01 X54.2388 Y9.1542
G01 X54.3170 Y9.2819
G01 X54.3820 Y9.4167
G01 X54.4332 Y9.5574
G01 X54.4702 Y9.7025
G01 X54.4925 Y9.8505
G01 X54.5000 Y10.0000
G01 Y38.9000
G01 X54.5072 Y38.9148
G01 X54.6263 Y4.3010
G01 X54.3263 Y4.3000
G00 Z5.0000 F500


;No. 6: Hole 7
G00 X39.1190 Y33.5855 Z5.0000 F3000
G00 Z0.5000 F500
G01 Z-0.1000 F120
G01 X28.9601 F450
G01 X26.2601 Y36.2855
G01 X42.4263
G01 Y38.9855
G01 X45.7337
G01 X23.5601
G00 Z5.0000 F500
G00 Z0.5000
G01 Z-0.1000 F120
G01 X23.3480 Y38.7734 F450
G01 X23.2313 Y38.9048
G01 X23.1060 Y39.0281
G01 X22.9727 Y39.1427
G01 X22.8321 Y39.2481
G01 X19.8487 Y41.2370
G01 X19.6538 Y41.3501
G01 X19.4443 Y41.4327
G01 X19.2247 Y41.4831
G01 X19.0000 Y41.5000
G01 X15.0200
G01 X14.8414 Y41.4917
G01 X14.6651 Y41.4621
G01 X14.4936 Y41.4119
G01 X14.3292 Y41.3416
G01 X12.6400 Y40.5000
G01 X6.3600
G01 X6.3488 Y40.5026
G01 X4.3338 Y41.5105
G01 X54.5579 Y41.6359
G01 X54.5435 Y41.2524
G01 X51.0500 Y40.5948
G01 X47.6206 Y39.8337
G01 X47.4008 Y39.7824
G01 X47.1892 Y39.7040
G01 X46.9890 Y39.5999
G01 X46.8034 Y39.4715
G01 X36.3955 Y30.9749
G01 X30.6719 Y31.4494
G01 X23.3480 Y38.7734
G01 X23.5601 Y38.9855
G00 Z5.0000 F500
G00 X0.0000 Y0.0000 F3000

M05
