;Project Panel
;Created by Estlcam version 10 build 11.006
;Machining time about 00:10:39 hours

G90
G92 X0 Y0 Z0
M03 S24000
G00 Z1.0000 F500


;No. 1: Hole 98
G00 X-36.7000 Y-37.9000 F3000
G00 Z0.5000 F500
G01 Z-1.0000 F120
G01 X-3.3000 F180
G01 Y-35.5000
G01 X-36.7000
G01 Y-33.1000
G01 X-3.3000
G01 Y-30.7000
G01 X-36.7000
G01 Y-28.3000
G01 X-34.8000
G01 Y-25.9000
G01 X-36.7000
G01 Y-23.5000
G01 X-34.8000
G01 Y-21.1000
G01 X-36.7000
G01 Y-18.7000
G01 X-34.8000
G01 Y-16.3000
G01 X-36.7000
G01 Y-13.9000
G01 X-3.3000
G01 Y-16.3000
G01 X-5.2000
G01 Y-18.7000
G01 X-3.3000
G01 Y-21.1000
G01 X-5.2000
G01 Y-23.5000
G01 X-3.3000
G01 Y-25.9000
G01 X-5.2000
G01 Y-28.3000
G01 X-3.3000
G00 Z1.0000 F500
G00 X-36.7000 Y-13.9000 F3000
G00 Z0.5000 F500
G01 Z-1.0000 F120
G01 Y-11.5000 F180
G01 X-3.3000
G01 Y-9.1000
G01 X-36.7000
G00 Z1.0000 F500
G00 X-34.5000 Y-13.9000 F3000
G00 Z0.5000 F500
G01 Z-1.0000 F120
G01 Y-14.5000 F180
G01 X-5.5000
G01 Y-29.5000
G01 X-34.5000
G01 Y-14.5000
G01 Y-13.9000
G00 Z1.0000 F500
G00 X-36.7000 F3000
G00 Z0.5000 F500
G01 Z-1.0000 F120
G01 X-37.0000 F180
G01 Y-7.5000
G01 X-37.4393 Y-7.0607
G01 X-37.0000 Y-7.5000
G01 X-3.0000
G01 X-2.5607 Y-7.0607
G01 X-3.0000 Y-7.5000
G01 Y-39.5000
G01 X-2.5607 Y-39.9393
G01 X-3.0000 Y-39.5000
G01 X-37.0000
G01 X-37.4393 Y-39.9393
G01 X-37.0000 Y-39.5000
G01 Y-13.9000
G01 X-36.7000
G00 Z1.0000 F500
G00 Y-37.9000 F3000
G00 Z-0.5000 F500
G01 Z-2.0000 F120
G01 X-3.3000 F180
G01 Y-35.5000
G01 X-36.7000
G01 Y-33.1000
G01 X-3.3000
G01 Y-30.7000
G01 X-36.7000
G01 Y-28.3000
G01 X-34.8000
G01 Y-25.9000
G01 X-36.7000
G01 Y-23.5000
G01 X-34.8000
G01 Y-21.1000
G01 X-36.7000
G01 Y-18.7000
G01 X-34.8000
G01 Y-16.3000
G01 X-36.7000
G01 Y-13.9000
G01 X-3.3000
G01 Y-16.3000
G01 X-5.2000
G01 Y-18.7000
G01 X-3.3000
G01 Y-21.1000
G01 X-5.2000
G01 Y-23.5000
G01 X-3.3000
G01 Y-25.9000
G01 X-5.2000
G01 Y-28.3000
G01 X-3.3000
G00 Z1.0000 F500
G00 X-36.7000 Y-13.9000 F3000
G00 Z-0.5000 F500
G01 Z-2.0000 F120
G01 Y-11.5000 F180
G01 X-3.3000
G01 Y-9.1000
G01 X-36.7000
G00 Z1.0000 F500
G00 X-34.5000 Y-13.9000 F3000
G00 Z-0.5000 F500
G01 Z-2.0000 F120
G01 Y-14.5000 F180
G01 X-5.5000
G01 Y-29.5000
G01 X-34.5000
G01 Y-14.5000
G01 Y-13.9000
G00 Z1.0000 F500
G00 X-36.7000 F3000
G00 Z-0.5000 F500
G01 Z-2.0000 F120
G01 X-37.0000 F180
G01 Y-7.5000
G01 X-37.4393 Y-7.0607
G01 X-37.0000 Y-7.5000
G01 X-3.0000
G01 X-2.5607 Y-7.0607
G01 X-3.0000 Y-7.5000
G01 Y-39.5000
G01 X-2.5607 Y-39.9393
G01 X-3.0000 Y-39.5000
G01 X-37.0000
G01 X-37.4393 Y-39.9393
G01 X-37.0000 Y-39.5000
G01 Y-13.9000
G01 X-36.7000
G00 Z1.0000 F500
G00 Y-37.9000 F3000
G00 Z-1.5000 F500
G01 Z-2.1000 F120
G01 X-3.3000 F180
G01 Y-35.5000
G01 X-36.7000
G01 Y-33.1000
G01 X-3.3000
G01 Y-30.7000
G01 X-36.7000
G01 Y-28.3000
G01 X-34.8000
G01 Y-25.9000
G01 X-36.7000
G01 Y-23.5000
G01 X-34.8000
G01 Y-21.1000
G01 X-36.7000
G01 Y-18.7000
G01 X-34.8000
G01 Y-16.3000
G01 X-36.7000
G01 Y-13.9000
G01 X-3.3000
G01 Y-16.3000
G01 X-5.2000
G01 Y-18.7000
G01 X-3.3000
G01 Y-21.1000
G01 X-5.2000
G01 Y-23.5000
G01 X-3.3000
G01 Y-25.9000
G01 X-5.2000
G01 Y-28.3000
G01 X-3.3000
G00 Z1.0000 F500
G00 X-36.7000 Y-13.9000 F3000
G00 Z-1.5000 F500
G01 Z-2.1000 F120
G01 Y-11.5000 F180
G01 X-3.3000
G01 Y-9.1000
G01 X-36.7000
G00 Z1.0000 F500
G00 X-34.5000 Y-13.9000 F3000
G00 Z-1.5000 F500
G01 Z-2.1000 F120
G01 Y-14.5000 F180
G01 X-5.5000
G01 Y-29.5000
G01 X-34.5000
G01 Y-14.5000
G01 Y-13.9000
G00 Z1.0000 F500
G00 X-36.7000 F3000
G00 Z-1.5000 F500
G01 Z-2.1000 F120
G01 X-37.0000 F180
G01 Y-7.5000
G01 X-37.4393 Y-7.0607
G01 X-37.0000 Y-7.5000
G01 X-3.0000
G01 X-2.5607 Y-7.0607
G01 X-3.0000 Y-7.5000
G01 Y-39.5000
G01 X-2.5607 Y-39.9393
G01 X-3.0000 Y-39.5000
G01 X-37.0000
G01 X-37.4393 Y-39.9393
G01 X-37.0000 Y-39.5000
G01 Y-13.9000
G01 X-36.7000
G00 Z1.0000 F500
G00 X0.0000 Y0.0000 F3000

M05
