;Project LowerPlateWheelCut
;Created by Estlcam version 10 build 11.006
;Machining time about 00:13:39 hours

G90
G92 X0 Y0 Z0
M03 S24000
G00 Z1.0000 F500


;No. 1: Engraving 2
G00 X32.0515 Y38.4471 F3000
G00 Z0.5000 F500
G01 Z-1.0000 F120
G01 X9.5600 F300
G01 X9.5500 Y38.4315
G01 Y-10.9362
G00 Z1.0000 F500
G00 X32.0515 Y38.4471 F3000
G00 Z-0.5000 F500
G01 Z-2.0000 F120
G01 X9.5600 F300
G01 X9.5500 Y38.4315
G01 Y-10.9362
G00 Z1.0000 F500
G00 X32.0515 Y38.4471 F3000
G00 Z-1.5000 F500
G01 Z-3.0000 F120
G01 X9.5600 F300
G01 X9.5500 Y38.4315
G01 Y-10.9362
G00 Z1.0000 F500
G00 X32.0515 Y38.4471 F3000
G00 Z-2.5000 F500
G01 Z-4.0000 F120
G01 X9.5600 F300
G01 X9.5500 Y38.4315
G01 Y-10.9362
G00 Z1.0000 F500
G00 X32.0515 Y38.4471 F3000
G00 Z-3.5000 F500
G01 Z-5.0000 F120
G01 X9.5600 F300
G01 X9.5500 Y38.4315
G01 Y-10.9362
G00 Z1.0000 F500
G00 X32.0515 Y38.4471 F3000
G00 Z-4.5000 F500
G01 Z-6.0000 F120
G01 X9.5600 F300
G01 X9.5500 Y38.4315
G01 Y-10.9362
G00 Z1.0000 F500
G00 X32.0515 Y38.4471 F3000
G00 Z-5.5000 F500
G01 Z-7.0000 F120
G01 X9.5600 F300
G01 X9.5500 Y38.4315
G01 Y-10.9362
G00 Z1.0000 F500
G00 X32.0515 Y38.4471 F3000
G00 Z-6.5000 F500
G01 Z-8.0000 F120
G01 X9.5600 F300
G01 X9.5500 Y38.4315
G01 Y-10.9362
G00 Z1.0000 F500
G00 X32.0515 Y38.4471 F3000
G00 Z-7.5000 F500
G01 Z-9.0000 F120
G01 X9.5600 F300
G01 X9.5500 Y38.4315
G01 Y-10.9362
G00 Z1.0000 F500
G00 X32.0515 Y38.4471 F3000
G00 Z-8.5000 F500
G01 Z-10.0000 F120
G01 X9.5600 F300
G01 X9.5500 Y38.4315
G01 Y-10.9362
G00 Z1.0000 F500
G00 X32.0515 Y38.4471 F3000
G00 Z-9.5000 F500
G01 Z-11.0000 F120
G01 X9.5600 F300
G01 X9.5500 Y38.4315
G01 Y-10.9362
G00 Z1.0000 F500
G00 X32.0515 Y38.4471 F3000
G00 Z-10.5000 F500
G01 Z-12.0000 F120
G01 X9.5600 F300
G01 X9.5500 Y38.4315
G01 Y-10.9362
G00 Z1.0000 F500
G00 X32.0515 Y38.4471 F3000
G00 Z-11.5000 F500
G01 Z-13.0000 F120
G01 X9.5600 F300
G01 X9.5500 Y38.4315
G01 Y-10.9362
G00 Z1.0000 F500
G00 X32.0515 Y38.4471 F3000
G00 Z-12.5000 F500
G01 Z-14.0000 F120
G01 X9.5600 F300
G01 X9.5500 Y38.4315
G01 Y-10.9362
G00 Z1.0000 F500
G00 X32.0515 Y38.4471 F3000
G00 Z-13.5000 F500
G01 Z-15.0000 F120
G01 X9.5600 F300
G01 X9.5500 Y38.4315
G01 Y-10.9362
G00 Z1.0000 F500
G00 X32.0515 Y38.4471 F3000
G00 Z-14.5000 F500
G01 Z-16.0000 F120
G01 X9.5600 F300
G01 X9.5500 Y38.4315
G01 Y-10.9362
G00 Z1.0000 F500
G00 X32.0515 Y38.4471 F3000
G00 Z-15.5000 F500
G01 Z-17.0000 F120
G01 X9.5600 F300
G01 X9.5500 Y38.4315
G01 Y-10.9362
G00 Z1.0000 F500
G00 X32.0515 Y38.4471 F3000
G00 Z-16.5000 F500
G01 Z-18.0000 F120
G01 X9.5600 F300
G01 X9.5500 Y38.4315
G01 Y-10.9362
G00 Z1.0000 F500
G00 X32.0515 Y38.4471 F3000
G00 Z-17.5000 F500
G01 Z-19.0000 F120
G01 X9.5600 F300
G01 X9.5500 Y38.4315
G01 Y-10.9362
G00 Z1.0000 F500


;No. 2: Hole 4
G00 X5.5500 Y-0.4400 Z1.0000 F3000
G00 Z0.5000 F500
G01 Z-1.0000 F120
G01 Y10.4500 F300
G01 X7.9990
G01 X8.0064 Y10.4308
G01 Y-0.4400
G01 X7.9964 Y-0.4500
G01 X5.5600
G01 X5.5500 Y-0.4400
G01 Z-2.0000 F120
G01 Y10.4500 F300
G01 X7.9990
G01 X8.0064 Y10.4308
G01 Y-0.4400
G01 X7.9964 Y-0.4500
G01 X5.5600
G01 X5.5500 Y-0.4400
G01 Z-3.0000 F120
G01 Y10.4500 F300
G01 X7.9990
G01 X8.0064 Y10.4308
G01 Y-0.4400
G01 X7.9964 Y-0.4500
G01 X5.5600
G01 X5.5500 Y-0.4400
G01 Z-4.0000 F120
G01 Y10.4500 F300
G01 X7.9990
G01 X8.0064 Y10.4308
G01 Y-0.4400
G01 X7.9964 Y-0.4500
G01 X5.5600
G01 X5.5500 Y-0.4400
G01 Z-5.0000 F120
G01 Y10.4500 F300
G01 X7.9990
G01 X8.0064 Y10.4308
G01 Y-0.4400
G01 X7.9964 Y-0.4500
G01 X5.5600
G01 X5.5500 Y-0.4400
G01 Z-6.0000 F120
G01 Y10.4500 F300
G01 X7.9990
G01 X8.0064 Y10.4308
G01 Y-0.4400
G01 X7.9964 Y-0.4500
G01 X5.5600
G01 X5.5500 Y-0.4400
G01 Z-7.0000 F120
G01 Y10.4500 F300
G01 X7.9990
G01 X8.0064 Y10.4308
G01 Y-0.4400
G01 X7.9964 Y-0.4500
G01 X5.5600
G01 X5.5500 Y-0.4400
G01 Z-8.0000 F120
G01 Y10.4500 F300
G01 X7.9990
G01 X8.0064 Y10.4308
G01 Y-0.4400
G01 X7.9964 Y-0.4500
G01 X5.5600
G01 X5.5500 Y-0.4400
G01 Z-9.0000 F120
G01 Y10.4500 F300
G01 X7.9990
G01 X8.0064 Y10.4308
G01 Y-0.4400
G01 X7.9964 Y-0.4500
G01 X5.5600
G01 X5.5500 Y-0.4400
G01 Z-10.0000 F120
G01 Y10.4500 F300
G01 X7.9990
G01 X8.0064 Y10.4308
G01 Y-0.4400
G01 X7.9964 Y-0.4500
G01 X5.5600
G01 X5.5500 Y-0.4400
G01 Z-11.0000 F120
G01 Y10.4500 F300
G01 X7.9990
G01 X8.0064 Y10.4308
G01 Y-0.4400
G01 X7.9964 Y-0.4500
G01 X5.5600
G01 X5.5500 Y-0.4400
G01 Z-12.0000 F120
G01 Y10.4500 F300
G01 X7.9990
G01 X8.0064 Y10.4308
G01 Y-0.4400
G01 X7.9964 Y-0.4500
G01 X5.5600
G01 X5.5500 Y-0.4400
G01 Z-13.0000 F120
G01 Y10.4500 F300
G01 X7.9990
G01 X8.0064 Y10.4308
G01 Y-0.4400
G01 X7.9964 Y-0.4500
G01 X5.5600
G01 X5.5500 Y-0.4400
G01 Z-14.0000 F120
G01 Y10.4500 F300
G01 X7.9990
G01 X8.0064 Y10.4308
G01 Y-0.4400
G01 X7.9964 Y-0.4500
G01 X5.5600
G01 X5.5500 Y-0.4400
G01 Z-15.0000 F120
G01 Y10.4500 F300
G01 X7.9990
G01 X8.0064 Y10.4308
G01 Y-0.4400
G01 X7.9964 Y-0.4500
G01 X5.5600
G01 X5.5500 Y-0.4400
G00 Z1.0000 F500
G00 X0.0000 Y0.0000 F3000

M05
