;Project LowerPlateWheelCut
;Created by Estlcam version 10 build 11.006
;Machining time about 00:13:10 hours

G90
G92 X0 Y0 Z0
M03 S24000
G00 Z1.0000 F500


;No. 1: Hole 3
G00 X-9.5600 Y-9.7692 F3000
G00 Z0.5000 F500
G01 Z-1.0000 F120
G01 X-30.1801 F300
G01 Y38.4514
G01 X-30.0000 Y38.4500
G01 X-9.5500
G01 X-9.5600 Y-9.7692
G01 Z-2.0000 F120
G01 X-30.1801 F300
G01 Y38.4514
G01 X-30.0000 Y38.4500
G01 X-9.5500
G01 X-9.5600 Y-9.7692
G01 Z-3.0000 F120
G01 X-30.1801 F300
G01 Y38.4514
G01 X-30.0000 Y38.4500
G01 X-9.5500
G01 X-9.5600 Y-9.7692
G01 Z-4.0000 F120
G01 X-30.1801 F300
G01 Y38.4514
G01 X-30.0000 Y38.4500
G01 X-9.5500
G01 X-9.5600 Y-9.7692
G01 Z-5.0000 F120
G01 X-30.1801 F300
G01 Y38.4514
G01 X-30.0000 Y38.4500
G01 X-9.5500
G01 X-9.5600 Y-9.7692
G01 Z-6.0000 F120
G01 X-30.1801 F300
G01 Y38.4514
G01 X-30.0000 Y38.4500
G01 X-9.5500
G01 X-9.5600 Y-9.7692
G01 Z-7.0000 F120
G01 X-30.1801 F300
G01 Y38.4514
G01 X-30.0000 Y38.4500
G01 X-9.5500
G01 X-9.5600 Y-9.7692
G01 Z-8.0000 F120
G01 X-30.1801 F300
G01 Y38.4514
G01 X-30.0000 Y38.4500
G01 X-9.5500
G01 X-9.5600 Y-9.7692
G01 Z-9.0000 F120
G01 X-30.1801 F300
G01 Y38.4514
G01 X-30.0000 Y38.4500
G01 X-9.5500
G01 X-9.5600 Y-9.7692
G01 Z-10.0000 F120
G01 X-30.1801 F300
G01 Y38.4514
G01 X-30.0000 Y38.4500
G01 X-9.5500
G01 X-9.5600 Y-9.7692
G01 Z-11.0000 F120
G01 X-30.1801 F300
G01 Y38.4514
G01 X-30.0000 Y38.4500
G01 X-9.5500
G01 X-9.5600 Y-9.7692
G01 Z-12.0000 F120
G01 X-30.1801 F300
G01 Y38.4514
G01 X-30.0000 Y38.4500
G01 X-9.5500
G01 X-9.5600 Y-9.7692
G01 Z-13.0000 F120
G01 X-30.1801 F300
G01 Y38.4514
G01 X-30.0000 Y38.4500
G01 X-9.5500
G01 X-9.5600 Y-9.7692
G01 Z-14.0000 F120
G01 X-30.1801 F300
G01 Y38.4514
G01 X-30.0000 Y38.4500
G01 X-9.5500
G01 X-9.5600 Y-9.7692
G01 Z-15.0000 F120
G01 X-30.1801 F300
G01 Y38.4514
G01 X-30.0000 Y38.4500
G01 X-9.5500
G01 X-9.5600 Y-9.7692
G01 Z-16.0000 F120
G01 X-30.1801 F300
G01 Y38.4514
G01 X-30.0000 Y38.4500
G01 X-9.5500
G01 X-9.5600 Y-9.7692
G01 Z-17.0000 F120
G01 X-30.1801 F300
G01 Y38.4514
G01 X-30.0000 Y38.4500
G01 X-9.5500
G01 X-9.5600 Y-9.7692
G01 Z-18.0000 F120
G01 X-30.1801 F300
G01 Y38.4514
G01 X-30.0000 Y38.4500
G01 X-9.5500
G01 X-9.5600 Y-9.7692
G01 Z-19.0000 F120
G01 X-30.1801 F300
G01 Y38.4514
G01 X-30.0000 Y38.4500
G01 X-9.5500
G01 X-9.5600 Y-9.7692
G00 Z1.0000 F500


;No. 2: Hole 2
G00 X-8.4968 Y-0.4400 Z1.0000 F3000
G00 Z0.5000 F500
G01 Z-1.0000 F120
G01 Y10.4400 F300
G01 X-8.4868 Y10.4500
G01 X-5.5600
G01 X-5.5500 Y10.4400
G01 Y-0.4400
G01 X-5.5600 Y-0.4500
G01 X-8.4868
G01 X-8.4968 Y-0.4400
G01 Z-2.0000 F120
G01 Y10.4400 F300
G01 X-8.4868 Y10.4500
G01 X-5.5600
G01 X-5.5500 Y10.4400
G01 Y-0.4400
G01 X-5.5600 Y-0.4500
G01 X-8.4868
G01 X-8.4968 Y-0.4400
G01 Z-3.0000 F120
G01 Y10.4400 F300
G01 X-8.4868 Y10.4500
G01 X-5.5600
G01 X-5.5500 Y10.4400
G01 Y-0.4400
G01 X-5.5600 Y-0.4500
G01 X-8.4868
G01 X-8.4968 Y-0.4400
G01 Z-4.0000 F120
G01 Y10.4400 F300
G01 X-8.4868 Y10.4500
G01 X-5.5600
G01 X-5.5500 Y10.4400
G01 Y-0.4400
G01 X-5.5600 Y-0.4500
G01 X-8.4868
G01 X-8.4968 Y-0.4400
G01 Z-5.0000 F120
G01 Y10.4400 F300
G01 X-8.4868 Y10.4500
G01 X-5.5600
G01 X-5.5500 Y10.4400
G01 Y-0.4400
G01 X-5.5600 Y-0.4500
G01 X-8.4868
G01 X-8.4968 Y-0.4400
G01 Z-6.0000 F120
G01 Y10.4400 F300
G01 X-8.4868 Y10.4500
G01 X-5.5600
G01 X-5.5500 Y10.4400
G01 Y-0.4400
G01 X-5.5600 Y-0.4500
G01 X-8.4868
G01 X-8.4968 Y-0.4400
G01 Z-7.0000 F120
G01 Y10.4400 F300
G01 X-8.4868 Y10.4500
G01 X-5.5600
G01 X-5.5500 Y10.4400
G01 Y-0.4400
G01 X-5.5600 Y-0.4500
G01 X-8.4868
G01 X-8.4968 Y-0.4400
G01 Z-8.0000 F120
G01 Y10.4400 F300
G01 X-8.4868 Y10.4500
G01 X-5.5600
G01 X-5.5500 Y10.4400
G01 Y-0.4400
G01 X-5.5600 Y-0.4500
G01 X-8.4868
G01 X-8.4968 Y-0.4400
G01 Z-9.0000 F120
G01 Y10.4400 F300
G01 X-8.4868 Y10.4500
G01 X-5.5600
G01 X-5.5500 Y10.4400
G01 Y-0.4400
G01 X-5.5600 Y-0.4500
G01 X-8.4868
G01 X-8.4968 Y-0.4400
G01 Z-10.0000 F120
G01 Y10.4400 F300
G01 X-8.4868 Y10.4500
G01 X-5.5600
G01 X-5.5500 Y10.4400
G01 Y-0.4400
G01 X-5.5600 Y-0.4500
G01 X-8.4868
G01 X-8.4968 Y-0.4400
G01 Z-11.0000 F120
G01 Y10.4400 F300
G01 X-8.4868 Y10.4500
G01 X-5.5600
G01 X-5.5500 Y10.4400
G01 Y-0.4400
G01 X-5.5600 Y-0.4500
G01 X-8.4868
G01 X-8.4968 Y-0.4400
G01 Z-12.0000 F120
G01 Y10.4400 F300
G01 X-8.4868 Y10.4500
G01 X-5.5600
G01 X-5.5500 Y10.4400
G01 Y-0.4400
G01 X-5.5600 Y-0.4500
G01 X-8.4868
G01 X-8.4968 Y-0.4400
G01 Z-13.0000 F120
G01 Y10.4400 F300
G01 X-8.4868 Y10.4500
G01 X-5.5600
G01 X-5.5500 Y10.4400
G01 Y-0.4400
G01 X-5.5600 Y-0.4500
G01 X-8.4868
G01 X-8.4968 Y-0.4400
G01 Z-14.0000 F120
G01 Y10.4400 F300
G01 X-8.4868 Y10.4500
G01 X-5.5600
G01 X-5.5500 Y10.4400
G01 Y-0.4400
G01 X-5.5600 Y-0.4500
G01 X-8.4868
G01 X-8.4968 Y-0.4400
G01 Z-15.0000 F120
G01 Y10.4400 F300
G01 X-8.4868 Y10.4500
G01 X-5.5600
G01 X-5.5500 Y10.4400
G01 Y-0.4400
G01 X-5.5600 Y-0.4500
G01 X-8.4868
G01 X-8.4968 Y-0.4400
G00 Z1.0000 F500
G00 X0.0000 Y0.0000 F3000

M05
