;Project Panel
;Created by Estlcam version 10 build 11.006
;Machining time about 01:22:18 hours

G90
G92 X0 Y0 Z0
M03 S24000
G00 Z1.0000 F500


;No. 1: Part 2
G00 X44.1459 Y77.1386 F3000
G00 Z0.5000 F500
G01 Z-1.2000 F120
G01 X45.8606 F108
G01 X46.6400 Y77.8386
G01 X43.3648
G01 X43.0866 Y78.5386
G01 X46.9190
G01 X46.9189 Y79.2386
G01 X43.0861
G01 X43.3650 Y79.9386
G01 X46.6403
G01 X45.8592 Y80.6386
G01 X44.1445
G00 Z1.0000 F500
G00 Z0.5000
G01 Z-1.2000 F120
G01 X44.1017 Y80.7288 F108
G01 X43.8587 Y80.5885
G01 X43.6372 Y80.4163
G01 X43.4413 Y80.2154
G01 X43.2747 Y79.9897
G01 X43.1405 Y79.7433
G01 X43.0412 Y79.4808
G01 X42.9787 Y79.2073
G01 X42.9541 Y78.9278
G01 X42.9527 Y78.8779
G01 X42.9562 Y78.7975
G01 X42.9619 Y78.7172
G01 X42.9697 Y78.6372
G01 X42.9796 Y78.5573
G01 X43.0433 Y78.2853
G01 X43.1435 Y78.0244
G01 X43.2783 Y77.7797
G01 X43.4451 Y77.5555
G01 X43.6408 Y77.3561
G01 X43.8618 Y77.1851
G01 X44.1041 Y77.0458
G01 X44.3630 Y76.9408
G01 X44.6338 Y76.8720
G01 X44.9115 Y76.8406
G01 X45.1908 Y76.8473
G01 X45.4666 Y76.8919
G01 X45.7338 Y76.9737
G01 X45.9874 Y77.0910
G01 X46.2227 Y77.2417
G01 X46.4353 Y77.4231
G01 X46.6212 Y77.6316
G01 X46.7771 Y77.8635
G01 X46.8999 Y78.1145
G01 X46.9875 Y78.3798
G01 X47.0382 Y78.6546
G01 X47.0510 Y78.9338
G01 X47.0257 Y79.2120
G01 X46.9629 Y79.4843
G01 X46.8873 Y79.6926
G01 X46.7896 Y79.8916
G01 X46.6710 Y80.0788
G01 X46.5328 Y80.2521
G01 X46.3768 Y80.4095
G01 X46.2046 Y80.5490
G01 X46.0183 Y80.6691
G01 X45.8202 Y80.7684
G01 X45.6124 Y80.8457
G01 X45.3976 Y80.9000
G01 X45.1781 Y80.9308
G01 X44.9566 Y80.9377
G01 X44.7356 Y80.9207
G01 X44.5178 Y80.8798
G01 X44.3057 Y80.8156
G01 X44.1017 Y80.7288
G01 X44.1445 Y80.6386
G00 Z1.0000 F500


;No. 2: Part 2
G00 X143.8745 Y80.4371 Z1.0000 F3000
G00 Z0.5000 F500
G01 Z-1.2000 F120
G01 X145.5892 F108
G01 X146.3687 Y81.1371
G01 X143.0935
G01 X142.8153 Y81.8371
G01 X146.6477
G01 X146.6476 Y82.5371
G01 X142.8148
G01 X143.0937 Y83.2371
G01 X146.3689
G01 X145.5879 Y83.9371
G01 X143.8731
G00 Z1.0000 F500
G00 Z0.5000
G01 Z-1.2000 F120
G01 X143.8304 Y84.0274 F108
G01 X143.5874 Y83.8871
G01 X143.3659 Y83.7148
G01 X143.1700 Y83.5140
G01 X143.0034 Y83.2882
G01 X142.8691 Y83.0418
G01 X142.7698 Y82.7794
G01 X142.7073 Y82.5059
G01 X142.6827 Y82.2264
G01 X142.6813 Y82.1764
G01 X142.6849 Y82.0960
G01 X142.6905 Y82.0158
G01 X142.6983 Y81.9357
G01 X142.7082 Y81.8559
G01 X142.7720 Y81.5838
G01 X142.8722 Y81.3230
G01 X143.0069 Y81.0782
G01 X143.1737 Y80.8540
G01 X143.3695 Y80.6546
G01 X143.5905 Y80.4837
G01 X143.8327 Y80.3444
G01 X144.0917 Y80.2394
G01 X144.3625 Y80.1705
G01 X144.6401 Y80.1392
G01 X144.9195 Y80.1459
G01 X145.1953 Y80.1905
G01 X145.4625 Y80.2722
G01 X145.7161 Y80.3896
G01 X145.9514 Y80.5403
G01 X146.1640 Y80.7216
G01 X146.3499 Y80.9302
G01 X146.5058 Y81.1621
G01 X146.6286 Y81.4131
G01 X146.7162 Y81.6784
G01 X146.7668 Y81.9532
G01 X146.7797 Y82.2323
G01 X146.7544 Y82.5106
G01 X146.6915 Y82.7828
G01 X146.6159 Y82.9912
G01 X146.5183 Y83.1901
G01 X146.3996 Y83.3774
G01 X146.2615 Y83.5507
G01 X146.1054 Y83.7080
G01 X145.9332 Y83.8476
G01 X145.7470 Y83.9677
G01 X145.5488 Y84.0670
G01 X145.3411 Y84.1442
G01 X145.1262 Y84.1986
G01 X144.9068 Y84.2294
G01 X144.6852 Y84.2363
G01 X144.4643 Y84.2192
G01 X144.2464 Y84.1783
G01 X144.0343 Y84.1141
G01 X143.8304 Y84.0274
G01 X143.8731 Y83.9371
G00 Z1.0000 F500


;No. 3: Hole 60
G00 X192.1476 Y50.7643 Z1.0000 F3000
G00 Z0.5000 F500
G01 Z-1.2000 F120
G01 X194.9476 F108
G01 Y51.4643
G01 X192.1476
G01 Y52.1643
G01 X194.9476
G01 Y52.8643
G01 X192.1476
G01 Y53.5643
G01 X194.9476
G01 Y54.2643
G01 X192.1476
G01 Y54.9643
G01 X194.9476
G01 Y55.6643
G01 X192.1476
G01 X192.7856 Y56.3643
G01 X194.3085
G01 X193.9476 Y57.0643
G01 X193.1476
G00 Z1.0000 F500
G00 Z0.5000
G01 Z-1.2000 F120
G01 X193.0476 F108
G01 Y57.3898
G01 X193.0489 Y57.4032
G01 X193.0568 Y57.4128
G01 X193.3014 Y57.4312
G01 X193.5466 Y57.4374
G01 X193.7918 Y57.4313
G01 X194.0364 Y57.4130
G01 X194.0461 Y57.4051
G01 X194.0476 Y57.3898
G01 Y56.9343
G01 X194.0489 Y56.8790
G01 X194.0642 Y56.7866
G01 X194.0965 Y56.6988
G01 X194.1446 Y56.6184
G01 X194.2068 Y56.5485
G01 X194.2810 Y56.4914
G01 X194.3645 Y56.4491
G01 X194.4544 Y56.4231
G01 X194.5476 Y56.4143
G01 X194.6040 Y56.4511
G01 X194.6658 Y56.4778
G01 X194.7313 Y56.4937
G01 X194.7985 Y56.4981
G01 X194.8655 Y56.4912
G01 X194.9303 Y56.4729
G01 X194.9911 Y56.4440
G01 X195.0461 Y56.4051
G01 X195.0476 Y56.3898
G01 Y50.4389
G01 X195.0485 Y50.4337
G01 X195.0480 Y50.4284
G01 X195.0460 Y50.4234
G01 X195.0428 Y50.4192
G01 X195.0386 Y50.4159
G01 X195.0336 Y50.4140
G01 X195.0283 Y50.4134
G01 X195.0230 Y50.4143
G01 X192.0722
G01 X192.0588 Y50.4157
G01 X192.0491 Y50.4235
G01 X192.0476 Y50.4389
G01 Y56.3898
G01 X192.0489 Y56.4032
G01 X192.0568 Y56.4128
G01 X192.0722 Y56.4143
G01 X192.5276
G01 X192.6467 Y56.4262
G01 X192.7601 Y56.4647
G01 X192.8618 Y56.5277
G01 X192.9467 Y56.6121
G01 X193.0104 Y56.7134
G01 X193.0495 Y56.8265
G01 X193.0622 Y56.9455
G01 X193.0476 Y57.0643
G01 X193.1476
G00 Z1.0000 F500


;No. 4: Part 2
G00 X135.8418 Y35.5770 Z1.0000 F3000
G00 Z0.5000 F500
G01 Z-1.2000 F120
G01 X134.1271 F108
G01 X133.3460 Y36.2770
G01 X136.6213
G01 X136.9002 Y36.9770
G01 X133.0679
G01 X133.0673 Y37.6770
G01 X136.9002
G01 X136.6215 Y38.3770
G01 X133.3463
G01 X134.1257 Y39.0770
G01 X135.8405
G00 Z1.0000 F500
G00 Z0.5000
G01 Z-1.2000 F120
G01 X135.8789 Y39.1691 F108
G01 X135.6418 Y39.2669
G01 X135.3943 Y39.3342
G01 X135.1403 Y39.3701
G01 X134.8838 Y39.3739
G01 X134.6288 Y39.3456
G01 X134.3794 Y39.2856
G01 X134.1394 Y39.1949
G01 X133.9127 Y39.0749
G01 X133.7028 Y38.9274
G01 X133.5130 Y38.7549
G01 X133.3462 Y38.5600
G01 X133.2051 Y38.3458
G01 X133.0920 Y38.1155
G01 X133.0085 Y37.8730
G01 X132.9560 Y37.6219
G01 X132.9353 Y37.3662
G01 X132.9339 Y37.3162
G01 X132.9374 Y37.2359
G01 X132.9431 Y37.1556
G01 X132.9509 Y37.0755
G01 X132.9608 Y36.9957
G01 X133.0246 Y36.7237
G01 X133.1248 Y36.4628
G01 X133.2595 Y36.2180
G01 X133.4263 Y35.9938
G01 X133.6220 Y35.7944
G01 X133.8431 Y35.6235
G01 X134.0853 Y35.4842
G01 X134.3442 Y35.3792
G01 X134.6150 Y35.3103
G01 X134.8927 Y35.2790
G01 X135.1720 Y35.2857
G01 X135.4479 Y35.3303
G01 X135.7151 Y35.4121
G01 X135.9687 Y35.5294
G01 X136.2039 Y35.6801
G01 X136.4165 Y35.8614
G01 X136.6025 Y36.0700
G01 X136.7583 Y36.3019
G01 X136.8812 Y36.5529
G01 X136.9688 Y36.8182
G01 X137.0194 Y37.0930
G01 X137.0322 Y37.3721
G01 X137.0070 Y37.6504
G01 X136.9441 Y37.9227
G01 X136.8726 Y38.1210
G01 X136.7811 Y38.3108
G01 X136.6705 Y38.4903
G01 X136.5420 Y38.6574
G01 X136.3970 Y38.8103
G01 X136.2370 Y38.9476
G01 X136.0637 Y39.0676
G01 X135.8789 Y39.1691
G01 X135.8405 Y39.0770
G00 Z1.0000 F500


;No. 5: Hole 60
G00 X180.2394 Y64.7224 Z1.0000 F3000
G00 Z0.5000 F500
G01 Z-1.2000 F120
G01 X183.0394 F108
G01 Y65.4224
G01 X180.2394
G01 Y66.1224
G01 X183.0394
G01 Y66.8224
G01 X180.2394
G01 Y67.5224
G01 X183.0394
G01 Y68.2224
G01 X180.2394
G01 Y68.9224
G01 X183.0394
G01 Y69.6224
G01 X180.2394
G01 X180.8774 Y70.3224
G01 X182.4003
G01 X182.0394 Y71.0224
G01 X181.2394
G00 Z1.0000 F500
G00 Z0.5000
G01 Z-1.2000 F120
G01 X181.1394 F108
G01 Y71.3478
G01 X181.1407 Y71.3612
G01 X181.1486 Y71.3709
G01 X181.3932 Y71.3892
G01 X181.6384 Y71.3954
G01 X181.8836 Y71.3893
G01 X182.1282 Y71.3711
G01 X182.1379 Y71.3632
G01 X182.1394 Y71.3478
G01 Y70.8924
G01 X182.1406 Y70.8370
G01 X182.1559 Y70.7447
G01 X182.1882 Y70.6568
G01 X182.2363 Y70.5765
G01 X182.2985 Y70.5065
G01 X182.3727 Y70.4494
G01 X182.4562 Y70.4071
G01 X182.5462 Y70.3811
G01 X182.6394 Y70.3724
G01 X182.6958 Y70.4092
G01 X182.7576 Y70.4359
G01 X182.8230 Y70.4517
G01 X182.8902 Y70.4562
G01 X182.9572 Y70.4492
G01 X183.0220 Y70.4310
G01 X183.0828 Y70.4020
G01 X183.1379 Y70.3632
G01 X183.1394 Y70.3478
G01 Y64.3969
G01 X183.1403 Y64.3917
G01 X183.1397 Y64.3864
G01 X183.1378 Y64.3814
G01 X183.1346 Y64.3772
G01 X183.1303 Y64.3740
G01 X183.1253 Y64.3720
G01 X183.1200 Y64.3715
G01 X183.1148 Y64.3724
G01 X180.1639
G01 X180.1505 Y64.3737
G01 X180.1409 Y64.3816
G01 X180.1394 Y64.3969
G01 Y70.3478
G01 X180.1407 Y70.3612
G01 X180.1486 Y70.3709
G01 X180.1639 Y70.3724
G01 X180.6194
G01 X180.7385 Y70.3843
G01 X180.8518 Y70.4227
G01 X180.9536 Y70.4857
G01 X181.0385 Y70.5701
G01 X181.1021 Y70.6714
G01 X181.1413 Y70.7846
G01 X181.1539 Y70.9036
G01 X181.1394 Y71.0224
G01 X181.2394
G00 Z1.0000 F500


;No. 6: Hole 88
G00 X24.1716 Y23.1721 Z1.0000 F3000
G00 Z0.5000 F500
G01 Z-1.2000 F120
G01 X23.9331 Y23.4327 F108
G01 X23.7185 Y23.7134
G01 X23.5295 Y24.0119
G01 X23.3676 Y24.3259
G01 X23.2341 Y24.6529
G01 X23.1299 Y24.9905
G01 X23.0559 Y25.3359
G01 X23.0127 Y25.6865
G01 X23.0000 Y26.0098
G01 Y93.9902
G01 X23.0128 Y94.3142
G01 X23.0595 Y94.6847
G01 X23.1405 Y95.0493
G01 X23.2553 Y95.4047
G01 X23.4026 Y95.7479
G01 X23.5814 Y96.0759
G01 X23.7899 Y96.3857
G01 X24.0264 Y96.6748
G01 X24.2889 Y96.9405
G01 X24.5750 Y97.1806
G01 X24.8822 Y97.3930
G01 X25.2079 Y97.5758
G01 X25.5492 Y97.7274
G01 X25.9032 Y97.8465
G01 X26.2668 Y97.9321
G01 X26.6367 Y97.9834
G01 X27.0098 Y98.0000
G01 X95.9902
G01 X96.3835 Y97.9815
G01 X96.7731 Y97.9244
G01 X97.1552 Y97.8293
G01 X97.5260 Y97.6971
G01 X97.8821 Y97.5291
G01 X98.2200 Y97.3269
G01 X98.5364 Y97.0925
G01 X98.8281 Y96.8281
G01 X99.0925 Y96.5364
G01 X99.3269 Y96.2200
G01 X99.5291 Y95.8821
G01 X99.6971 Y95.5260
G01 X99.8293 Y95.1552
G01 X99.9244 Y94.7731
G01 X99.9815 Y94.3835
G01 X100.0000 Y93.9902
G01 Y57.0098
G01 X99.9815 Y56.6165
G01 X99.9244 Y56.2269
G01 X99.8293 Y55.8448
G01 X99.6971 Y55.4740
G01 X99.5291 Y55.1179
G01 X99.3269 Y54.7800
G01 X99.0925 Y54.4636
G01 X98.8281 Y54.1719
G01 X98.5364 Y53.9075
G01 X98.2200 Y53.6731
G01 X97.8821 Y53.4709
G01 X97.5260 Y53.3029
G01 X97.1552 Y53.1707
G01 X96.7731 Y53.0756
G01 X96.3835 Y53.0185
G01 X95.9902 Y53.0000
G01 X59.0200
G01 X58.6267 Y52.9823
G01 X58.2370 Y52.9260
G01 X57.8548 Y52.8317
G01 X57.4836 Y52.7004
G01 X57.1272 Y52.5332
G01 X56.7889 Y52.3318
G01 X56.4720 Y52.0982
G01 X56.1796 Y51.8345
G01 X55.9145 Y51.5435
G01 X55.6793 Y51.2278
G01 X55.4762 Y50.8905
G01 X55.3073 Y50.5349
G01 X55.1741 Y50.1644
G01 X55.0779 Y49.7826
G01 X55.0197 Y49.3932
G01 X55.0000 Y49.0000
G01 Y26.0098
G01 X54.9815 Y25.6165
G01 X54.9244 Y25.2269
G01 X54.8293 Y24.8448
G01 X54.6971 Y24.4740
G01 X54.5291 Y24.1179
G01 X54.3269 Y23.7800
G01 X54.0925 Y23.4636
G01 X53.8281 Y23.1719
G01 X53.5364 Y22.9075
G01 X53.2200 Y22.6731
G01 X52.8821 Y22.4709
G01 X52.5260 Y22.3029
G01 X52.1552 Y22.1707
G01 X51.7731 Y22.0756
G01 X51.3835 Y22.0185
G01 X50.9902 Y22.0000
G01 X27.0098
G01 X26.6165 Y22.0185
G01 X26.2269 Y22.0757
G01 X25.8447 Y22.1708
G01 X25.4738 Y22.3030
G01 X25.1177 Y22.4710
G01 X24.7798 Y22.6732
G01 X24.4634 Y22.9077
G01 X24.1716 Y23.1721
G00 Z1.0000 F500


;No. 7: Engraving 10
G00 X23.0000 Y26.0000 Z1.0000 F3000
G00 Z0.5000 F500
G01 Z-1.2000 F120
G01 Y94.0000 F108
G01 X23.0193 Y94.3921
G01 X23.0721 Y94.7563
G01 X23.1583 Y95.1141
G01 X23.2769 Y95.4625
G01 X23.4271 Y95.7984
G01 X23.6075 Y96.1192
G01 X23.8167 Y96.4220
G01 X24.0527 Y96.7044
G01 X24.3138 Y96.9638
G01 X24.5975 Y97.1981
G01 X24.9016 Y97.4054
G01 X25.2235 Y97.5839
G01 X25.5604 Y97.7320
G01 X25.9095 Y97.8485
G01 X26.2678 Y97.9324
G01 X26.6324 Y97.9831
G01 X27.0000 Y98.0000
G01 X96.0000
G01 X96.3921 Y97.9807
G01 X96.7804 Y97.9231
G01 X97.1611 Y97.8278
G01 X97.5307 Y97.6955
G01 X97.8856 Y97.5277
G01 X98.2223 Y97.3259
G01 X98.5376 Y97.0920
G01 X98.8284 Y96.8284
G01 X99.0920 Y96.5376
G01 X99.3259 Y96.2223
G01 X99.5277 Y95.8856
G01 X99.6955 Y95.5307
G01 X99.8278 Y95.1611
G01 X99.9231 Y94.7804
G01 X99.9807 Y94.3921
G01 X100.0000 Y94.0000
G01 Y57.0000
G01 X99.9807 Y56.6079
G01 X99.9231 Y56.2196
G01 X99.8278 Y55.8389
G01 X99.6955 Y55.4693
G01 X99.5277 Y55.1144
G01 X99.3259 Y54.7777
G01 X99.0920 Y54.4624
G01 X98.8284 Y54.1716
G01 X98.5376 Y53.9080
G01 X98.2223 Y53.6741
G01 X97.8856 Y53.4723
G01 X97.5307 Y53.3045
G01 X97.1611 Y53.1722
G01 X96.7804 Y53.0769
G01 X96.3921 Y53.0193
G01 X96.0000 Y53.0000
G01 X59.0000
G01 X58.6079 Y52.9807
G01 X58.2196 Y52.9231
G01 X57.8389 Y52.8278
G01 X57.4693 Y52.6955
G01 X57.1144 Y52.5277
G01 X56.7777 Y52.3259
G01 X56.4624 Y52.0920
G01 X56.1716 Y51.8284
G01 X55.9080 Y51.5376
G01 X55.6741 Y51.2223
G01 X55.4723 Y50.8856
G01 X55.3045 Y50.5307
G01 X55.1722 Y50.1611
G01 X55.0769 Y49.7804
G01 X55.0193 Y49.3921
G01 X55.0000 Y49.0000
G01 Y26.0000
G01 X54.9807 Y25.6079
G01 X54.9231 Y25.2196
G01 X54.8278 Y24.8389
G01 X54.6955 Y24.4693
G01 X54.5277 Y24.1144
G01 X54.3259 Y23.7777
G01 X54.0920 Y23.4624
G01 X53.8284 Y23.1716
G01 X53.5376 Y22.9080
G01 X53.2223 Y22.6741
G01 X52.8856 Y22.4723
G01 X52.5307 Y22.3045
G01 X52.1611 Y22.1722
G01 X51.7804 Y22.0769
G01 X51.3921 Y22.0193
G01 X51.0000 Y22.0000
G01 X27.0000
G01 X26.6079 Y22.0193
G01 X26.2196 Y22.0769
G01 X25.8389 Y22.1722
G01 X25.4693 Y22.3045
G01 X25.1144 Y22.4723
G01 X24.7777 Y22.6741
G01 X24.4624 Y22.9080
G01 X24.1716 Y23.1716
G01 X23.9080 Y23.4624
G01 X23.6741 Y23.7777
G01 X23.4723 Y24.1144
G01 X23.3045 Y24.4693
G01 X23.1722 Y24.8389
G01 X23.0769 Y25.2196
G01 X23.0193 Y25.6079
G01 X23.0000 Y26.0000
G00 Z1.0000 F500


;No. 8: Engraving 11
G00 X169.0000 Y26.0000 Z1.0000 F3000
G00 Z0.5000 F500
G01 Z-1.2000 F120
G01 Y93.9902 F108
G01 X169.0127 Y94.3135
G01 X169.0594 Y94.6841
G01 X169.1404 Y95.0487
G01 X169.2551 Y95.4042
G01 X169.4024 Y95.7474
G01 X169.5811 Y96.0754
G01 X169.7896 Y96.3854
G01 X170.0262 Y96.6745
G01 X170.2886 Y96.9403
G01 X170.5747 Y97.1804
G01 X170.8820 Y97.3928
G01 X171.2077 Y97.5757
G01 X171.5491 Y97.7273
G01 X171.9031 Y97.8465
G01 X172.2667 Y97.9321
G01 X172.6367 Y97.9834
G01 X173.0098 Y98.0000
G01 X202.9902
G01 X203.3835 Y97.9815
G01 X203.7731 Y97.9244
G01 X204.1552 Y97.8293
G01 X204.5260 Y97.6971
G01 X204.8821 Y97.5291
G01 X205.2200 Y97.3269
G01 X205.5364 Y97.0925
G01 X205.8281 Y96.8281
G01 X206.0925 Y96.5364
G01 X206.3269 Y96.2200
G01 X206.5291 Y95.8821
G01 X206.6971 Y95.5260
G01 X206.8293 Y95.1552
G01 X206.9244 Y94.7731
G01 X206.9815 Y94.3835
G01 X207.0000 Y93.9902
G01 Y26.0098
G01 X206.9815 Y25.6165
G01 X206.9244 Y25.2269
G01 X206.8293 Y24.8448
G01 X206.6971 Y24.4740
G01 X206.5291 Y24.1179
G01 X206.3269 Y23.7800
G01 X206.0925 Y23.4636
G01 X205.8281 Y23.1719
G01 X205.5364 Y22.9075
G01 X205.2200 Y22.6731
G01 X204.8821 Y22.4709
G01 X204.5260 Y22.3029
G01 X204.1552 Y22.1707
G01 X203.7731 Y22.0756
G01 X203.3835 Y22.0185
G01 X202.9902 Y22.0000
G01 X173.0098
G01 X172.6367 Y22.0166
G01 X172.2667 Y22.0679
G01 X171.9032 Y22.1535
G01 X171.5492 Y22.2726
G01 X171.2079 Y22.4242
G01 X170.8822 Y22.6070
G01 X170.5749 Y22.8194
G01 X170.2889 Y23.0595
G01 X170.0264 Y23.3252
G01 X169.7899 Y23.6143
G01 X169.5813 Y23.9241
G01 X169.4026 Y24.2521
G01 X169.2553 Y24.5953
G01 X169.1405 Y24.9507
G01 X169.0595 Y25.3153
G01 X169.0128 Y25.6858
G01 X168.9996 Y26.0196
G00 Z1.0000 F500


;No. 9: Hole 89
G00 X169.0496 Y25.3747 Z1.0000 F3000
G00 Z0.5000 F500
G01 Z-1.2000 F120
G01 X169.0127 Y25.6865 F108
G01 X169.0000 Y26.0098
G01 Y93.9902
G01 X169.0128 Y94.3142
G01 X169.0596 Y94.6853
G01 X169.1409 Y95.0505
G01 X169.2559 Y95.4065
G01 X169.4038 Y95.7502
G01 X169.5830 Y96.0786
G01 X169.7922 Y96.3888
G01 X170.0294 Y96.6781
G01 X170.2926 Y96.9439
G01 X170.5795 Y97.1841
G01 X170.8876 Y97.3963
G01 X171.2142 Y97.5789
G01 X171.5563 Y97.7301
G01 X171.9112 Y97.8488
G01 X172.2755 Y97.9337
G01 X172.6462 Y97.9843
G01 X173.0200 Y98.0000
G01 X202.9902
G01 X203.3835 Y97.9815
G01 X203.7731 Y97.9244
G01 X204.1552 Y97.8293
G01 X204.5260 Y97.6971
G01 X204.8821 Y97.5291
G01 X205.2200 Y97.3269
G01 X205.5364 Y97.0925
G01 X205.8281 Y96.8281
G01 X206.0925 Y96.5364
G01 X206.3269 Y96.2200
G01 X206.5291 Y95.8821
G01 X206.6971 Y95.5260
G01 X206.8293 Y95.1552
G01 X206.9244 Y94.7731
G01 X206.9815 Y94.3835
G01 X207.0000 Y93.9902
G01 Y26.0098
G01 X206.9815 Y25.6165
G01 X206.9244 Y25.2269
G01 X206.8293 Y24.8448
G01 X206.6971 Y24.4740
G01 X206.5291 Y24.1179
G01 X206.3269 Y23.7800
G01 X206.0925 Y23.4636
G01 X205.8281 Y23.1719
G01 X205.5364 Y22.9075
G01 X205.2200 Y22.6731
G01 X204.8821 Y22.4709
G01 X204.5260 Y22.3029
G01 X204.1552 Y22.1707
G01 X203.7731 Y22.0756
G01 X203.3835 Y22.0185
G01 X202.9902 Y22.0000
G01 X173.0098
G01 X172.6562 Y22.0149
G01 X172.3053 Y22.0609
G01 X171.9598 Y22.1378
G01 X171.6225 Y22.2449
G01 X171.2960 Y22.3814
G01 X170.9828 Y22.5463
G01 X170.6854 Y22.7381
G01 X170.4061 Y22.9555
G01 X170.1471 Y23.1968
G01 X169.9105 Y23.4600
G01 X169.6981 Y23.7430
G01 X169.5115 Y24.0438
G01 X169.3522 Y24.3598
G01 X169.2215 Y24.6887
G01 X169.1204 Y25.0279
G01 X169.0496 Y25.3747
G00 Z1.0000 F500


;No. 10: Hole 60
G00 X177.0092 Y34.5786 Z1.0000 F3000
G00 Z0.5000 F500
G01 Z-1.2000 F120
G01 X179.8092 F108
G01 Y35.2786
G01 X177.0092
G01 Y35.9786
G01 X179.8092
G01 Y36.6786
G01 X177.0092
G01 Y37.3786
G01 X179.8092
G01 Y38.0786
G01 X177.0092
G01 Y38.7786
G01 X179.8092
G01 Y39.4786
G01 X177.0092
G01 X177.6472 Y40.1786
G01 X179.1701
G01 X178.8092 Y40.8786
G01 X178.0092
G00 Z1.0000 F500
G00 Z0.5000
G01 Z-1.2000 F120
G01 X177.9092 F108
G01 Y41.2040
G01 X177.9105 Y41.2174
G01 X177.9184 Y41.2270
G01 X178.1630 Y41.2454
G01 X178.4082 Y41.2516
G01 X178.6534 Y41.2455
G01 X178.8980 Y41.2272
G01 X178.9077 Y41.2193
G01 X178.9092 Y41.2040
G01 Y40.7486
G01 X178.9104 Y40.6932
G01 X178.9258 Y40.6008
G01 X178.9581 Y40.5130
G01 X179.0061 Y40.4326
G01 X179.0684 Y40.3627
G01 X179.1425 Y40.3056
G01 X179.2260 Y40.2633
G01 X179.3160 Y40.2373
G01 X179.4092 Y40.2286
G01 X179.4656 Y40.2653
G01 X179.5274 Y40.2920
G01 X179.5929 Y40.3079
G01 X179.6601 Y40.3123
G01 X179.7270 Y40.3054
G01 X179.7919 Y40.2872
G01 X179.8527 Y40.2582
G01 X179.9077 Y40.2193
G01 X179.9092 Y40.2040
G01 Y34.2531
G01 X179.9101 Y34.2479
G01 X179.9095 Y34.2426
G01 X179.9076 Y34.2376
G01 X179.9044 Y34.2334
G01 X179.9001 Y34.2301
G01 X179.8952 Y34.2282
G01 X179.8899 Y34.2276
G01 X179.8846 Y34.2286
G01 X176.9337
G01 X176.9204 Y34.2299
G01 X176.9107 Y34.2378
G01 X176.9092 Y34.2531
G01 Y40.2040
G01 X176.9105 Y40.2174
G01 X176.9184 Y40.2270
G01 X176.9337 Y40.2286
G01 X177.3892
G01 X177.5083 Y40.2404
G01 X177.6216 Y40.2789
G01 X177.7234 Y40.3419
G01 X177.8083 Y40.4263
G01 X177.8720 Y40.5276
G01 X177.9111 Y40.6407
G01 X177.9237 Y40.7597
G01 X177.9092 Y40.8786
G01 X178.0092
G00 Z1.0000 F500


;No. 11: Hole 59
G00 X94.1237 Y33.4876 Z1.0000 F3000
G00 Z0.5000 F500
G01 Z-1.2000 F120
G01 X94.1166 Y33.5605 F108
G01 Y35.3114
G01 X94.1237 Y35.3843
G01 X94.1440 Y35.4437
G01 X94.1785 Y35.4962
G01 X94.2251 Y35.5384
G01 X94.2807 Y35.5677
G01 X94.3418 Y35.5821
G01 X94.4046 Y35.5809
G01 X94.4651 Y35.5639
G01 X94.5195 Y35.5324
G01 X94.5642 Y35.4883
G01 X94.5965 Y35.4344
G01 X94.6144 Y35.3742
G01 X94.6166 Y35.3114
G01 Y33.5605
G01 X94.6144 Y33.4977
G01 X94.5965 Y33.4375
G01 X94.5642 Y33.3836
G01 X94.5195 Y33.3395
G01 X94.4651 Y33.3080
G01 X94.4046 Y33.2910
G01 X94.3418 Y33.2898
G01 X94.2807 Y33.3042
G01 X94.2251 Y33.3335
G01 X94.1785 Y33.3757
G01 X94.1440 Y33.4282
G01 X94.1237 Y33.4876
G00 Z1.0000 F500


;No. 12: Hole 58
G00 X92.2076 Y31.6359 Z1.0000 F3000
G00 Z0.5000 F500
G01 Z-1.2000 F120
G01 X91.5254 F108
G01 X91.4666 Y32.3359
G01 X92.2666
G01 Y33.0359
G01 X91.4666
G01 Y33.7359
G01 X92.2666
G01 Y34.4359
G01 X91.4666
G01 Y35.1359
G01 X92.2666
G01 Y35.8359
G01 X91.4666
G01 Y36.5359
G01 X92.2666
G01 X92.2077 Y37.2359
G01 X91.5255
G00 Z1.0000 F500
G00 Z0.5000
G01 Z-1.2000 F120
G01 X91.4372 Y37.2831 F108
G01 X91.5026 Y37.3721
G01 X91.5860 Y37.4445
G01 X91.6833 Y37.4967
G01 X91.7897 Y37.5262
G01 X91.8999 Y37.5316
G01 X92.0087 Y37.5125
G01 X92.1106 Y37.4700
G01 X92.2006 Y37.4060
G01 X92.2743 Y37.3239
G01 X92.3281 Y37.2274
G01 X92.3594 Y37.1216
G01 X92.3666 Y37.0114
G01 Y31.8605
G01 X92.3568 Y31.7369
G01 X92.3169 Y31.6195
G01 X92.2493 Y31.5155
G01 X92.1582 Y31.4314
G01 X92.0491 Y31.3724
G01 X91.9289 Y31.3421
G01 X91.8049 Y31.3424
G01 X91.6848 Y31.3732
G01 X91.5760 Y31.4326
G01 X91.4852 Y31.5171
G01 X91.4180 Y31.6213
G01 X91.3786 Y31.7389
G01 X91.3666 Y31.8605
G01 Y37.0114
G01 X91.3786 Y37.1330
G01 X91.4069 Y37.2264
G01 X91.4372 Y37.2831
G01 X91.5255 Y37.2359
G00 Z1.0000 F500


;No. 13: Hole 57
G00 X84.2076 Y31.6359 Z1.0000 F3000
G00 Z0.5000 F500
G01 Z-1.2000 F120
G01 X83.5254 F108
G01 X83.4666 Y32.3359
G01 X84.2666
G01 Y33.0359
G01 X83.4666
G01 Y33.7359
G01 X84.2666
G01 Y34.4359
G01 X83.4666
G01 Y35.1359
G01 X84.2666
G01 Y35.8359
G01 X83.4666
G01 Y36.5359
G01 X84.2666
G01 X84.2077 Y37.2359
G01 X83.5255
G00 Z1.0000 F500
G00 Z0.5000
G01 Z-1.2000 F120
G01 X83.4372 Y37.2831 F108
G01 X83.5026 Y37.3721
G01 X83.5860 Y37.4445
G01 X83.6833 Y37.4967
G01 X83.7897 Y37.5262
G01 X83.8999 Y37.5316
G01 X84.0087 Y37.5125
G01 X84.1106 Y37.4700
G01 X84.2006 Y37.4060
G01 X84.2743 Y37.3239
G01 X84.3281 Y37.2274
G01 X84.3594 Y37.1216
G01 X84.3666 Y37.0114
G01 Y31.8605
G01 X84.3568 Y31.7369
G01 X84.3169 Y31.6195
G01 X84.2493 Y31.5155
G01 X84.1582 Y31.4314
G01 X84.0491 Y31.3724
G01 X83.9289 Y31.3421
G01 X83.8049 Y31.3424
G01 X83.6848 Y31.3732
G01 X83.5760 Y31.4326
G01 X83.4852 Y31.5171
G01 X83.4180 Y31.6213
G01 X83.3786 Y31.7389
G01 X83.3666 Y31.8605
G01 Y37.0114
G01 X83.3786 Y37.1330
G01 X83.4069 Y37.2264
G01 X83.4372 Y37.2831
G01 X83.5255 Y37.2359
G00 Z1.0000 F500


;No. 14: Hole 56
G00 X81.1378 Y33.4412 Z1.0000 F3000
G00 Z0.5000 F500
G01 Z-1.2000 F120
G01 X81.1237 Y33.4876 F108
G01 X81.1166 Y33.5605
G01 Y35.3114
G01 X81.1237 Y35.3843
G01 X81.1441 Y35.4436
G01 X81.1786 Y35.4961
G01 X81.2251 Y35.5382
G01 X81.2807 Y35.5674
G01 X81.3418 Y35.5818
G01 X81.4046 Y35.5805
G01 X81.4650 Y35.5636
G01 X81.5193 Y35.5321
G01 X81.5641 Y35.4881
G01 X81.5964 Y35.4343
G01 X81.6143 Y35.3741
G01 X81.6166 Y35.3114
G01 Y33.5605
G01 X81.6149 Y33.5017
G01 X81.5996 Y33.4449
G01 X81.5714 Y33.3933
G01 X81.5319 Y33.3498
G01 X81.4833 Y33.3166
G01 X81.4283 Y33.2958
G01 X81.3700 Y33.2884
G01 X81.3115 Y33.2948
G01 X81.2562 Y33.3148
G01 X81.2071 Y33.3471
G01 X81.1669 Y33.3901
G01 X81.1378 Y33.4412
G00 Z1.0000 F500


;No. 15: Engraving 8
G00 X81.8666 Y37.0359 Z1.0000 F3000
G00 Z0.5000 F500
G01 Z-1.2000 F120
G01 X81.8851 Y37.5067 F108
G01 X81.9386 Y37.9629
G01 X82.0269 Y38.4137
G01 X82.1494 Y38.8564
G01 X82.3054 Y39.2884
G01 X82.4940 Y39.7073
G01 X82.7142 Y40.1105
G01 X82.9645 Y40.4956
G01 X83.2435 Y40.8605
G01 X83.5496 Y41.2030
G01 X83.8811 Y41.5210
G01 X84.2358 Y41.8128
G01 X84.6119 Y42.0765
G01 X85.0071 Y42.3107
G01 X85.4190 Y42.5140
G01 X85.8452 Y42.6852
G01 X86.2833 Y42.8233
G01 X86.7307 Y42.9275
G01 X87.1848 Y42.9971
G01 X87.6428 Y43.0318
G01 X88.1021 Y43.0313
G01 X88.5601 Y42.9957
G01 X89.0140 Y42.9252
G01 X89.4612 Y42.8202
G01 X89.8990 Y42.6812
G01 X90.3249 Y42.5092
G01 X90.7364 Y42.3051
G01 X91.1311 Y42.0701
G01 X91.5067 Y41.8056
G01 X91.8609 Y41.5132
G01 X92.1917 Y41.1945
G01 X92.4972 Y40.8514
G01 X92.7755 Y40.4860
G01 X93.0250 Y40.1003
G01 X93.2443 Y39.6967
G01 X93.4321 Y39.2775
G01 X93.5873 Y38.8452
G01 X93.7089 Y38.4022
G01 X93.7963 Y37.9513
G01 X93.8490 Y37.4950
G01 X93.8666 Y37.0359
G00 Z1.0000 F500


;No. 16: Engraving 9
G00 X81.8666 Y37.0359 Z1.0000 F3000
G00 Z0.5000 F500
G01 Z-1.2000 F120
G01 X81.8851 Y37.5067 F108
G01 X81.9386 Y37.9629
G01 X82.0269 Y38.4137
G01 X82.1494 Y38.8564
G01 X82.3054 Y39.2884
G01 X82.4940 Y39.7073
G01 X82.7142 Y40.1105
G01 X82.9645 Y40.4956
G01 X83.2435 Y40.8605
G01 X83.5496 Y41.2030
G01 X83.8811 Y41.5210
G01 X84.2358 Y41.8128
G01 X84.6119 Y42.0765
G01 X85.0071 Y42.3107
G01 X85.4190 Y42.5140
G01 X85.8452 Y42.6852
G01 X86.2833 Y42.8233
G01 X86.7307 Y42.9275
G01 X87.1848 Y42.9971
G01 X87.6428 Y43.0318
G01 X88.1021 Y43.0313
G01 X88.5601 Y42.9957
G01 X89.0140 Y42.9252
G01 X89.4612 Y42.8202
G01 X89.8990 Y42.6812
G01 X90.3249 Y42.5092
G01 X90.7364 Y42.3051
G01 X91.1311 Y42.0701
G01 X91.5067 Y41.8056
G01 X91.8609 Y41.5132
G01 X92.1917 Y41.1945
G01 X92.4972 Y40.8514
G01 X92.7755 Y40.4860
G01 X93.0250 Y40.1003
G01 X93.2443 Y39.6967
G01 X93.4321 Y39.2775
G01 X93.5873 Y38.8452
G01 X93.7089 Y38.4022
G01 X93.7963 Y37.9513
G01 X93.8490 Y37.4950
G01 X93.8666 Y37.0359
G00 Z1.0000 F500


;No. 17: Hole 73
G00 X119.5149 Y69.5532 Z1.0000 F3000
G00 Z0.5000 F500
G01 Z-1.2000 F120
G01 X119.5043 Y69.5810 F108
G01 X119.5000 Y69.6246
G01 Y86.3754
G01 X119.5032 Y86.4083
G01 X119.5078 Y86.4290
G01 X119.5165 Y86.4484
G01 X119.5288 Y86.4656
G01 X119.5444 Y86.4800
G01 X119.5625 Y86.4910
G01 X119.5824 Y86.4982
G01 X119.6034 Y86.5012
G01 X119.6246 Y86.5000
G01 X150.3754
G01 X150.4008 Y86.5005
G01 X150.4257 Y86.4952
G01 X150.4487 Y86.4844
G01 X150.4686 Y86.4686
G01 X150.4844 Y86.4487
G01 X150.4952 Y86.4257
G01 X150.5005 Y86.4008
G01 X150.5000 Y86.3754
G01 Y69.6246
G01 X150.5005 Y69.5992
G01 X150.4952 Y69.5743
G01 X150.4844 Y69.5513
G01 X150.4686 Y69.5314
G01 X150.4487 Y69.5156
G01 X150.4257 Y69.5048
G01 X150.4008 Y69.4995
G01 X150.3754 Y69.5000
G01 X119.6246
G01 X119.5923 Y69.5002
G01 X119.5616 Y69.5098
G01 X119.5350 Y69.5280
G01 X119.5149 Y69.5532
G01 Z-2.4000 F120
G01 X119.5043 Y69.5810 F108
G01 X119.5000 Y69.6246
G01 Y86.3754
G01 X119.5032 Y86.4083
G01 X119.5078 Y86.4290
G01 X119.5165 Y86.4484
G01 X119.5288 Y86.4656
G01 X119.5444 Y86.4800
G01 X119.5625 Y86.4910
G01 X119.5824 Y86.4982
G01 X119.6034 Y86.5012
G01 X119.6246 Y86.5000
G01 X150.3754
G01 X150.4008 Y86.5005
G01 X150.4257 Y86.4952
G01 X150.4487 Y86.4844
G01 X150.4686 Y86.4686
G01 X150.4844 Y86.4487
G01 X150.4952 Y86.4257
G01 X150.5005 Y86.4008
G01 X150.5000 Y86.3754
G01 Y69.6246
G01 X150.5005 Y69.5992
G01 X150.4952 Y69.5743
G01 X150.4844 Y69.5513
G01 X150.4686 Y69.5314
G01 X150.4487 Y69.5156
G01 X150.4257 Y69.5048
G01 X150.4008 Y69.4995
G01 X150.3754 Y69.5000
G01 X119.6246
G01 X119.5923 Y69.5002
G01 X119.5616 Y69.5098
G01 X119.5350 Y69.5280
G01 X119.5149 Y69.5532
G01 Z-3.6000 F120
G01 X119.5043 Y69.5810 F108
G01 X119.5000 Y69.6246
G01 Y86.3754
G01 X119.5032 Y86.4083
G01 X119.5078 Y86.4290
G01 X119.5165 Y86.4484
G01 X119.5288 Y86.4656
G01 X119.5444 Y86.4800
G01 X119.5625 Y86.4910
G01 X119.5824 Y86.4982
G01 X119.6034 Y86.5012
G01 X119.6246 Y86.5000
G01 X150.3754
G01 X150.4008 Y86.5005
G01 X150.4257 Y86.4952
G01 X150.4487 Y86.4844
G01 X150.4686 Y86.4686
G01 X150.4844 Y86.4487
G01 X150.4952 Y86.4257
G01 X150.5005 Y86.4008
G01 X150.5000 Y86.3754
G01 Y69.6246
G01 X150.5005 Y69.5992
G01 X150.4952 Y69.5743
G01 X150.4844 Y69.5513
G01 X150.4686 Y69.5314
G01 X150.4487 Y69.5156
G01 X150.4257 Y69.5048
G01 X150.4008 Y69.4995
G01 X150.3754 Y69.5000
G01 X119.6246
G01 X119.5923 Y69.5002
G01 X119.5616 Y69.5098
G01 X119.5350 Y69.5280
G01 X119.5149 Y69.5532
G01 Z-4.2000 F120
G01 X119.5043 Y69.5810 F108
G01 X119.5000 Y69.6246
G01 Y86.3754
G01 X119.5032 Y86.4083
G01 X119.5078 Y86.4290
G01 X119.5165 Y86.4484
G01 X119.5288 Y86.4656
G01 X119.5444 Y86.4800
G01 X119.5625 Y86.4910
G01 X119.5824 Y86.4982
G01 X119.6034 Y86.5012
G01 X119.6246 Y86.5000
G01 X150.3754
G01 X150.4008 Y86.5005
G01 X150.4257 Y86.4952
G01 X150.4487 Y86.4844
G01 X150.4686 Y86.4686
G01 X150.4844 Y86.4487
G01 X150.4952 Y86.4257
G01 X150.5005 Y86.4008
G01 X150.5000 Y86.3754
G01 Y69.6246
G01 X150.5005 Y69.5992
G01 X150.4952 Y69.5743
G01 X150.4844 Y69.5513
G01 X150.4686 Y69.5314
G01 X150.4487 Y69.5156
G01 X150.4257 Y69.5048
G01 X150.4008 Y69.4995
G01 X150.3754 Y69.5000
G01 X119.6246
G01 X119.5923 Y69.5002
G01 X119.5616 Y69.5098
G01 X119.5350 Y69.5280
G01 X119.5149 Y69.5532
G00 Z1.0000 F500


;No. 18: Hole 74
G00 X34.5938 Y63.3780 Z1.0000 F3000
G00 Z0.5000 F500
G01 Z-1.2000 F120
G01 X34.0051 Y63.6418 F108
G01 X33.4322 Y63.9381
G01 X32.8768 Y64.2662
G01 X32.3406 Y64.6248
G01 X31.8254 Y65.0129
G01 X31.3328 Y65.4294
G01 X30.8643 Y65.8728
G01 X30.4214 Y66.3417
G01 X30.0055 Y66.8348
G01 X29.6179 Y67.3504
G01 X29.2598 Y67.8869
G01 X28.9324 Y68.4426
G01 X28.6366 Y69.0159
G01 X28.3734 Y69.6048
G01 X28.1437 Y70.2075
G01 X27.9481 Y70.8222
G01 X27.7874 Y71.4469
G01 X27.6618 Y72.0796
G01 X27.5720 Y72.7184
G01 X27.5181 Y73.3612
G01 X27.5004 Y74.0060
G01 X27.5188 Y74.6507
G01 X27.5733 Y75.2935
G01 X27.6638 Y75.9321
G01 X27.7900 Y76.5647
G01 X27.9515 Y77.1892
G01 X28.1477 Y77.8037
G01 X28.3780 Y78.4062
G01 X28.6418 Y78.9949
G01 X28.9381 Y79.5678
G01 X29.2662 Y80.1232
G01 X29.6248 Y80.6594
G01 X30.0129 Y81.1746
G01 X30.4294 Y81.6672
G01 X30.8728 Y82.1357
G01 X31.3417 Y82.5786
G01 X31.8348 Y82.9945
G01 X32.3504 Y83.3821
G01 X32.8869 Y83.7402
G01 X33.4426 Y84.0676
G01 X34.0159 Y84.3634
G01 X34.6048 Y84.6266
G01 X35.2075 Y84.8563
G01 X35.8222 Y85.0519
G01 X36.4469 Y85.2126
G01 X37.0796 Y85.3382
G01 X37.7184 Y85.4280
G01 X38.3612 Y85.4819
G01 X39.0060 Y85.4996
G01 X39.6507 Y85.4812
G01 X40.2935 Y85.4267
G01 X40.9321 Y85.3362
G01 X41.5647 Y85.2100
G01 X42.1892 Y85.0485
G01 X42.8037 Y84.8523
G01 X43.4062 Y84.6220
G01 X43.9949 Y84.3582
G01 X44.5678 Y84.0619
G01 X45.1232 Y83.7338
G01 X45.6594 Y83.3752
G01 X46.1746 Y82.9871
G01 X46.6672 Y82.5706
G01 X47.1357 Y82.1272
G01 X47.5786 Y81.6583
G01 X47.9945 Y81.1652
G01 X48.3821 Y80.6496
G01 X48.7402 Y80.1131
G01 X49.0676 Y79.5574
G01 X49.3634 Y78.9841
G01 X49.6266 Y78.3952
G01 X49.8563 Y77.7925
G01 X50.0519 Y77.1778
G01 X50.2126 Y76.5531
G01 X50.3382 Y75.9204
G01 X50.4280 Y75.2816
G01 X50.4819 Y74.6388
G01 X50.4996 Y73.9940
G01 X50.4812 Y73.3493
G01 X50.4267 Y72.7065
G01 X50.3362 Y72.0679
G01 X50.2100 Y71.4353
G01 X50.0485 Y70.8108
G01 X49.8523 Y70.1963
G01 X49.6220 Y69.5938
G01 X49.3582 Y69.0051
G01 X49.0619 Y68.4322
G01 X48.7338 Y67.8768
G01 X48.3752 Y67.3406
G01 X47.9871 Y66.8254
G01 X47.5706 Y66.3328
G01 X47.1272 Y65.8643
G01 X46.6583 Y65.4214
G01 X46.1652 Y65.0055
G01 X45.6496 Y64.6179
G01 X45.1131 Y64.2598
G01 X44.5574 Y63.9324
G01 X43.9841 Y63.6366
G01 X43.3952 Y63.3734
G01 X42.7925 Y63.1437
G01 X42.1778 Y62.9481
G01 X41.5531 Y62.7874
G01 X40.9204 Y62.6618
G01 X40.2816 Y62.5720
G01 X39.6388 Y62.5181
G01 X38.9940 Y62.5004
G01 X38.3493 Y62.5188
G01 X37.7065 Y62.5733
G01 X37.0679 Y62.6638
G01 X36.4353 Y62.7900
G01 X35.8108 Y62.9515
G01 X35.1963 Y63.1477
G01 X34.5938 Y63.3780
G01 Z-2.4000 F120
G01 X34.0051 Y63.6418 F108
G01 X33.4322 Y63.9381
G01 X32.8768 Y64.2662
G01 X32.3406 Y64.6248
G01 X31.8254 Y65.0129
G01 X31.3328 Y65.4294
G01 X30.8643 Y65.8728
G01 X30.4214 Y66.3417
G01 X30.0055 Y66.8348
G01 X29.6179 Y67.3504
G01 X29.2598 Y67.8869
G01 X28.9324 Y68.4426
G01 X28.6366 Y69.0159
G01 X28.3734 Y69.6048
G01 X28.1437 Y70.2075
G01 X27.9481 Y70.8222
G01 X27.7874 Y71.4469
G01 X27.6618 Y72.0796
G01 X27.5720 Y72.7184
G01 X27.5181 Y73.3612
G01 X27.5004 Y74.0060
G01 X27.5188 Y74.6507
G01 X27.5733 Y75.2935
G01 X27.6638 Y75.9321
G01 X27.7900 Y76.5647
G01 X27.9515 Y77.1892
G01 X28.1477 Y77.8037
G01 X28.3780 Y78.4062
G01 X28.6418 Y78.9949
G01 X28.9381 Y79.5678
G01 X29.2662 Y80.1232
G01 X29.6248 Y80.6594
G01 X30.0129 Y81.1746
G01 X30.4294 Y81.6672
G01 X30.8728 Y82.1357
G01 X31.3417 Y82.5786
G01 X31.8348 Y82.9945
G01 X32.3504 Y83.3821
G01 X32.8869 Y83.7402
G01 X33.4426 Y84.0676
G01 X34.0159 Y84.3634
G01 X34.6048 Y84.6266
G01 X35.2075 Y84.8563
G01 X35.8222 Y85.0519
G01 X36.4469 Y85.2126
G01 X37.0796 Y85.3382
G01 X37.7184 Y85.4280
G01 X38.3612 Y85.4819
G01 X39.0060 Y85.4996
G01 X39.6507 Y85.4812
G01 X40.2935 Y85.4267
G01 X40.9321 Y85.3362
G01 X41.5647 Y85.2100
G01 X42.1892 Y85.0485
G01 X42.8037 Y84.8523
G01 X43.4062 Y84.6220
G01 X43.9949 Y84.3582
G01 X44.5678 Y84.0619
G01 X45.1232 Y83.7338
G01 X45.6594 Y83.3752
G01 X46.1746 Y82.9871
G01 X46.6672 Y82.5706
G01 X47.1357 Y82.1272
G01 X47.5786 Y81.6583
G01 X47.9945 Y81.1652
G01 X48.3821 Y80.6496
G01 X48.7402 Y80.1131
G01 X49.0676 Y79.5574
G01 X49.3634 Y78.9841
G01 X49.6266 Y78.3952
G01 X49.8563 Y77.7925
G01 X50.0519 Y77.1778
G01 X50.2126 Y76.5531
G01 X50.3382 Y75.9204
G01 X50.4280 Y75.2816
G01 X50.4819 Y74.6388
G01 X50.4996 Y73.9940
G01 X50.4812 Y73.3493
G01 X50.4267 Y72.7065
G01 X50.3362 Y72.0679
G01 X50.2100 Y71.4353
G01 X50.0485 Y70.8108
G01 X49.8523 Y70.1963
G01 X49.6220 Y69.5938
G01 X49.3582 Y69.0051
G01 X49.0619 Y68.4322
G01 X48.7338 Y67.8768
G01 X48.3752 Y67.3406
G01 X47.9871 Y66.8254
G01 X47.5706 Y66.3328
G01 X47.1272 Y65.8643
G01 X46.6583 Y65.4214
G01 X46.1652 Y65.0055
G01 X45.6496 Y64.6179
G01 X45.1131 Y64.2598
G01 X44.5574 Y63.9324
G01 X43.9841 Y63.6366
G01 X43.3952 Y63.3734
G01 X42.7925 Y63.1437
G01 X42.1778 Y62.9481
G01 X41.5531 Y62.7874
G01 X40.9204 Y62.6618
G01 X40.2816 Y62.5720
G01 X39.6388 Y62.5181
G01 X38.9940 Y62.5004
G01 X38.3493 Y62.5188
G01 X37.7065 Y62.5733
G01 X37.0679 Y62.6638
G01 X36.4353 Y62.7900
G01 X35.8108 Y62.9515
G01 X35.1963 Y63.1477
G01 X34.5938 Y63.3780
G01 Z-3.6000 F120
G01 X34.0051 Y63.6418 F108
G01 X33.4322 Y63.9381
G01 X32.8768 Y64.2662
G01 X32.3406 Y64.6248
G01 X31.8254 Y65.0129
G01 X31.3328 Y65.4294
G01 X30.8643 Y65.8728
G01 X30.4214 Y66.3417
G01 X30.0055 Y66.8348
G01 X29.6179 Y67.3504
G01 X29.2598 Y67.8869
G01 X28.9324 Y68.4426
G01 X28.6366 Y69.0159
G01 X28.3734 Y69.6048
G01 X28.1437 Y70.2075
G01 X27.9481 Y70.8222
G01 X27.7874 Y71.4469
G01 X27.6618 Y72.0796
G01 X27.5720 Y72.7184
G01 X27.5181 Y73.3612
G01 X27.5004 Y74.0060
G01 X27.5188 Y74.6507
G01 X27.5733 Y75.2935
G01 X27.6638 Y75.9321
G01 X27.7900 Y76.5647
G01 X27.9515 Y77.1892
G01 X28.1477 Y77.8037
G01 X28.3780 Y78.4062
G01 X28.6418 Y78.9949
G01 X28.9381 Y79.5678
G01 X29.2662 Y80.1232
G01 X29.6248 Y80.6594
G01 X30.0129 Y81.1746
G01 X30.4294 Y81.6672
G01 X30.8728 Y82.1357
G01 X31.3417 Y82.5786
G01 X31.8348 Y82.9945
G01 X32.3504 Y83.3821
G01 X32.8869 Y83.7402
G01 X33.4426 Y84.0676
G01 X34.0159 Y84.3634
G01 X34.6048 Y84.6266
G01 X35.2075 Y84.8563
G01 X35.8222 Y85.0519
G01 X36.4469 Y85.2126
G01 X37.0796 Y85.3382
G01 X37.7184 Y85.4280
G01 X38.3612 Y85.4819
G01 X39.0060 Y85.4996
G01 X39.6507 Y85.4812
G01 X40.2935 Y85.4267
G01 X40.9321 Y85.3362
G01 X41.5647 Y85.2100
G01 X42.1892 Y85.0485
G01 X42.8037 Y84.8523
G01 X43.4062 Y84.6220
G01 X43.9949 Y84.3582
G01 X44.5678 Y84.0619
G01 X45.1232 Y83.7338
G01 X45.6594 Y83.3752
G01 X46.1746 Y82.9871
G01 X46.6672 Y82.5706
G01 X47.1357 Y82.1272
G01 X47.5786 Y81.6583
G01 X47.9945 Y81.1652
G01 X48.3821 Y80.6496
G01 X48.7402 Y80.1131
G01 X49.0676 Y79.5574
G01 X49.3634 Y78.9841
G01 X49.6266 Y78.3952
G01 X49.8563 Y77.7925
G01 X50.0519 Y77.1778
G01 X50.2126 Y76.5531
G01 X50.3382 Y75.9204
G01 X50.4280 Y75.2816
G01 X50.4819 Y74.6388
G01 X50.4996 Y73.9940
G01 X50.4812 Y73.3493
G01 X50.4267 Y72.7065
G01 X50.3362 Y72.0679
G01 X50.2100 Y71.4353
G01 X50.0485 Y70.8108
G01 X49.8523 Y70.1963
G01 X49.6220 Y69.5938
G01 X49.3582 Y69.0051
G01 X49.0619 Y68.4322
G01 X48.7338 Y67.8768
G01 X48.3752 Y67.3406
G01 X47.9871 Y66.8254
G01 X47.5706 Y66.3328
G01 X47.1272 Y65.8643
G01 X46.6583 Y65.4214
G01 X46.1652 Y65.0055
G01 X45.6496 Y64.6179
G01 X45.1131 Y64.2598
G01 X44.5574 Y63.9324
G01 X43.9841 Y63.6366
G01 X43.3952 Y63.3734
G01 X42.7925 Y63.1437
G01 X42.1778 Y62.9481
G01 X41.5531 Y62.7874
G01 X40.9204 Y62.6618
G01 X40.2816 Y62.5720
G01 X39.6388 Y62.5181
G01 X38.9940 Y62.5004
G01 X38.3493 Y62.5188
G01 X37.7065 Y62.5733
G01 X37.0679 Y62.6638
G01 X36.4353 Y62.7900
G01 X35.8108 Y62.9515
G01 X35.1963 Y63.1477
G01 X34.5938 Y63.3780
G01 Z-4.2000 F120
G01 X34.0051 Y63.6418 F108
G01 X33.4322 Y63.9381
G01 X32.8768 Y64.2662
G01 X32.3406 Y64.6248
G01 X31.8254 Y65.0129
G01 X31.3328 Y65.4294
G01 X30.8643 Y65.8728
G01 X30.4214 Y66.3417
G01 X30.0055 Y66.8348
G01 X29.6179 Y67.3504
G01 X29.2598 Y67.8869
G01 X28.9324 Y68.4426
G01 X28.6366 Y69.0159
G01 X28.3734 Y69.6048
G01 X28.1437 Y70.2075
G01 X27.9481 Y70.8222
G01 X27.7874 Y71.4469
G01 X27.6618 Y72.0796
G01 X27.5720 Y72.7184
G01 X27.5181 Y73.3612
G01 X27.5004 Y74.0060
G01 X27.5188 Y74.6507
G01 X27.5733 Y75.2935
G01 X27.6638 Y75.9321
G01 X27.7900 Y76.5647
G01 X27.9515 Y77.1892
G01 X28.1477 Y77.8037
G01 X28.3780 Y78.4062
G01 X28.6418 Y78.9949
G01 X28.9381 Y79.5678
G01 X29.2662 Y80.1232
G01 X29.6248 Y80.6594
G01 X30.0129 Y81.1746
G01 X30.4294 Y81.6672
G01 X30.8728 Y82.1357
G01 X31.3417 Y82.5786
G01 X31.8348 Y82.9945
G01 X32.3504 Y83.3821
G01 X32.8869 Y83.7402
G01 X33.4426 Y84.0676
G01 X34.0159 Y84.3634
G01 X34.6048 Y84.6266
G01 X35.2075 Y84.8563
G01 X35.8222 Y85.0519
G01 X36.4469 Y85.2126
G01 X37.0796 Y85.3382
G01 X37.7184 Y85.4280
G01 X38.3612 Y85.4819
G01 X39.0060 Y85.4996
G01 X39.6507 Y85.4812
G01 X40.2935 Y85.4267
G01 X40.9321 Y85.3362
G01 X41.5647 Y85.2100
G01 X42.1892 Y85.0485
G01 X42.8037 Y84.8523
G01 X43.4062 Y84.6220
G01 X43.9949 Y84.3582
G01 X44.5678 Y84.0619
G01 X45.1232 Y83.7338
G01 X45.6594 Y83.3752
G01 X46.1746 Y82.9871
G01 X46.6672 Y82.5706
G01 X47.1357 Y82.1272
G01 X47.5786 Y81.6583
G01 X47.9945 Y81.1652
G01 X48.3821 Y80.6496
G01 X48.7402 Y80.1131
G01 X49.0676 Y79.5574
G01 X49.3634 Y78.9841
G01 X49.6266 Y78.3952
G01 X49.8563 Y77.7925
G01 X50.0519 Y77.1778
G01 X50.2126 Y76.5531
G01 X50.3382 Y75.9204
G01 X50.4280 Y75.2816
G01 X50.4819 Y74.6388
G01 X50.4996 Y73.9940
G01 X50.4812 Y73.3493
G01 X50.4267 Y72.7065
G01 X50.3362 Y72.0679
G01 X50.2100 Y71.4353
G01 X50.0485 Y70.8108
G01 X49.8523 Y70.1963
G01 X49.6220 Y69.5938
G01 X49.3582 Y69.0051
G01 X49.0619 Y68.4322
G01 X48.7338 Y67.8768
G01 X48.3752 Y67.3406
G01 X47.9871 Y66.8254
G01 X47.5706 Y66.3328
G01 X47.1272 Y65.8643
G01 X46.6583 Y65.4214
G01 X46.1652 Y65.0055
G01 X45.6496 Y64.6179
G01 X45.1131 Y64.2598
G01 X44.5574 Y63.9324
G01 X43.9841 Y63.6366
G01 X43.3952 Y63.3734
G01 X42.7925 Y63.1437
G01 X42.1778 Y62.9481
G01 X41.5531 Y62.7874
G01 X40.9204 Y62.6618
G01 X40.2816 Y62.5720
G01 X39.6388 Y62.5181
G01 X38.9940 Y62.5004
G01 X38.3493 Y62.5188
G01 X37.7065 Y62.5733
G01 X37.0679 Y62.6638
G01 X36.4353 Y62.7900
G01 X35.8108 Y62.9515
G01 X35.1963 Y63.1477
G01 X34.5938 Y63.3780
G00 Z1.0000 F500


;No. 19: Hole 62
G00 X32.3398 Y55.6743 Z1.0000 F3000
G00 Z0.5000 F500
G01 Z-1.2000 F120
G01 X32.2715 Y55.7038 F108
G01 X32.2084 Y55.7432
G01 X32.1518 Y55.7915
G01 X32.1031 Y55.8477
G01 X32.0632 Y55.9105
G01 X32.0330 Y55.9785
G01 X32.0133 Y56.0503
G01 X32.0045 Y56.1241
G01 X32.0098 Y56.2215
G01 X32.0340 Y56.3160
G01 X32.0762 Y56.4040
G01 X32.1348 Y56.4820
G01 X32.2074 Y56.5471
G01 X32.2913 Y56.5968
G01 X32.3833 Y56.6292
G01 X32.4799 Y56.6429
G01 X32.5773 Y56.6376
G01 X33.3529 Y56.3732
G01 X34.1394 Y56.1429
G01 X34.9351 Y55.9474
G01 X35.7387 Y55.7868
G01 X36.5485 Y55.6617
G01 X37.3631 Y55.5721
G01 X38.1807 Y55.5183
G01 X39.0000 Y55.5003
G01 X39.8193 Y55.5183
G01 X40.6369 Y55.5721
G01 X41.4515 Y55.6617
G01 X42.2613 Y55.7868
G01 X43.0649 Y55.9474
G01 X43.8606 Y56.1429
G01 X44.6471 Y56.3732
G01 X45.4227 Y56.6376
G01 X45.5453 Y56.6411
G01 X45.6650 Y56.6145
G01 X45.7745 Y56.5595
G01 X45.8673 Y56.4794
G01 X45.9378 Y56.3790
G01 X45.9816 Y56.2645
G01 X45.9960 Y56.1427
G01 X45.9803 Y56.0211
G01 X45.9354 Y55.9070
G01 X45.8640 Y55.8074
G01 X45.7704 Y55.7282
G01 X45.6602 Y55.6743
G01 X44.8557 Y55.4013
G01 X44.0400 Y55.1636
G01 X43.2147 Y54.9617
G01 X42.3815 Y54.7960
G01 X41.5417 Y54.6668
G01 X40.6972 Y54.5744
G01 X39.8494 Y54.5188
G01 X39.0000 Y54.5003
G01 X38.1506 Y54.5188
G01 X37.3028 Y54.5744
G01 X36.4583 Y54.6668
G01 X35.6185 Y54.7960
G01 X34.7853 Y54.9617
G01 X33.9600 Y55.1636
G01 X33.1443 Y55.4013
G01 X32.3398 Y55.6743
G01 Z-2.4000 F120
G01 X32.2715 Y55.7038 F108
G01 X32.2084 Y55.7432
G01 X32.1518 Y55.7915
G01 X32.1031 Y55.8477
G01 X32.0632 Y55.9105
G01 X32.0330 Y55.9785
G01 X32.0133 Y56.0503
G01 X32.0045 Y56.1241
G01 X32.0098 Y56.2215
G01 X32.0340 Y56.3160
G01 X32.0762 Y56.4040
G01 X32.1348 Y56.4820
G01 X32.2074 Y56.5471
G01 X32.2913 Y56.5968
G01 X32.3833 Y56.6292
G01 X32.4799 Y56.6429
G01 X32.5773 Y56.6376
G01 X33.3529 Y56.3732
G01 X34.1394 Y56.1429
G01 X34.9351 Y55.9474
G01 X35.7387 Y55.7868
G01 X36.5485 Y55.6617
G01 X37.3631 Y55.5721
G01 X38.1807 Y55.5183
G01 X39.0000 Y55.5003
G01 X39.8193 Y55.5183
G01 X40.6369 Y55.5721
G01 X41.4515 Y55.6617
G01 X42.2613 Y55.7868
G01 X43.0649 Y55.9474
G01 X43.8606 Y56.1429
G01 X44.6471 Y56.3732
G01 X45.4227 Y56.6376
G01 X45.5453 Y56.6411
G01 X45.6650 Y56.6145
G01 X45.7745 Y56.5595
G01 X45.8673 Y56.4794
G01 X45.9378 Y56.3790
G01 X45.9816 Y56.2645
G01 X45.9960 Y56.1427
G01 X45.9803 Y56.0211
G01 X45.9354 Y55.9070
G01 X45.8640 Y55.8074
G01 X45.7704 Y55.7282
G01 X45.6602 Y55.6743
G01 X44.8557 Y55.4013
G01 X44.0400 Y55.1636
G01 X43.2147 Y54.9617
G01 X42.3815 Y54.7960
G01 X41.5417 Y54.6668
G01 X40.6972 Y54.5744
G01 X39.8494 Y54.5188
G01 X39.0000 Y54.5003
G01 X38.1506 Y54.5188
G01 X37.3028 Y54.5744
G01 X36.4583 Y54.6668
G01 X35.6185 Y54.7960
G01 X34.7853 Y54.9617
G01 X33.9600 Y55.1636
G01 X33.1443 Y55.4013
G01 X32.3398 Y55.6743
G01 Z-3.6000 F120
G01 X32.2715 Y55.7038 F108
G01 X32.2084 Y55.7432
G01 X32.1518 Y55.7915
G01 X32.1031 Y55.8477
G01 X32.0632 Y55.9105
G01 X32.0330 Y55.9785
G01 X32.0133 Y56.0503
G01 X32.0045 Y56.1241
G01 X32.0098 Y56.2215
G01 X32.0340 Y56.3160
G01 X32.0762 Y56.4040
G01 X32.1348 Y56.4820
G01 X32.2074 Y56.5471
G01 X32.2913 Y56.5968
G01 X32.3833 Y56.6292
G01 X32.4799 Y56.6429
G01 X32.5773 Y56.6376
G01 X33.3529 Y56.3732
G01 X34.1394 Y56.1429
G01 X34.9351 Y55.9474
G01 X35.7387 Y55.7868
G01 X36.5485 Y55.6617
G01 X37.3631 Y55.5721
G01 X38.1807 Y55.5183
G01 X39.0000 Y55.5003
G01 X39.8193 Y55.5183
G01 X40.6369 Y55.5721
G01 X41.4515 Y55.6617
G01 X42.2613 Y55.7868
G01 X43.0649 Y55.9474
G01 X43.8606 Y56.1429
G01 X44.6471 Y56.3732
G01 X45.4227 Y56.6376
G01 X45.5453 Y56.6411
G01 X45.6650 Y56.6145
G01 X45.7745 Y56.5595
G01 X45.8673 Y56.4794
G01 X45.9378 Y56.3790
G01 X45.9816 Y56.2645
G01 X45.9960 Y56.1427
G01 X45.9803 Y56.0211
G01 X45.9354 Y55.9070
G01 X45.8640 Y55.8074
G01 X45.7704 Y55.7282
G01 X45.6602 Y55.6743
G01 X44.8557 Y55.4013
G01 X44.0400 Y55.1636
G01 X43.2147 Y54.9617
G01 X42.3815 Y54.7960
G01 X41.5417 Y54.6668
G01 X40.6972 Y54.5744
G01 X39.8494 Y54.5188
G01 X39.0000 Y54.5003
G01 X38.1506 Y54.5188
G01 X37.3028 Y54.5744
G01 X36.4583 Y54.6668
G01 X35.6185 Y54.7960
G01 X34.7853 Y54.9617
G01 X33.9600 Y55.1636
G01 X33.1443 Y55.4013
G01 X32.3398 Y55.6743
G01 Z-4.2000 F120
G01 X32.2715 Y55.7038 F108
G01 X32.2084 Y55.7432
G01 X32.1518 Y55.7915
G01 X32.1031 Y55.8477
G01 X32.0632 Y55.9105
G01 X32.0330 Y55.9785
G01 X32.0133 Y56.0503
G01 X32.0045 Y56.1241
G01 X32.0098 Y56.2215
G01 X32.0340 Y56.3160
G01 X32.0762 Y56.4040
G01 X32.1348 Y56.4820
G01 X32.2074 Y56.5471
G01 X32.2913 Y56.5968
G01 X32.3833 Y56.6292
G01 X32.4799 Y56.6429
G01 X32.5773 Y56.6376
G01 X33.3529 Y56.3732
G01 X34.1394 Y56.1429
G01 X34.9351 Y55.9474
G01 X35.7387 Y55.7868
G01 X36.5485 Y55.6617
G01 X37.3631 Y55.5721
G01 X38.1807 Y55.5183
G01 X39.0000 Y55.5003
G01 X39.8193 Y55.5183
G01 X40.6369 Y55.5721
G01 X41.4515 Y55.6617
G01 X42.2613 Y55.7868
G01 X43.0649 Y55.9474
G01 X43.8606 Y56.1429
G01 X44.6471 Y56.3732
G01 X45.4227 Y56.6376
G01 X45.5453 Y56.6411
G01 X45.6650 Y56.6145
G01 X45.7745 Y56.5595
G01 X45.8673 Y56.4794
G01 X45.9378 Y56.3790
G01 X45.9816 Y56.2645
G01 X45.9960 Y56.1427
G01 X45.9803 Y56.0211
G01 X45.9354 Y55.9070
G01 X45.8640 Y55.8074
G01 X45.7704 Y55.7282
G01 X45.6602 Y55.6743
G01 X44.8557 Y55.4013
G01 X44.0400 Y55.1636
G01 X43.2147 Y54.9617
G01 X42.3815 Y54.7960
G01 X41.5417 Y54.6668
G01 X40.6972 Y54.5744
G01 X39.8494 Y54.5188
G01 X39.0000 Y54.5003
G01 X38.1506 Y54.5188
G01 X37.3028 Y54.5744
G01 X36.4583 Y54.6668
G01 X35.6185 Y54.7960
G01 X34.7853 Y54.9617
G01 X33.9600 Y55.1636
G01 X33.1443 Y55.4013
G01 X32.3398 Y55.6743
G00 Z1.0000 F500


;No. 20: Hole 61
G00 X32.3833 Y91.3708 Z1.0000 F3000
G00 Z0.5000 F500
G01 Z-1.2000 F120
G01 X32.3137 Y91.3934 F108
G01 X32.2481 Y91.4260
G01 X32.1881 Y91.4678
G01 X32.1348 Y91.5180
G01 X32.0894 Y91.5755
G01 X32.0530 Y91.6390
G01 X32.0263 Y91.7071
G01 X32.0098 Y91.7785
G01 X32.0045 Y91.8759
G01 X32.0135 Y91.9497
G01 X32.0333 Y92.0213
G01 X32.0635 Y92.0893
G01 X32.1034 Y92.1521
G01 X32.1521 Y92.2082
G01 X32.2086 Y92.2566
G01 X32.2716 Y92.2960
G01 X32.3398 Y92.3257
G01 X33.1504 Y92.6014
G01 X33.9723 Y92.8410
G01 X34.8041 Y93.0441
G01 X35.6440 Y93.2103
G01 X36.4904 Y93.3392
G01 X37.3417 Y93.4306
G01 X38.1962 Y93.4844
G01 X39.0523 Y93.5003
G01 X39.9082 Y93.4785
G01 X40.7623 Y93.4189
G01 X41.6129 Y93.3216
G01 X42.4585 Y93.1868
G01 X43.2972 Y93.0149
G01 X44.1275 Y92.8061
G01 X44.9478 Y92.5608
G01 X45.7565 Y92.2795
G01 X45.8464 Y92.2098
G01 X45.9180 Y92.1215
G01 X45.9678 Y92.0192
G01 X45.9930 Y91.9083
G01 X45.9924 Y91.7946
G01 X45.9660 Y91.6840
G01 X45.9151 Y91.5822
G01 X45.8425 Y91.4947
G01 X45.7519 Y91.4260
G01 X45.6480 Y91.3796
G01 X45.5363 Y91.3580
G01 X45.4227 Y91.3624
G01 X44.6471 Y91.6268
G01 X43.8606 Y91.8571
G01 X43.0649 Y92.0526
G01 X42.2613 Y92.2132
G01 X41.4515 Y92.3383
G01 X40.6369 Y92.4279
G01 X39.8193 Y92.4817
G01 X39.0000 Y92.4997
G01 X38.1807 Y92.4817
G01 X37.3631 Y92.4279
G01 X36.5485 Y92.3383
G01 X35.7387 Y92.2132
G01 X34.9351 Y92.0526
G01 X34.1394 Y91.8571
G01 X33.3529 Y91.6268
G01 X32.5773 Y91.3624
G01 X32.4799 Y91.3571
G01 X32.3833 Y91.3708
G01 Z-2.4000 F120
G01 X32.3137 Y91.3934 F108
G01 X32.2481 Y91.4260
G01 X32.1881 Y91.4678
G01 X32.1348 Y91.5180
G01 X32.0894 Y91.5755
G01 X32.0530 Y91.6390
G01 X32.0263 Y91.7071
G01 X32.0098 Y91.7785
G01 X32.0045 Y91.8759
G01 X32.0135 Y91.9497
G01 X32.0333 Y92.0213
G01 X32.0635 Y92.0893
G01 X32.1034 Y92.1521
G01 X32.1521 Y92.2082
G01 X32.2086 Y92.2566
G01 X32.2716 Y92.2960
G01 X32.3398 Y92.3257
G01 X33.1504 Y92.6014
G01 X33.9723 Y92.8410
G01 X34.8041 Y93.0441
G01 X35.6440 Y93.2103
G01 X36.4904 Y93.3392
G01 X37.3417 Y93.4306
G01 X38.1962 Y93.4844
G01 X39.0523 Y93.5003
G01 X39.9082 Y93.4785
G01 X40.7623 Y93.4189
G01 X41.6129 Y93.3216
G01 X42.4585 Y93.1868
G01 X43.2972 Y93.0149
G01 X44.1275 Y92.8061
G01 X44.9478 Y92.5608
G01 X45.7565 Y92.2795
G01 X45.8464 Y92.2098
G01 X45.9180 Y92.1215
G01 X45.9678 Y92.0192
G01 X45.9930 Y91.9083
G01 X45.9924 Y91.7946
G01 X45.9660 Y91.6840
G01 X45.9151 Y91.5822
G01 X45.8425 Y91.4947
G01 X45.7519 Y91.4260
G01 X45.6480 Y91.3796
G01 X45.5363 Y91.3580
G01 X45.4227 Y91.3624
G01 X44.6471 Y91.6268
G01 X43.8606 Y91.8571
G01 X43.0649 Y92.0526
G01 X42.2613 Y92.2132
G01 X41.4515 Y92.3383
G01 X40.6369 Y92.4279
G01 X39.8193 Y92.4817
G01 X39.0000 Y92.4997
G01 X38.1807 Y92.4817
G01 X37.3631 Y92.4279
G01 X36.5485 Y92.3383
G01 X35.7387 Y92.2132
G01 X34.9351 Y92.0526
G01 X34.1394 Y91.8571
G01 X33.3529 Y91.6268
G01 X32.5773 Y91.3624
G01 X32.4799 Y91.3571
G01 X32.3833 Y91.3708
G01 Z-3.6000 F120
G01 X32.3137 Y91.3934 F108
G01 X32.2481 Y91.4260
G01 X32.1881 Y91.4678
G01 X32.1348 Y91.5180
G01 X32.0894 Y91.5755
G01 X32.0530 Y91.6390
G01 X32.0263 Y91.7071
G01 X32.0098 Y91.7785
G01 X32.0045 Y91.8759
G01 X32.0135 Y91.9497
G01 X32.0333 Y92.0213
G01 X32.0635 Y92.0893
G01 X32.1034 Y92.1521
G01 X32.1521 Y92.2082
G01 X32.2086 Y92.2566
G01 X32.2716 Y92.2960
G01 X32.3398 Y92.3257
G01 X33.1504 Y92.6014
G01 X33.9723 Y92.8410
G01 X34.8041 Y93.0441
G01 X35.6440 Y93.2103
G01 X36.4904 Y93.3392
G01 X37.3417 Y93.4306
G01 X38.1962 Y93.4844
G01 X39.0523 Y93.5003
G01 X39.9082 Y93.4785
G01 X40.7623 Y93.4189
G01 X41.6129 Y93.3216
G01 X42.4585 Y93.1868
G01 X43.2972 Y93.0149
G01 X44.1275 Y92.8061
G01 X44.9478 Y92.5608
G01 X45.7565 Y92.2795
G01 X45.8464 Y92.2098
G01 X45.9180 Y92.1215
G01 X45.9678 Y92.0192
G01 X45.9930 Y91.9083
G01 X45.9924 Y91.7946
G01 X45.9660 Y91.6840
G01 X45.9151 Y91.5822
G01 X45.8425 Y91.4947
G01 X45.7519 Y91.4260
G01 X45.6480 Y91.3796
G01 X45.5363 Y91.3580
G01 X45.4227 Y91.3624
G01 X44.6471 Y91.6268
G01 X43.8606 Y91.8571
G01 X43.0649 Y92.0526
G01 X42.2613 Y92.2132
G01 X41.4515 Y92.3383
G01 X40.6369 Y92.4279
G01 X39.8193 Y92.4817
G01 X39.0000 Y92.4997
G01 X38.1807 Y92.4817
G01 X37.3631 Y92.4279
G01 X36.5485 Y92.3383
G01 X35.7387 Y92.2132
G01 X34.9351 Y92.0526
G01 X34.1394 Y91.8571
G01 X33.3529 Y91.6268
G01 X32.5773 Y91.3624
G01 X32.4799 Y91.3571
G01 X32.3833 Y91.3708
G01 Z-4.2000 F120
G01 X32.3137 Y91.3934 F108
G01 X32.2481 Y91.4260
G01 X32.1881 Y91.4678
G01 X32.1348 Y91.5180
G01 X32.0894 Y91.5755
G01 X32.0530 Y91.6390
G01 X32.0263 Y91.7071
G01 X32.0098 Y91.7785
G01 X32.0045 Y91.8759
G01 X32.0135 Y91.9497
G01 X32.0333 Y92.0213
G01 X32.0635 Y92.0893
G01 X32.1034 Y92.1521
G01 X32.1521 Y92.2082
G01 X32.2086 Y92.2566
G01 X32.2716 Y92.2960
G01 X32.3398 Y92.3257
G01 X33.1504 Y92.6014
G01 X33.9723 Y92.8410
G01 X34.8041 Y93.0441
G01 X35.6440 Y93.2103
G01 X36.4904 Y93.3392
G01 X37.3417 Y93.4306
G01 X38.1962 Y93.4844
G01 X39.0523 Y93.5003
G01 X39.9082 Y93.4785
G01 X40.7623 Y93.4189
G01 X41.6129 Y93.3216
G01 X42.4585 Y93.1868
G01 X43.2972 Y93.0149
G01 X44.1275 Y92.8061
G01 X44.9478 Y92.5608
G01 X45.7565 Y92.2795
G01 X45.8464 Y92.2098
G01 X45.9180 Y92.1215
G01 X45.9678 Y92.0192
G01 X45.9930 Y91.9083
G01 X45.9924 Y91.7946
G01 X45.9660 Y91.6840
G01 X45.9151 Y91.5822
G01 X45.8425 Y91.4947
G01 X45.7519 Y91.4260
G01 X45.6480 Y91.3796
G01 X45.5363 Y91.3580
G01 X45.4227 Y91.3624
G01 X44.6471 Y91.6268
G01 X43.8606 Y91.8571
G01 X43.0649 Y92.0526
G01 X42.2613 Y92.2132
G01 X41.4515 Y92.3383
G01 X40.6369 Y92.4279
G01 X39.8193 Y92.4817
G01 X39.0000 Y92.4997
G01 X38.1807 Y92.4817
G01 X37.3631 Y92.4279
G01 X36.5485 Y92.3383
G01 X35.7387 Y92.2132
G01 X34.9351 Y92.0526
G01 X34.1394 Y91.8571
G01 X33.3529 Y91.6268
G01 X32.5773 Y91.3624
G01 X32.4799 Y91.3571
G01 X32.3833 Y91.3708
G00 Z1.0000 F500


;No. 21: Hole 64
G00 X64.1001 Y86.7609 Z1.0000 F3000
G00 Z0.5000 F500
G01 Z-1.2000 F120
G01 X64.0080 Y86.8266 F108
G01 X63.9327 Y86.9111
G01 X63.8780 Y87.0101
G01 X63.8464 Y87.1188
G01 X63.8391 Y87.2090
G01 X63.8564 Y87.3388
G01 X63.9068 Y87.4596
G01 X63.9869 Y87.5632
G01 X64.0910 Y87.6425
G01 X64.6870 Y87.8426
G01 X65.2912 Y88.0167
G01 X65.9023 Y88.1645
G01 X66.5192 Y88.2856
G01 X67.1409 Y88.3798
G01 X67.7660 Y88.4469
G01 X68.3935 Y88.4869
G01 X69.0221 Y88.4997
G01 X69.6506 Y88.4851
G01 X70.2780 Y88.4433
G01 X70.9029 Y88.3744
G01 X71.5242 Y88.2784
G01 X72.1409 Y88.1555
G01 X72.7516 Y88.0060
G01 X73.3552 Y87.8302
G01 X73.9506 Y87.6284
G01 X74.0857 Y87.6015
G01 X74.2088 Y87.5398
G01 X74.3112 Y87.4477
G01 X74.3856 Y87.3318
G01 X74.4266 Y87.2004
G01 X74.4313 Y87.0627
G01 X74.3994 Y86.9288
G01 X74.3332 Y86.8080
G01 X74.2374 Y86.7091
G01 X74.1188 Y86.6391
G01 X73.9859 Y86.6031
G01 X73.8482 Y86.6034
G01 X73.2825 Y86.8059
G01 X72.7085 Y86.9830
G01 X72.1271 Y87.1345
G01 X71.5396 Y87.2600
G01 X70.9471 Y87.3594
G01 X70.3507 Y87.4324
G01 X69.7517 Y87.4788
G01 X69.1513 Y87.4987
G01 X68.5506 Y87.4919
G01 X67.9507 Y87.4584
G01 X67.3529 Y87.3984
G01 X66.7584 Y87.3119
G01 X66.1683 Y87.1992
G01 X65.5838 Y87.0603
G01 X65.0060 Y86.8957
G01 X64.4361 Y86.7057
G01 X64.3497 Y86.6973
G01 X64.2633 Y86.7039
G01 X64.1792 Y86.7254
G01 X64.1001 Y86.7609
G01 Z-2.4000 F120
G01 X64.0080 Y86.8266 F108
G01 X63.9327 Y86.9111
G01 X63.8780 Y87.0101
G01 X63.8464 Y87.1188
G01 X63.8391 Y87.2090
G01 X63.8564 Y87.3388
G01 X63.9068 Y87.4596
G01 X63.9869 Y87.5632
G01 X64.0910 Y87.6425
G01 X64.6870 Y87.8426
G01 X65.2912 Y88.0167
G01 X65.9023 Y88.1645
G01 X66.5192 Y88.2856
G01 X67.1409 Y88.3798
G01 X67.7660 Y88.4469
G01 X68.3935 Y88.4869
G01 X69.0221 Y88.4997
G01 X69.6506 Y88.4851
G01 X70.2780 Y88.4433
G01 X70.9029 Y88.3744
G01 X71.5242 Y88.2784
G01 X72.1409 Y88.1555
G01 X72.7516 Y88.0060
G01 X73.3552 Y87.8302
G01 X73.9506 Y87.6284
G01 X74.0857 Y87.6015
G01 X74.2088 Y87.5398
G01 X74.3112 Y87.4477
G01 X74.3856 Y87.3318
G01 X74.4266 Y87.2004
G01 X74.4313 Y87.0627
G01 X74.3994 Y86.9288
G01 X74.3332 Y86.8080
G01 X74.2374 Y86.7091
G01 X74.1188 Y86.6391
G01 X73.9859 Y86.6031
G01 X73.8482 Y86.6034
G01 X73.2825 Y86.8059
G01 X72.7085 Y86.9830
G01 X72.1271 Y87.1345
G01 X71.5396 Y87.2600
G01 X70.9471 Y87.3594
G01 X70.3507 Y87.4324
G01 X69.7517 Y87.4788
G01 X69.1513 Y87.4987
G01 X68.5506 Y87.4919
G01 X67.9507 Y87.4584
G01 X67.3529 Y87.3984
G01 X66.7584 Y87.3119
G01 X66.1683 Y87.1992
G01 X65.5838 Y87.0603
G01 X65.0060 Y86.8957
G01 X64.4361 Y86.7057
G01 X64.3497 Y86.6973
G01 X64.2633 Y86.7039
G01 X64.1792 Y86.7254
G01 X64.1001 Y86.7609
G01 Z-3.6000 F120
G01 X64.0080 Y86.8266 F108
G01 X63.9327 Y86.9111
G01 X63.8780 Y87.0101
G01 X63.8464 Y87.1188
G01 X63.8391 Y87.2090
G01 X63.8564 Y87.3388
G01 X63.9068 Y87.4596
G01 X63.9869 Y87.5632
G01 X64.0910 Y87.6425
G01 X64.6870 Y87.8426
G01 X65.2912 Y88.0167
G01 X65.9023 Y88.1645
G01 X66.5192 Y88.2856
G01 X67.1409 Y88.3798
G01 X67.7660 Y88.4469
G01 X68.3935 Y88.4869
G01 X69.0221 Y88.4997
G01 X69.6506 Y88.4851
G01 X70.2780 Y88.4433
G01 X70.9029 Y88.3744
G01 X71.5242 Y88.2784
G01 X72.1409 Y88.1555
G01 X72.7516 Y88.0060
G01 X73.3552 Y87.8302
G01 X73.9506 Y87.6284
G01 X74.0857 Y87.6015
G01 X74.2088 Y87.5398
G01 X74.3112 Y87.4477
G01 X74.3856 Y87.3318
G01 X74.4266 Y87.2004
G01 X74.4313 Y87.0627
G01 X74.3994 Y86.9288
G01 X74.3332 Y86.8080
G01 X74.2374 Y86.7091
G01 X74.1188 Y86.6391
G01 X73.9859 Y86.6031
G01 X73.8482 Y86.6034
G01 X73.2825 Y86.8059
G01 X72.7085 Y86.9830
G01 X72.1271 Y87.1345
G01 X71.5396 Y87.2600
G01 X70.9471 Y87.3594
G01 X70.3507 Y87.4324
G01 X69.7517 Y87.4788
G01 X69.1513 Y87.4987
G01 X68.5506 Y87.4919
G01 X67.9507 Y87.4584
G01 X67.3529 Y87.3984
G01 X66.7584 Y87.3119
G01 X66.1683 Y87.1992
G01 X65.5838 Y87.0603
G01 X65.0060 Y86.8957
G01 X64.4361 Y86.7057
G01 X64.3497 Y86.6973
G01 X64.2633 Y86.7039
G01 X64.1792 Y86.7254
G01 X64.1001 Y86.7609
G01 Z-4.2000 F120
G01 X64.0080 Y86.8266 F108
G01 X63.9327 Y86.9111
G01 X63.8780 Y87.0101
G01 X63.8464 Y87.1188
G01 X63.8391 Y87.2090
G01 X63.8564 Y87.3388
G01 X63.9068 Y87.4596
G01 X63.9869 Y87.5632
G01 X64.0910 Y87.6425
G01 X64.6870 Y87.8426
G01 X65.2912 Y88.0167
G01 X65.9023 Y88.1645
G01 X66.5192 Y88.2856
G01 X67.1409 Y88.3798
G01 X67.7660 Y88.4469
G01 X68.3935 Y88.4869
G01 X69.0221 Y88.4997
G01 X69.6506 Y88.4851
G01 X70.2780 Y88.4433
G01 X70.9029 Y88.3744
G01 X71.5242 Y88.2784
G01 X72.1409 Y88.1555
G01 X72.7516 Y88.0060
G01 X73.3552 Y87.8302
G01 X73.9506 Y87.6284
G01 X74.0857 Y87.6015
G01 X74.2088 Y87.5398
G01 X74.3112 Y87.4477
G01 X74.3856 Y87.3318
G01 X74.4266 Y87.2004
G01 X74.4313 Y87.0627
G01 X74.3994 Y86.9288
G01 X74.3332 Y86.8080
G01 X74.2374 Y86.7091
G01 X74.1188 Y86.6391
G01 X73.9859 Y86.6031
G01 X73.8482 Y86.6034
G01 X73.2825 Y86.8059
G01 X72.7085 Y86.9830
G01 X72.1271 Y87.1345
G01 X71.5396 Y87.2600
G01 X70.9471 Y87.3594
G01 X70.3507 Y87.4324
G01 X69.7517 Y87.4788
G01 X69.1513 Y87.4987
G01 X68.5506 Y87.4919
G01 X67.9507 Y87.4584
G01 X67.3529 Y87.3984
G01 X66.7584 Y87.3119
G01 X66.1683 Y87.1992
G01 X65.5838 Y87.0603
G01 X65.0060 Y86.8957
G01 X64.4361 Y86.7057
G01 X64.3497 Y86.6973
G01 X64.2633 Y86.7039
G01 X64.1792 Y86.7254
G01 X64.1001 Y86.7609
G00 Z1.0000 F500


;No. 22: Hole 63
G00 X63.9657 Y60.4591 Z1.0000 F3000
G00 Z0.5000 F500
G01 Z-1.2000 F120
G01 X63.9122 Y60.5322 F108
G01 X63.8725 Y60.6136
G01 X63.8479 Y60.7008
G01 X63.8391 Y60.7910
G01 X63.8464 Y60.8812
G01 X63.8729 Y60.9776
G01 X63.9177 Y61.0670
G01 X63.9792 Y61.1457
G01 X64.0550 Y61.2109
G01 X64.1421 Y61.2599
G01 X64.2372 Y61.2908
G01 X64.3365 Y61.3024
G01 X64.4361 Y61.2943
G01 X64.9929 Y61.1079
G01 X65.5574 Y60.9459
G01 X66.1284 Y60.8086
G01 X66.7048 Y60.6963
G01 X67.2855 Y60.6091
G01 X67.8695 Y60.5473
G01 X68.4556 Y60.5109
G01 X69.0428 Y60.5001
G01 X69.6298 Y60.5148
G01 X70.2157 Y60.5551
G01 X70.7993 Y60.6207
G01 X71.3794 Y60.7117
G01 X71.9550 Y60.8279
G01 X72.5251 Y60.9690
G01 X73.0885 Y61.1347
G01 X73.6441 Y61.3248
G01 X73.7724 Y61.3841
G01 X73.9121 Y61.4059
G01 X74.0524 Y61.3886
G01 X74.1826 Y61.3336
G01 X74.2928 Y61.2450
G01 X74.3744 Y61.1296
G01 X74.4213 Y60.9962
G01 X74.4299 Y60.8551
G01 X74.3995 Y60.7170
G01 X74.3324 Y60.5926
G01 X74.2338 Y60.4913
G01 X74.1112 Y60.4209
G01 X73.5076 Y60.2104
G01 X72.8953 Y60.0267
G01 X72.2755 Y59.8700
G01 X71.6495 Y59.7406
G01 X71.0184 Y59.6388
G01 X70.3834 Y59.5648
G01 X69.7458 Y59.5187
G01 X69.1067 Y59.5006
G01 X68.4675 Y59.5106
G01 X67.8294 Y59.5486
G01 X67.1935 Y59.6146
G01 X66.5612 Y59.7084
G01 X65.9335 Y59.8298
G01 X65.3118 Y59.9787
G01 X64.6972 Y60.1547
G01 X64.0910 Y60.3575
G01 X64.0314 Y60.3967
G01 X63.9657 Y60.4591
G01 Z-2.4000 F120
G01 X63.9122 Y60.5322 F108
G01 X63.8725 Y60.6136
G01 X63.8479 Y60.7008
G01 X63.8391 Y60.7910
G01 X63.8464 Y60.8812
G01 X63.8729 Y60.9776
G01 X63.9177 Y61.0670
G01 X63.9792 Y61.1457
G01 X64.0550 Y61.2109
G01 X64.1421 Y61.2599
G01 X64.2372 Y61.2908
G01 X64.3365 Y61.3024
G01 X64.4361 Y61.2943
G01 X64.9929 Y61.1079
G01 X65.5574 Y60.9459
G01 X66.1284 Y60.8086
G01 X66.7048 Y60.6963
G01 X67.2855 Y60.6091
G01 X67.8695 Y60.5473
G01 X68.4556 Y60.5109
G01 X69.0428 Y60.5001
G01 X69.6298 Y60.5148
G01 X70.2157 Y60.5551
G01 X70.7993 Y60.6207
G01 X71.3794 Y60.7117
G01 X71.9550 Y60.8279
G01 X72.5251 Y60.9690
G01 X73.0885 Y61.1347
G01 X73.6441 Y61.3248
G01 X73.7724 Y61.3841
G01 X73.9121 Y61.4059
G01 X74.0524 Y61.3886
G01 X74.1826 Y61.3336
G01 X74.2928 Y61.2450
G01 X74.3744 Y61.1296
G01 X74.4213 Y60.9962
G01 X74.4299 Y60.8551
G01 X74.3995 Y60.7170
G01 X74.3324 Y60.5926
G01 X74.2338 Y60.4913
G01 X74.1112 Y60.4209
G01 X73.5076 Y60.2104
G01 X72.8953 Y60.0267
G01 X72.2755 Y59.8700
G01 X71.6495 Y59.7406
G01 X71.0184 Y59.6388
G01 X70.3834 Y59.5648
G01 X69.7458 Y59.5187
G01 X69.1067 Y59.5006
G01 X68.4675 Y59.5106
G01 X67.8294 Y59.5486
G01 X67.1935 Y59.6146
G01 X66.5612 Y59.7084
G01 X65.9335 Y59.8298
G01 X65.3118 Y59.9787
G01 X64.6972 Y60.1547
G01 X64.0910 Y60.3575
G01 X64.0314 Y60.3967
G01 X63.9657 Y60.4591
G01 Z-3.6000 F120
G01 X63.9122 Y60.5322 F108
G01 X63.8725 Y60.6136
G01 X63.8479 Y60.7008
G01 X63.8391 Y60.7910
G01 X63.8464 Y60.8812
G01 X63.8729 Y60.9776
G01 X63.9177 Y61.0670
G01 X63.9792 Y61.1457
G01 X64.0550 Y61.2109
G01 X64.1421 Y61.2599
G01 X64.2372 Y61.2908
G01 X64.3365 Y61.3024
G01 X64.4361 Y61.2943
G01 X64.9929 Y61.1079
G01 X65.5574 Y60.9459
G01 X66.1284 Y60.8086
G01 X66.7048 Y60.6963
G01 X67.2855 Y60.6091
G01 X67.8695 Y60.5473
G01 X68.4556 Y60.5109
G01 X69.0428 Y60.5001
G01 X69.6298 Y60.5148
G01 X70.2157 Y60.5551
G01 X70.7993 Y60.6207
G01 X71.3794 Y60.7117
G01 X71.9550 Y60.8279
G01 X72.5251 Y60.9690
G01 X73.0885 Y61.1347
G01 X73.6441 Y61.3248
G01 X73.7724 Y61.3841
G01 X73.9121 Y61.4059
G01 X74.0524 Y61.3886
G01 X74.1826 Y61.3336
G01 X74.2928 Y61.2450
G01 X74.3744 Y61.1296
G01 X74.4213 Y60.9962
G01 X74.4299 Y60.8551
G01 X74.3995 Y60.7170
G01 X74.3324 Y60.5926
G01 X74.2338 Y60.4913
G01 X74.1112 Y60.4209
G01 X73.5076 Y60.2104
G01 X72.8953 Y60.0267
G01 X72.2755 Y59.8700
G01 X71.6495 Y59.7406
G01 X71.0184 Y59.6388
G01 X70.3834 Y59.5648
G01 X69.7458 Y59.5187
G01 X69.1067 Y59.5006
G01 X68.4675 Y59.5106
G01 X67.8294 Y59.5486
G01 X67.1935 Y59.6146
G01 X66.5612 Y59.7084
G01 X65.9335 Y59.8298
G01 X65.3118 Y59.9787
G01 X64.6972 Y60.1547
G01 X64.0910 Y60.3575
G01 X64.0314 Y60.3967
G01 X63.9657 Y60.4591
G01 Z-4.2000 F120
G01 X63.9122 Y60.5322 F108
G01 X63.8725 Y60.6136
G01 X63.8479 Y60.7008
G01 X63.8391 Y60.7910
G01 X63.8464 Y60.8812
G01 X63.8729 Y60.9776
G01 X63.9177 Y61.0670
G01 X63.9792 Y61.1457
G01 X64.0550 Y61.2109
G01 X64.1421 Y61.2599
G01 X64.2372 Y61.2908
G01 X64.3365 Y61.3024
G01 X64.4361 Y61.2943
G01 X64.9929 Y61.1079
G01 X65.5574 Y60.9459
G01 X66.1284 Y60.8086
G01 X66.7048 Y60.6963
G01 X67.2855 Y60.6091
G01 X67.8695 Y60.5473
G01 X68.4556 Y60.5109
G01 X69.0428 Y60.5001
G01 X69.6298 Y60.5148
G01 X70.2157 Y60.5551
G01 X70.7993 Y60.6207
G01 X71.3794 Y60.7117
G01 X71.9550 Y60.8279
G01 X72.5251 Y60.9690
G01 X73.0885 Y61.1347
G01 X73.6441 Y61.3248
G01 X73.7724 Y61.3841
G01 X73.9121 Y61.4059
G01 X74.0524 Y61.3886
G01 X74.1826 Y61.3336
G01 X74.2928 Y61.2450
G01 X74.3744 Y61.1296
G01 X74.4213 Y60.9962
G01 X74.4299 Y60.8551
G01 X74.3995 Y60.7170
G01 X74.3324 Y60.5926
G01 X74.2338 Y60.4913
G01 X74.1112 Y60.4209
G01 X73.5076 Y60.2104
G01 X72.8953 Y60.0267
G01 X72.2755 Y59.8700
G01 X71.6495 Y59.7406
G01 X71.0184 Y59.6388
G01 X70.3834 Y59.5648
G01 X69.7458 Y59.5187
G01 X69.1067 Y59.5006
G01 X68.4675 Y59.5106
G01 X67.8294 Y59.5486
G01 X67.1935 Y59.6146
G01 X66.5612 Y59.7084
G01 X65.9335 Y59.8298
G01 X65.3118 Y59.9787
G01 X64.6972 Y60.1547
G01 X64.0910 Y60.3575
G01 X64.0314 Y60.3967
G01 X63.9657 Y60.4591
G00 Z1.0000 F500


;No. 23: Hole 65
G00 X85.7357 Y69.4532 Z1.0000 F3000
G00 Z0.5000 F500
G01 Z-1.2000 F120
G01 X85.7282 Y69.4707 F108
G01 X85.7243 Y69.4893
G01 X85.7240 Y69.5083
G01 X85.7293 Y69.5309
G01 X85.7385 Y69.5521
G01 X85.7514 Y69.5714
G01 X85.7675 Y69.5881
G01 X89.7410 Y73.5616
G01 X89.8200 Y73.6521
G01 X89.8794 Y73.7565
G01 X89.9168 Y73.8706
G01 X89.9308 Y73.9899
G01 X89.9207 Y74.1096
G01 X89.8871 Y74.2249
G01 X89.8311 Y74.3312
G01 X89.7551 Y74.4243
G01 X85.7675 Y78.4119
G01 X85.7517 Y78.4281
G01 X85.7391 Y78.4468
G01 X85.7298 Y78.4674
G01 X85.7243 Y78.4893
G01 X85.7240 Y78.5083
G01 X85.7321 Y78.5380
G01 X85.7487 Y78.5639
G01 X85.7723 Y78.5836
G01 X85.8008 Y78.5953
G01 X85.8314 Y78.5980
G01 X85.8614 Y78.5913
G01 X85.8881 Y78.5760
G01 X85.9089 Y78.5533
G01 X89.8824 Y74.5798
G01 X89.9729 Y74.5008
G01 X90.0773 Y74.4414
G01 X90.1914 Y74.4040
G01 X90.3107 Y74.3900
G01 X90.4304 Y74.4001
G01 X90.5457 Y74.4338
G01 X90.6520 Y74.4897
G01 X90.7451 Y74.5657
G01 X94.2410 Y78.0616
G01 X94.3200 Y78.1521
G01 X94.3794 Y78.2565
G01 X94.4168 Y78.3706
G01 X94.4308 Y78.4899
G01 X94.4207 Y78.6096
G01 X94.3871 Y78.7249
G01 X94.3311 Y78.8312
G01 X94.2551 Y78.9243
G01 X91.4280 Y81.7506
G01 X91.3359 Y81.8206
G01 X91.2321 Y81.8715
G01 X91.1204 Y81.9016
G01 X91.0050 Y81.9097
G01 X90.8903 Y81.8956
G01 X90.7803 Y81.8597
G01 X90.6793 Y81.8033
G01 X90.5910 Y81.7286
G01 X90.5187 Y81.6384
G01 X90.4650 Y81.5360
G01 X90.4320 Y81.4252
G01 X90.4208 Y81.3101
G01 Y78.0246
G01 X90.4230 Y77.9986
G01 X90.4183 Y77.9729
G01 X90.4073 Y77.9493
G01 X90.3905 Y77.9294
G01 X90.3691 Y77.9144
G01 X90.3446 Y77.9055
G01 X90.3187 Y77.9032
G01 X90.2930 Y77.9076
G01 X90.2693 Y77.9186
G01 X90.2493 Y77.9352
G01 X90.2342 Y77.9565
G01 X90.2251 Y77.9810
G01 X90.2208 Y78.0246
G01 Y82.9754
G01 X90.2240 Y83.0083
G01 X90.2321 Y83.0380
G01 X90.2487 Y83.0639
G01 X90.2723 Y83.0836
G01 X90.3008 Y83.0953
G01 X90.3314 Y83.0980
G01 X90.3614 Y83.0913
G01 X90.3881 Y83.0760
G01 X90.4089 Y83.0533
G01 X94.8742 Y78.5881
G01 X94.8925 Y78.5705
G01 X94.9063 Y78.5492
G01 X94.9149 Y78.5252
G01 X94.9179 Y78.5000
G01 X94.9149 Y78.4748
G01 X94.9063 Y78.4508
G01 X94.8925 Y78.4295
G01 X94.8742 Y78.4119
G01 X90.9006 Y74.4384
G01 X90.8204 Y74.3460
G01 X90.7605 Y74.2393
G01 X90.7235 Y74.1226
G01 X90.7108 Y74.0009
G01 X90.7132 Y73.9510
G01 X90.7310 Y73.8472
G01 X90.7667 Y73.7481
G01 X90.8190 Y73.6566
G01 X90.8865 Y73.5757
G01 X94.8742 Y69.5881
G01 X94.8925 Y69.5705
G01 X94.9063 Y69.5492
G01 X94.9149 Y69.5252
G01 X94.9179 Y69.5000
G01 X94.9149 Y69.4748
G01 X94.9063 Y69.4508
G01 X94.8925 Y69.4295
G01 X94.8742 Y69.4119
G01 X90.4089 Y64.9467
G01 X90.3890 Y64.9250
G01 X90.3637 Y64.9098
G01 X90.3352 Y64.9025
G01 X90.3058 Y64.9037
G01 X90.2779 Y64.9132
G01 X90.2539 Y64.9303
G01 X90.2358 Y64.9535
G01 X90.2251 Y64.9810
G01 X90.2208 Y65.0246
G01 Y69.9754
G01 X90.2240 Y70.0083
G01 X90.2307 Y70.0344
G01 X90.2440 Y70.0578
G01 X90.2632 Y70.0768
G01 X90.2867 Y70.0900
G01 X90.3128 Y70.0964
G01 X90.3398 Y70.0956
G01 X90.3655 Y70.0876
G01 X90.3882 Y70.0730
G01 X90.4061 Y70.0529
G01 X90.4180 Y70.0288
G01 X90.4230 Y70.0023
G01 X90.4208 Y69.9754
G01 Y66.7099
G01 X90.4214 Y66.6663
G01 X90.4370 Y66.5517
G01 X90.4744 Y66.4423
G01 X90.5321 Y66.3421
G01 X90.6079 Y66.2548
G01 X90.6991 Y66.1836
G01 X90.8022 Y66.1313
G01 X90.9135 Y66.0997
G01 X91.0287 Y66.0901
G01 X91.1437 Y66.1027
G01 X91.2541 Y66.1372
G01 X91.3558 Y66.1922
G01 X91.4451 Y66.2657
G01 X94.2410 Y69.0616
G01 X94.3200 Y69.1521
G01 X94.3794 Y69.2565
G01 X94.4168 Y69.3706
G01 X94.4308 Y69.4899
G01 X94.4207 Y69.6096
G01 X94.3871 Y69.7249
G01 X94.3311 Y69.8312
G01 X94.2551 Y69.9243
G01 X90.7592 Y73.4202
G01 X90.6687 Y73.4992
G01 X90.5643 Y73.5586
G01 X90.4502 Y73.5960
G01 X90.3309 Y73.6100
G01 X90.2112 Y73.5999
G01 X90.0959 Y73.5662
G01 X89.9896 Y73.5103
G01 X89.8965 Y73.4343
G01 X85.9089 Y69.4467
G01 X85.8918 Y69.4274
G01 X85.8704 Y69.4130
G01 X85.8462 Y69.4044
G01 X85.8205 Y69.4021
G01 X85.7951 Y69.4063
G01 X85.7715 Y69.4167
G01 X85.7513 Y69.4327
G01 X85.7357 Y69.4532
G01 Z-2.4000 F120
G01 X85.7282 Y69.4707 F108
G01 X85.7243 Y69.4893
G01 X85.7240 Y69.5083
G01 X85.7293 Y69.5309
G01 X85.7385 Y69.5521
G01 X85.7514 Y69.5714
G01 X85.7675 Y69.5881
G01 X89.7410 Y73.5616
G01 X89.8200 Y73.6521
G01 X89.8794 Y73.7565
G01 X89.9168 Y73.8706
G01 X89.9308 Y73.9899
G01 X89.9207 Y74.1096
G01 X89.8871 Y74.2249
G01 X89.8311 Y74.3312
G01 X89.7551 Y74.4243
G01 X85.7675 Y78.4119
G01 X85.7517 Y78.4281
G01 X85.7391 Y78.4468
G01 X85.7298 Y78.4674
G01 X85.7243 Y78.4893
G01 X85.7240 Y78.5083
G01 X85.7321 Y78.5380
G01 X85.7487 Y78.5639
G01 X85.7723 Y78.5836
G01 X85.8008 Y78.5953
G01 X85.8314 Y78.5980
G01 X85.8614 Y78.5913
G01 X85.8881 Y78.5760
G01 X85.9089 Y78.5533
G01 X89.8824 Y74.5798
G01 X89.9729 Y74.5008
G01 X90.0773 Y74.4414
G01 X90.1914 Y74.4040
G01 X90.3107 Y74.3900
G01 X90.4304 Y74.4001
G01 X90.5457 Y74.4338
G01 X90.6520 Y74.4897
G01 X90.7451 Y74.5657
G01 X94.2410 Y78.0616
G01 X94.3200 Y78.1521
G01 X94.3794 Y78.2565
G01 X94.4168 Y78.3706
G01 X94.4308 Y78.4899
G01 X94.4207 Y78.6096
G01 X94.3871 Y78.7249
G01 X94.3311 Y78.8312
G01 X94.2551 Y78.9243
G01 X91.4280 Y81.7506
G01 X91.3359 Y81.8206
G01 X91.2321 Y81.8715
G01 X91.1204 Y81.9016
G01 X91.0050 Y81.9097
G01 X90.8903 Y81.8956
G01 X90.7803 Y81.8597
G01 X90.6793 Y81.8033
G01 X90.5910 Y81.7286
G01 X90.5187 Y81.6384
G01 X90.4650 Y81.5360
G01 X90.4320 Y81.4252
G01 X90.4208 Y81.3101
G01 Y78.0246
G01 X90.4230 Y77.9986
G01 X90.4183 Y77.9729
G01 X90.4073 Y77.9493
G01 X90.3905 Y77.9294
G01 X90.3691 Y77.9144
G01 X90.3446 Y77.9055
G01 X90.3187 Y77.9032
G01 X90.2930 Y77.9076
G01 X90.2693 Y77.9186
G01 X90.2493 Y77.9352
G01 X90.2342 Y77.9565
G01 X90.2251 Y77.9810
G01 X90.2208 Y78.0246
G01 Y82.9754
G01 X90.2240 Y83.0083
G01 X90.2321 Y83.0380
G01 X90.2487 Y83.0639
G01 X90.2723 Y83.0836
G01 X90.3008 Y83.0953
G01 X90.3314 Y83.0980
G01 X90.3614 Y83.0913
G01 X90.3881 Y83.0760
G01 X90.4089 Y83.0533
G01 X94.8742 Y78.5881
G01 X94.8925 Y78.5705
G01 X94.9063 Y78.5492
G01 X94.9149 Y78.5252
G01 X94.9179 Y78.5000
G01 X94.9149 Y78.4748
G01 X94.9063 Y78.4508
G01 X94.8925 Y78.4295
G01 X94.8742 Y78.4119
G01 X90.9006 Y74.4384
G01 X90.8204 Y74.3460
G01 X90.7605 Y74.2393
G01 X90.7235 Y74.1226
G01 X90.7108 Y74.0009
G01 X90.7132 Y73.9510
G01 X90.7310 Y73.8472
G01 X90.7667 Y73.7481
G01 X90.8190 Y73.6566
G01 X90.8865 Y73.5757
G01 X94.8742 Y69.5881
G01 X94.8925 Y69.5705
G01 X94.9063 Y69.5492
G01 X94.9149 Y69.5252
G01 X94.9179 Y69.5000
G01 X94.9149 Y69.4748
G01 X94.9063 Y69.4508
G01 X94.8925 Y69.4295
G01 X94.8742 Y69.4119
G01 X90.4089 Y64.9467
G01 X90.3890 Y64.9250
G01 X90.3637 Y64.9098
G01 X90.3352 Y64.9025
G01 X90.3058 Y64.9037
G01 X90.2779 Y64.9132
G01 X90.2539 Y64.9303
G01 X90.2358 Y64.9535
G01 X90.2251 Y64.9810
G01 X90.2208 Y65.0246
G01 Y69.9754
G01 X90.2240 Y70.0083
G01 X90.2307 Y70.0344
G01 X90.2440 Y70.0578
G01 X90.2632 Y70.0768
G01 X90.2867 Y70.0900
G01 X90.3128 Y70.0964
G01 X90.3398 Y70.0956
G01 X90.3655 Y70.0876
G01 X90.3882 Y70.0730
G01 X90.4061 Y70.0529
G01 X90.4180 Y70.0288
G01 X90.4230 Y70.0023
G01 X90.4208 Y69.9754
G01 Y66.7099
G01 X90.4214 Y66.6663
G01 X90.4370 Y66.5517
G01 X90.4744 Y66.4423
G01 X90.5321 Y66.3421
G01 X90.6079 Y66.2548
G01 X90.6991 Y66.1836
G01 X90.8022 Y66.1313
G01 X90.9135 Y66.0997
G01 X91.0287 Y66.0901
G01 X91.1437 Y66.1027
G01 X91.2541 Y66.1372
G01 X91.3558 Y66.1922
G01 X91.4451 Y66.2657
G01 X94.2410 Y69.0616
G01 X94.3200 Y69.1521
G01 X94.3794 Y69.2565
G01 X94.4168 Y69.3706
G01 X94.4308 Y69.4899
G01 X94.4207 Y69.6096
G01 X94.3871 Y69.7249
G01 X94.3311 Y69.8312
G01 X94.2551 Y69.9243
G01 X90.7592 Y73.4202
G01 X90.6687 Y73.4992
G01 X90.5643 Y73.5586
G01 X90.4502 Y73.5960
G01 X90.3309 Y73.6100
G01 X90.2112 Y73.5999
G01 X90.0959 Y73.5662
G01 X89.9896 Y73.5103
G01 X89.8965 Y73.4343
G01 X85.9089 Y69.4467
G01 X85.8918 Y69.4274
G01 X85.8704 Y69.4130
G01 X85.8462 Y69.4044
G01 X85.8205 Y69.4021
G01 X85.7951 Y69.4063
G01 X85.7715 Y69.4167
G01 X85.7513 Y69.4327
G01 X85.7357 Y69.4532
G01 Z-3.6000 F120
G01 X85.7282 Y69.4707 F108
G01 X85.7243 Y69.4893
G01 X85.7240 Y69.5083
G01 X85.7293 Y69.5309
G01 X85.7385 Y69.5521
G01 X85.7514 Y69.5714
G01 X85.7675 Y69.5881
G01 X89.7410 Y73.5616
G01 X89.8200 Y73.6521
G01 X89.8794 Y73.7565
G01 X89.9168 Y73.8706
G01 X89.9308 Y73.9899
G01 X89.9207 Y74.1096
G01 X89.8871 Y74.2249
G01 X89.8311 Y74.3312
G01 X89.7551 Y74.4243
G01 X85.7675 Y78.4119
G01 X85.7517 Y78.4281
G01 X85.7391 Y78.4468
G01 X85.7298 Y78.4674
G01 X85.7243 Y78.4893
G01 X85.7240 Y78.5083
G01 X85.7321 Y78.5380
G01 X85.7487 Y78.5639
G01 X85.7723 Y78.5836
G01 X85.8008 Y78.5953
G01 X85.8314 Y78.5980
G01 X85.8614 Y78.5913
G01 X85.8881 Y78.5760
G01 X85.9089 Y78.5533
G01 X89.8824 Y74.5798
G01 X89.9729 Y74.5008
G01 X90.0773 Y74.4414
G01 X90.1914 Y74.4040
G01 X90.3107 Y74.3900
G01 X90.4304 Y74.4001
G01 X90.5457 Y74.4338
G01 X90.6520 Y74.4897
G01 X90.7451 Y74.5657
G01 X94.2410 Y78.0616
G01 X94.3200 Y78.1521
G01 X94.3794 Y78.2565
G01 X94.4168 Y78.3706
G01 X94.4308 Y78.4899
G01 X94.4207 Y78.6096
G01 X94.3871 Y78.7249
G01 X94.3311 Y78.8312
G01 X94.2551 Y78.9243
G01 X91.4280 Y81.7506
G01 X91.3359 Y81.8206
G01 X91.2321 Y81.8715
G01 X91.1204 Y81.9016
G01 X91.0050 Y81.9097
G01 X90.8903 Y81.8956
G01 X90.7803 Y81.8597
G01 X90.6793 Y81.8033
G01 X90.5910 Y81.7286
G01 X90.5187 Y81.6384
G01 X90.4650 Y81.5360
G01 X90.4320 Y81.4252
G01 X90.4208 Y81.3101
G01 Y78.0246
G01 X90.4230 Y77.9986
G01 X90.4183 Y77.9729
G01 X90.4073 Y77.9493
G01 X90.3905 Y77.9294
G01 X90.3691 Y77.9144
G01 X90.3446 Y77.9055
G01 X90.3187 Y77.9032
G01 X90.2930 Y77.9076
G01 X90.2693 Y77.9186
G01 X90.2493 Y77.9352
G01 X90.2342 Y77.9565
G01 X90.2251 Y77.9810
G01 X90.2208 Y78.0246
G01 Y82.9754
G01 X90.2240 Y83.0083
G01 X90.2321 Y83.0380
G01 X90.2487 Y83.0639
G01 X90.2723 Y83.0836
G01 X90.3008 Y83.0953
G01 X90.3314 Y83.0980
G01 X90.3614 Y83.0913
G01 X90.3881 Y83.0760
G01 X90.4089 Y83.0533
G01 X94.8742 Y78.5881
G01 X94.8925 Y78.5705
G01 X94.9063 Y78.5492
G01 X94.9149 Y78.5252
G01 X94.9179 Y78.5000
G01 X94.9149 Y78.4748
G01 X94.9063 Y78.4508
G01 X94.8925 Y78.4295
G01 X94.8742 Y78.4119
G01 X90.9006 Y74.4384
G01 X90.8204 Y74.3460
G01 X90.7605 Y74.2393
G01 X90.7235 Y74.1226
G01 X90.7108 Y74.0009
G01 X90.7132 Y73.9510
G01 X90.7310 Y73.8472
G01 X90.7667 Y73.7481
G01 X90.8190 Y73.6566
G01 X90.8865 Y73.5757
G01 X94.8742 Y69.5881
G01 X94.8925 Y69.5705
G01 X94.9063 Y69.5492
G01 X94.9149 Y69.5252
G01 X94.9179 Y69.5000
G01 X94.9149 Y69.4748
G01 X94.9063 Y69.4508
G01 X94.8925 Y69.4295
G01 X94.8742 Y69.4119
G01 X90.4089 Y64.9467
G01 X90.3890 Y64.9250
G01 X90.3637 Y64.9098
G01 X90.3352 Y64.9025
G01 X90.3058 Y64.9037
G01 X90.2779 Y64.9132
G01 X90.2539 Y64.9303
G01 X90.2358 Y64.9535
G01 X90.2251 Y64.9810
G01 X90.2208 Y65.0246
G01 Y69.9754
G01 X90.2240 Y70.0083
G01 X90.2307 Y70.0344
G01 X90.2440 Y70.0578
G01 X90.2632 Y70.0768
G01 X90.2867 Y70.0900
G01 X90.3128 Y70.0964
G01 X90.3398 Y70.0956
G01 X90.3655 Y70.0876
G01 X90.3882 Y70.0730
G01 X90.4061 Y70.0529
G01 X90.4180 Y70.0288
G01 X90.4230 Y70.0023
G01 X90.4208 Y69.9754
G01 Y66.7099
G01 X90.4214 Y66.6663
G01 X90.4370 Y66.5517
G01 X90.4744 Y66.4423
G01 X90.5321 Y66.3421
G01 X90.6079 Y66.2548
G01 X90.6991 Y66.1836
G01 X90.8022 Y66.1313
G01 X90.9135 Y66.0997
G01 X91.0287 Y66.0901
G01 X91.1437 Y66.1027
G01 X91.2541 Y66.1372
G01 X91.3558 Y66.1922
G01 X91.4451 Y66.2657
G01 X94.2410 Y69.0616
G01 X94.3200 Y69.1521
G01 X94.3794 Y69.2565
G01 X94.4168 Y69.3706
G01 X94.4308 Y69.4899
G01 X94.4207 Y69.6096
G01 X94.3871 Y69.7249
G01 X94.3311 Y69.8312
G01 X94.2551 Y69.9243
G01 X90.7592 Y73.4202
G01 X90.6687 Y73.4992
G01 X90.5643 Y73.5586
G01 X90.4502 Y73.5960
G01 X90.3309 Y73.6100
G01 X90.2112 Y73.5999
G01 X90.0959 Y73.5662
G01 X89.9896 Y73.5103
G01 X89.8965 Y73.4343
G01 X85.9089 Y69.4467
G01 X85.8918 Y69.4274
G01 X85.8704 Y69.4130
G01 X85.8462 Y69.4044
G01 X85.8205 Y69.4021
G01 X85.7951 Y69.4063
G01 X85.7715 Y69.4167
G01 X85.7513 Y69.4327
G01 X85.7357 Y69.4532
G01 Z-4.2000 F120
G01 X85.7282 Y69.4707 F108
G01 X85.7243 Y69.4893
G01 X85.7240 Y69.5083
G01 X85.7293 Y69.5309
G01 X85.7385 Y69.5521
G01 X85.7514 Y69.5714
G01 X85.7675 Y69.5881
G01 X89.7410 Y73.5616
G01 X89.8200 Y73.6521
G01 X89.8794 Y73.7565
G01 X89.9168 Y73.8706
G01 X89.9308 Y73.9899
G01 X89.9207 Y74.1096
G01 X89.8871 Y74.2249
G01 X89.8311 Y74.3312
G01 X89.7551 Y74.4243
G01 X85.7675 Y78.4119
G01 X85.7517 Y78.4281
G01 X85.7391 Y78.4468
G01 X85.7298 Y78.4674
G01 X85.7243 Y78.4893
G01 X85.7240 Y78.5083
G01 X85.7321 Y78.5380
G01 X85.7487 Y78.5639
G01 X85.7723 Y78.5836
G01 X85.8008 Y78.5953
G01 X85.8314 Y78.5980
G01 X85.8614 Y78.5913
G01 X85.8881 Y78.5760
G01 X85.9089 Y78.5533
G01 X89.8824 Y74.5798
G01 X89.9729 Y74.5008
G01 X90.0773 Y74.4414
G01 X90.1914 Y74.4040
G01 X90.3107 Y74.3900
G01 X90.4304 Y74.4001
G01 X90.5457 Y74.4338
G01 X90.6520 Y74.4897
G01 X90.7451 Y74.5657
G01 X94.2410 Y78.0616
G01 X94.3200 Y78.1521
G01 X94.3794 Y78.2565
G01 X94.4168 Y78.3706
G01 X94.4308 Y78.4899
G01 X94.4207 Y78.6096
G01 X94.3871 Y78.7249
G01 X94.3311 Y78.8312
G01 X94.2551 Y78.9243
G01 X91.4280 Y81.7506
G01 X91.3359 Y81.8206
G01 X91.2321 Y81.8715
G01 X91.1204 Y81.9016
G01 X91.0050 Y81.9097
G01 X90.8903 Y81.8956
G01 X90.7803 Y81.8597
G01 X90.6793 Y81.8033
G01 X90.5910 Y81.7286
G01 X90.5187 Y81.6384
G01 X90.4650 Y81.5360
G01 X90.4320 Y81.4252
G01 X90.4208 Y81.3101
G01 Y78.0246
G01 X90.4230 Y77.9986
G01 X90.4183 Y77.9729
G01 X90.4073 Y77.9493
G01 X90.3905 Y77.9294
G01 X90.3691 Y77.9144
G01 X90.3446 Y77.9055
G01 X90.3187 Y77.9032
G01 X90.2930 Y77.9076
G01 X90.2693 Y77.9186
G01 X90.2493 Y77.9352
G01 X90.2342 Y77.9565
G01 X90.2251 Y77.9810
G01 X90.2208 Y78.0246
G01 Y82.9754
G01 X90.2240 Y83.0083
G01 X90.2321 Y83.0380
G01 X90.2487 Y83.0639
G01 X90.2723 Y83.0836
G01 X90.3008 Y83.0953
G01 X90.3314 Y83.0980
G01 X90.3614 Y83.0913
G01 X90.3881 Y83.0760
G01 X90.4089 Y83.0533
G01 X94.8742 Y78.5881
G01 X94.8925 Y78.5705
G01 X94.9063 Y78.5492
G01 X94.9149 Y78.5252
G01 X94.9179 Y78.5000
G01 X94.9149 Y78.4748
G01 X94.9063 Y78.4508
G01 X94.8925 Y78.4295
G01 X94.8742 Y78.4119
G01 X90.9006 Y74.4384
G01 X90.8204 Y74.3460
G01 X90.7605 Y74.2393
G01 X90.7235 Y74.1226
G01 X90.7108 Y74.0009
G01 X90.7132 Y73.9510
G01 X90.7310 Y73.8472
G01 X90.7667 Y73.7481
G01 X90.8190 Y73.6566
G01 X90.8865 Y73.5757
G01 X94.8742 Y69.5881
G01 X94.8925 Y69.5705
G01 X94.9063 Y69.5492
G01 X94.9149 Y69.5252
G01 X94.9179 Y69.5000
G01 X94.9149 Y69.4748
G01 X94.9063 Y69.4508
G01 X94.8925 Y69.4295
G01 X94.8742 Y69.4119
G01 X90.4089 Y64.9467
G01 X90.3890 Y64.9250
G01 X90.3637 Y64.9098
G01 X90.3352 Y64.9025
G01 X90.3058 Y64.9037
G01 X90.2779 Y64.9132
G01 X90.2539 Y64.9303
G01 X90.2358 Y64.9535
G01 X90.2251 Y64.9810
G01 X90.2208 Y65.0246
G01 Y69.9754
G01 X90.2240 Y70.0083
G01 X90.2307 Y70.0344
G01 X90.2440 Y70.0578
G01 X90.2632 Y70.0768
G01 X90.2867 Y70.0900
G01 X90.3128 Y70.0964
G01 X90.3398 Y70.0956
G01 X90.3655 Y70.0876
G01 X90.3882 Y70.0730
G01 X90.4061 Y70.0529
G01 X90.4180 Y70.0288
G01 X90.4230 Y70.0023
G01 X90.4208 Y69.9754
G01 Y66.7099
G01 X90.4214 Y66.6663
G01 X90.4370 Y66.5517
G01 X90.4744 Y66.4423
G01 X90.5321 Y66.3421
G01 X90.6079 Y66.2548
G01 X90.6991 Y66.1836
G01 X90.8022 Y66.1313
G01 X90.9135 Y66.0997
G01 X91.0287 Y66.0901
G01 X91.1437 Y66.1027
G01 X91.2541 Y66.1372
G01 X91.3558 Y66.1922
G01 X91.4451 Y66.2657
G01 X94.2410 Y69.0616
G01 X94.3200 Y69.1521
G01 X94.3794 Y69.2565
G01 X94.4168 Y69.3706
G01 X94.4308 Y69.4899
G01 X94.4207 Y69.6096
G01 X94.3871 Y69.7249
G01 X94.3311 Y69.8312
G01 X94.2551 Y69.9243
G01 X90.7592 Y73.4202
G01 X90.6687 Y73.4992
G01 X90.5643 Y73.5586
G01 X90.4502 Y73.5960
G01 X90.3309 Y73.6100
G01 X90.2112 Y73.5999
G01 X90.0959 Y73.5662
G01 X89.9896 Y73.5103
G01 X89.8965 Y73.4343
G01 X85.9089 Y69.4467
G01 X85.8918 Y69.4274
G01 X85.8704 Y69.4130
G01 X85.8462 Y69.4044
G01 X85.8205 Y69.4021
G01 X85.7951 Y69.4063
G01 X85.7715 Y69.4167
G01 X85.7513 Y69.4327
G01 X85.7357 Y69.4532
G00 Z1.0000 F500


;No. 24: Hole 66
G00 X178.6642 Y30.7416 Z1.0000 F3000
G00 Z0.5000 F500
G01 Z-1.2000 F120
G01 X178.6198 Y31.0410 F108
G01 X178.6059 Y31.3342
G01 X178.6076 Y31.3517
G01 X178.6124 Y31.3743
G01 X178.6223 Y31.3952
G01 X178.6369 Y31.4131
G01 X178.6553 Y31.4271
G01 X178.6764 Y31.4363
G01 X178.6992 Y31.4403
G01 X178.7223 Y31.4389
G01 X178.7443 Y31.4320
G01 X178.7641 Y31.4202
G01 X178.7806 Y31.4040
G01 X178.7928 Y31.3844
G01 X178.8001 Y31.3624
G01 X178.8059 Y31.2989
G01 X178.8238 Y31.0191
G01 X178.8687 Y30.7425
G01 X178.9403 Y30.4714
G01 X179.0378 Y30.2086
G01 X179.1604 Y29.9566
G01 X179.3069 Y29.7176
G01 X179.4758 Y29.4939
G01 X179.6657 Y29.2878
G01 X179.8747 Y29.1010
G01 X180.1009 Y28.9354
G01 X180.3421 Y28.7925
G01 X180.5959 Y28.6737
G01 X180.8602 Y28.5801
G01 X181.1322 Y28.5126
G01 X181.4096 Y28.4719
G01 X181.6895 Y28.4582
G01 X182.9721 Y28.4583
G01 X183.0466 Y28.4657
G01 X183.1193 Y28.4841
G01 X183.1884 Y28.5131
G01 X183.2523 Y28.5521
G01 X183.3097 Y28.6003
G01 X183.3593 Y28.6565
G01 X183.3999 Y28.7194
G01 X183.4307 Y28.7878
G01 X183.4836 Y29.0243
G01 X183.5596 Y29.2544
G01 X183.6577 Y29.4761
G01 X183.7771 Y29.6870
G01 X183.9165 Y29.8852
G01 X184.0748 Y30.0688
G01 X184.2503 Y30.2360
G01 X184.4413 Y30.3851
G01 X184.6460 Y30.5149
G01 X184.8625 Y30.6239
G01 X185.0886 Y30.7112
G01 X185.3222 Y30.7759
G01 X185.3404 Y30.7685
G01 X185.3571 Y30.7580
G01 X185.3716 Y30.7447
G01 X185.3837 Y30.7290
G01 X185.3927 Y30.7115
G01 X185.3986 Y30.6927
G01 X185.4010 Y30.6732
G01 X185.4000 Y30.6535
G01 Y30.3782
G01 X185.4013 Y30.3228
G01 X185.4166 Y30.2305
G01 X185.4489 Y30.1426
G01 X185.4970 Y30.0623
G01 X185.5592 Y29.9924
G01 X185.6333 Y29.9352
G01 X185.7169 Y29.8930
G01 X185.8068 Y29.8670
G01 X185.9000 Y29.8582
G01 X187.8754
G01 X187.9053 Y29.8596
G01 X187.9343 Y29.8523
G01 X187.9599 Y29.8370
G01 X187.9799 Y29.8148
G01 X187.9927 Y29.7878
G01 X187.9971 Y29.7582
G01 X187.9927 Y29.7286
G01 X187.9799 Y29.7016
G01 X187.9599 Y29.6795
G01 X187.9343 Y29.6641
G01 X187.9053 Y29.6568
G01 X187.8754 Y29.6582
G01 X185.9200
G01 X185.8197 Y29.6520
G01 X185.7226 Y29.6259
G01 X185.6327 Y29.5809
G01 X185.5536 Y29.5188
G01 X185.4885 Y29.4422
G01 X185.4401 Y29.3542
G01 X185.4101 Y29.2582
G01 X185.4000 Y29.1582
G01 Y27.5782
G01 X185.4013 Y27.5228
G01 X185.4166 Y27.4305
G01 X185.4489 Y27.3426
G01 X185.4970 Y27.2623
G01 X185.5592 Y27.1924
G01 X185.6333 Y27.1352
G01 X185.7169 Y27.0930
G01 X185.8068 Y27.0670
G01 X185.9000 Y27.0582
G01 X187.8754
G01 X187.9053 Y27.0596
G01 X187.9343 Y27.0523
G01 X187.9599 Y27.0370
G01 X187.9799 Y27.0148
G01 X187.9927 Y26.9878
G01 X187.9971 Y26.9582
G01 X187.9927 Y26.9286
G01 X187.9799 Y26.9016
G01 X187.9599 Y26.8795
G01 X187.9343 Y26.8641
G01 X187.9053 Y26.8568
G01 X187.8754 Y26.8582
G01 X185.9200
G01 X185.8197 Y26.8520
G01 X185.7226 Y26.8259
G01 X185.6327 Y26.7809
G01 X185.5536 Y26.7188
G01 X185.4885 Y26.6422
G01 X185.4401 Y26.5542
G01 X185.4101 Y26.4582
G01 X185.4000 Y26.3582
G01 Y26.0629
G01 X185.4020 Y26.0397
G01 X185.3987 Y26.0165
G01 X185.3904 Y25.9947
G01 X185.3775 Y25.9752
G01 X185.3605 Y25.9591
G01 X185.3404 Y25.9472
G01 X185.3181 Y25.9401
G01 X185.2949 Y25.9381
G01 X185.0640 Y26.0077
G01 X184.8409 Y26.0991
G01 X184.6275 Y26.2114
G01 X184.4259 Y26.3436
G01 X184.2378 Y26.4945
G01 X184.0650 Y26.6627
G01 X183.9091 Y26.8466
G01 X183.7715 Y27.0446
G01 X183.6535 Y27.2549
G01 X183.5561 Y27.4754
G01 X183.4802 Y27.7043
G01 X183.4266 Y27.9394
G01 X183.3943 Y28.0070
G01 X183.3523 Y28.0690
G01 X183.3014 Y28.1241
G01 X183.2429 Y28.1709
G01 X183.1781 Y28.2084
G01 X183.1084 Y28.2359
G01 X183.0353 Y28.2526
G01 X182.9606 Y28.2582
G01 X181.6941 Y28.2586
G01 X181.4291 Y28.2696
G01 X181.1661 Y28.3034
G01 X180.9070 Y28.3596
G01 X180.6536 Y28.4379
G01 X180.4079 Y28.5376
G01 X180.1716 Y28.6581
G01 X179.9466 Y28.7984
G01 X179.7345 Y28.9575
G01 X179.5368 Y29.1342
G01 X179.3550 Y29.3273
G01 X179.1905 Y29.5353
G01 X179.0444 Y29.7566
G01 X178.9179 Y29.9897
G01 X178.8119 Y30.2327
G01 X178.7271 Y30.4840
G01 X178.6642 Y30.7416
G01 Z-2.4000 F120
G01 X178.6198 Y31.0410 F108
G01 X178.6059 Y31.3342
G01 X178.6076 Y31.3517
G01 X178.6124 Y31.3743
G01 X178.6223 Y31.3952
G01 X178.6369 Y31.4131
G01 X178.6553 Y31.4271
G01 X178.6764 Y31.4363
G01 X178.6992 Y31.4403
G01 X178.7223 Y31.4389
G01 X178.7443 Y31.4320
G01 X178.7641 Y31.4202
G01 X178.7806 Y31.4040
G01 X178.7928 Y31.3844
G01 X178.8001 Y31.3624
G01 X178.8059 Y31.2989
G01 X178.8238 Y31.0191
G01 X178.8687 Y30.7425
G01 X178.9403 Y30.4714
G01 X179.0378 Y30.2086
G01 X179.1604 Y29.9566
G01 X179.3069 Y29.7176
G01 X179.4758 Y29.4939
G01 X179.6657 Y29.2878
G01 X179.8747 Y29.1010
G01 X180.1009 Y28.9354
G01 X180.3421 Y28.7925
G01 X180.5959 Y28.6737
G01 X180.8602 Y28.5801
G01 X181.1322 Y28.5126
G01 X181.4096 Y28.4719
G01 X181.6895 Y28.4582
G01 X182.9721 Y28.4583
G01 X183.0466 Y28.4657
G01 X183.1193 Y28.4841
G01 X183.1884 Y28.5131
G01 X183.2523 Y28.5521
G01 X183.3097 Y28.6003
G01 X183.3593 Y28.6565
G01 X183.3999 Y28.7194
G01 X183.4307 Y28.7878
G01 X183.4836 Y29.0243
G01 X183.5596 Y29.2544
G01 X183.6577 Y29.4761
G01 X183.7771 Y29.6870
G01 X183.9165 Y29.8852
G01 X184.0748 Y30.0688
G01 X184.2503 Y30.2360
G01 X184.4413 Y30.3851
G01 X184.6460 Y30.5149
G01 X184.8625 Y30.6239
G01 X185.0886 Y30.7112
G01 X185.3222 Y30.7759
G01 X185.3404 Y30.7685
G01 X185.3571 Y30.7580
G01 X185.3716 Y30.7447
G01 X185.3837 Y30.7290
G01 X185.3927 Y30.7115
G01 X185.3986 Y30.6927
G01 X185.4010 Y30.6732
G01 X185.4000 Y30.6535
G01 Y30.3782
G01 X185.4013 Y30.3228
G01 X185.4166 Y30.2305
G01 X185.4489 Y30.1426
G01 X185.4970 Y30.0623
G01 X185.5592 Y29.9924
G01 X185.6333 Y29.9352
G01 X185.7169 Y29.8930
G01 X185.8068 Y29.8670
G01 X185.9000 Y29.8582
G01 X187.8754
G01 X187.9053 Y29.8596
G01 X187.9343 Y29.8523
G01 X187.9599 Y29.8370
G01 X187.9799 Y29.8148
G01 X187.9927 Y29.7878
G01 X187.9971 Y29.7582
G01 X187.9927 Y29.7286
G01 X187.9799 Y29.7016
G01 X187.9599 Y29.6795
G01 X187.9343 Y29.6641
G01 X187.9053 Y29.6568
G01 X187.8754 Y29.6582
G01 X185.9200
G01 X185.8197 Y29.6520
G01 X185.7226 Y29.6259
G01 X185.6327 Y29.5809
G01 X185.5536 Y29.5188
G01 X185.4885 Y29.4422
G01 X185.4401 Y29.3542
G01 X185.4101 Y29.2582
G01 X185.4000 Y29.1582
G01 Y27.5782
G01 X185.4013 Y27.5228
G01 X185.4166 Y27.4305
G01 X185.4489 Y27.3426
G01 X185.4970 Y27.2623
G01 X185.5592 Y27.1924
G01 X185.6333 Y27.1352
G01 X185.7169 Y27.0930
G01 X185.8068 Y27.0670
G01 X185.9000 Y27.0582
G01 X187.8754
G01 X187.9053 Y27.0596
G01 X187.9343 Y27.0523
G01 X187.9599 Y27.0370
G01 X187.9799 Y27.0148
G01 X187.9927 Y26.9878
G01 X187.9971 Y26.9582
G01 X187.9927 Y26.9286
G01 X187.9799 Y26.9016
G01 X187.9599 Y26.8795
G01 X187.9343 Y26.8641
G01 X187.9053 Y26.8568
G01 X187.8754 Y26.8582
G01 X185.9200
G01 X185.8197 Y26.8520
G01 X185.7226 Y26.8259
G01 X185.6327 Y26.7809
G01 X185.5536 Y26.7188
G01 X185.4885 Y26.6422
G01 X185.4401 Y26.5542
G01 X185.4101 Y26.4582
G01 X185.4000 Y26.3582
G01 Y26.0629
G01 X185.4020 Y26.0397
G01 X185.3987 Y26.0165
G01 X185.3904 Y25.9947
G01 X185.3775 Y25.9752
G01 X185.3605 Y25.9591
G01 X185.3404 Y25.9472
G01 X185.3181 Y25.9401
G01 X185.2949 Y25.9381
G01 X185.0640 Y26.0077
G01 X184.8409 Y26.0991
G01 X184.6275 Y26.2114
G01 X184.4259 Y26.3436
G01 X184.2378 Y26.4945
G01 X184.0650 Y26.6627
G01 X183.9091 Y26.8466
G01 X183.7715 Y27.0446
G01 X183.6535 Y27.2549
G01 X183.5561 Y27.4754
G01 X183.4802 Y27.7043
G01 X183.4266 Y27.9394
G01 X183.3943 Y28.0070
G01 X183.3523 Y28.0690
G01 X183.3014 Y28.1241
G01 X183.2429 Y28.1709
G01 X183.1781 Y28.2084
G01 X183.1084 Y28.2359
G01 X183.0353 Y28.2526
G01 X182.9606 Y28.2582
G01 X181.6941 Y28.2586
G01 X181.4291 Y28.2696
G01 X181.1661 Y28.3034
G01 X180.9070 Y28.3596
G01 X180.6536 Y28.4379
G01 X180.4079 Y28.5376
G01 X180.1716 Y28.6581
G01 X179.9466 Y28.7984
G01 X179.7345 Y28.9575
G01 X179.5368 Y29.1342
G01 X179.3550 Y29.3273
G01 X179.1905 Y29.5353
G01 X179.0444 Y29.7566
G01 X178.9179 Y29.9897
G01 X178.8119 Y30.2327
G01 X178.7271 Y30.4840
G01 X178.6642 Y30.7416
G01 Z-3.6000 F120
G01 X178.6198 Y31.0410 F108
G01 X178.6059 Y31.3342
G01 X178.6076 Y31.3517
G01 X178.6124 Y31.3743
G01 X178.6223 Y31.3952
G01 X178.6369 Y31.4131
G01 X178.6553 Y31.4271
G01 X178.6764 Y31.4363
G01 X178.6992 Y31.4403
G01 X178.7223 Y31.4389
G01 X178.7443 Y31.4320
G01 X178.7641 Y31.4202
G01 X178.7806 Y31.4040
G01 X178.7928 Y31.3844
G01 X178.8001 Y31.3624
G01 X178.8059 Y31.2989
G01 X178.8238 Y31.0191
G01 X178.8687 Y30.7425
G01 X178.9403 Y30.4714
G01 X179.0378 Y30.2086
G01 X179.1604 Y29.9566
G01 X179.3069 Y29.7176
G01 X179.4758 Y29.4939
G01 X179.6657 Y29.2878
G01 X179.8747 Y29.1010
G01 X180.1009 Y28.9354
G01 X180.3421 Y28.7925
G01 X180.5959 Y28.6737
G01 X180.8602 Y28.5801
G01 X181.1322 Y28.5126
G01 X181.4096 Y28.4719
G01 X181.6895 Y28.4582
G01 X182.9721 Y28.4583
G01 X183.0466 Y28.4657
G01 X183.1193 Y28.4841
G01 X183.1884 Y28.5131
G01 X183.2523 Y28.5521
G01 X183.3097 Y28.6003
G01 X183.3593 Y28.6565
G01 X183.3999 Y28.7194
G01 X183.4307 Y28.7878
G01 X183.4836 Y29.0243
G01 X183.5596 Y29.2544
G01 X183.6577 Y29.4761
G01 X183.7771 Y29.6870
G01 X183.9165 Y29.8852
G01 X184.0748 Y30.0688
G01 X184.2503 Y30.2360
G01 X184.4413 Y30.3851
G01 X184.6460 Y30.5149
G01 X184.8625 Y30.6239
G01 X185.0886 Y30.7112
G01 X185.3222 Y30.7759
G01 X185.3404 Y30.7685
G01 X185.3571 Y30.7580
G01 X185.3716 Y30.7447
G01 X185.3837 Y30.7290
G01 X185.3927 Y30.7115
G01 X185.3986 Y30.6927
G01 X185.4010 Y30.6732
G01 X185.4000 Y30.6535
G01 Y30.3782
G01 X185.4013 Y30.3228
G01 X185.4166 Y30.2305
G01 X185.4489 Y30.1426
G01 X185.4970 Y30.0623
G01 X185.5592 Y29.9924
G01 X185.6333 Y29.9352
G01 X185.7169 Y29.8930
G01 X185.8068 Y29.8670
G01 X185.9000 Y29.8582
G01 X187.8754
G01 X187.9053 Y29.8596
G01 X187.9343 Y29.8523
G01 X187.9599 Y29.8370
G01 X187.9799 Y29.8148
G01 X187.9927 Y29.7878
G01 X187.9971 Y29.7582
G01 X187.9927 Y29.7286
G01 X187.9799 Y29.7016
G01 X187.9599 Y29.6795
G01 X187.9343 Y29.6641
G01 X187.9053 Y29.6568
G01 X187.8754 Y29.6582
G01 X185.9200
G01 X185.8197 Y29.6520
G01 X185.7226 Y29.6259
G01 X185.6327 Y29.5809
G01 X185.5536 Y29.5188
G01 X185.4885 Y29.4422
G01 X185.4401 Y29.3542
G01 X185.4101 Y29.2582
G01 X185.4000 Y29.1582
G01 Y27.5782
G01 X185.4013 Y27.5228
G01 X185.4166 Y27.4305
G01 X185.4489 Y27.3426
G01 X185.4970 Y27.2623
G01 X185.5592 Y27.1924
G01 X185.6333 Y27.1352
G01 X185.7169 Y27.0930
G01 X185.8068 Y27.0670
G01 X185.9000 Y27.0582
G01 X187.8754
G01 X187.9053 Y27.0596
G01 X187.9343 Y27.0523
G01 X187.9599 Y27.0370
G01 X187.9799 Y27.0148
G01 X187.9927 Y26.9878
G01 X187.9971 Y26.9582
G01 X187.9927 Y26.9286
G01 X187.9799 Y26.9016
G01 X187.9599 Y26.8795
G01 X187.9343 Y26.8641
G01 X187.9053 Y26.8568
G01 X187.8754 Y26.8582
G01 X185.9200
G01 X185.8197 Y26.8520
G01 X185.7226 Y26.8259
G01 X185.6327 Y26.7809
G01 X185.5536 Y26.7188
G01 X185.4885 Y26.6422
G01 X185.4401 Y26.5542
G01 X185.4101 Y26.4582
G01 X185.4000 Y26.3582
G01 Y26.0629
G01 X185.4020 Y26.0397
G01 X185.3987 Y26.0165
G01 X185.3904 Y25.9947
G01 X185.3775 Y25.9752
G01 X185.3605 Y25.9591
G01 X185.3404 Y25.9472
G01 X185.3181 Y25.9401
G01 X185.2949 Y25.9381
G01 X185.0640 Y26.0077
G01 X184.8409 Y26.0991
G01 X184.6275 Y26.2114
G01 X184.4259 Y26.3436
G01 X184.2378 Y26.4945
G01 X184.0650 Y26.6627
G01 X183.9091 Y26.8466
G01 X183.7715 Y27.0446
G01 X183.6535 Y27.2549
G01 X183.5561 Y27.4754
G01 X183.4802 Y27.7043
G01 X183.4266 Y27.9394
G01 X183.3943 Y28.0070
G01 X183.3523 Y28.0690
G01 X183.3014 Y28.1241
G01 X183.2429 Y28.1709
G01 X183.1781 Y28.2084
G01 X183.1084 Y28.2359
G01 X183.0353 Y28.2526
G01 X182.9606 Y28.2582
G01 X181.6941 Y28.2586
G01 X181.4291 Y28.2696
G01 X181.1661 Y28.3034
G01 X180.9070 Y28.3596
G01 X180.6536 Y28.4379
G01 X180.4079 Y28.5376
G01 X180.1716 Y28.6581
G01 X179.9466 Y28.7984
G01 X179.7345 Y28.9575
G01 X179.5368 Y29.1342
G01 X179.3550 Y29.3273
G01 X179.1905 Y29.5353
G01 X179.0444 Y29.7566
G01 X178.9179 Y29.9897
G01 X178.8119 Y30.2327
G01 X178.7271 Y30.4840
G01 X178.6642 Y30.7416
G01 Z-4.2000 F120
G01 X178.6198 Y31.0410 F108
G01 X178.6059 Y31.3342
G01 X178.6076 Y31.3517
G01 X178.6124 Y31.3743
G01 X178.6223 Y31.3952
G01 X178.6369 Y31.4131
G01 X178.6553 Y31.4271
G01 X178.6764 Y31.4363
G01 X178.6992 Y31.4403
G01 X178.7223 Y31.4389
G01 X178.7443 Y31.4320
G01 X178.7641 Y31.4202
G01 X178.7806 Y31.4040
G01 X178.7928 Y31.3844
G01 X178.8001 Y31.3624
G01 X178.8059 Y31.2989
G01 X178.8238 Y31.0191
G01 X178.8687 Y30.7425
G01 X178.9403 Y30.4714
G01 X179.0378 Y30.2086
G01 X179.1604 Y29.9566
G01 X179.3069 Y29.7176
G01 X179.4758 Y29.4939
G01 X179.6657 Y29.2878
G01 X179.8747 Y29.1010
G01 X180.1009 Y28.9354
G01 X180.3421 Y28.7925
G01 X180.5959 Y28.6737
G01 X180.8602 Y28.5801
G01 X181.1322 Y28.5126
G01 X181.4096 Y28.4719
G01 X181.6895 Y28.4582
G01 X182.9721 Y28.4583
G01 X183.0466 Y28.4657
G01 X183.1193 Y28.4841
G01 X183.1884 Y28.5131
G01 X183.2523 Y28.5521
G01 X183.3097 Y28.6003
G01 X183.3593 Y28.6565
G01 X183.3999 Y28.7194
G01 X183.4307 Y28.7878
G01 X183.4836 Y29.0243
G01 X183.5596 Y29.2544
G01 X183.6577 Y29.4761
G01 X183.7771 Y29.6870
G01 X183.9165 Y29.8852
G01 X184.0748 Y30.0688
G01 X184.2503 Y30.2360
G01 X184.4413 Y30.3851
G01 X184.6460 Y30.5149
G01 X184.8625 Y30.6239
G01 X185.0886 Y30.7112
G01 X185.3222 Y30.7759
G01 X185.3404 Y30.7685
G01 X185.3571 Y30.7580
G01 X185.3716 Y30.7447
G01 X185.3837 Y30.7290
G01 X185.3927 Y30.7115
G01 X185.3986 Y30.6927
G01 X185.4010 Y30.6732
G01 X185.4000 Y30.6535
G01 Y30.3782
G01 X185.4013 Y30.3228
G01 X185.4166 Y30.2305
G01 X185.4489 Y30.1426
G01 X185.4970 Y30.0623
G01 X185.5592 Y29.9924
G01 X185.6333 Y29.9352
G01 X185.7169 Y29.8930
G01 X185.8068 Y29.8670
G01 X185.9000 Y29.8582
G01 X187.8754
G01 X187.9053 Y29.8596
G01 X187.9343 Y29.8523
G01 X187.9599 Y29.8370
G01 X187.9799 Y29.8148
G01 X187.9927 Y29.7878
G01 X187.9971 Y29.7582
G01 X187.9927 Y29.7286
G01 X187.9799 Y29.7016
G01 X187.9599 Y29.6795
G01 X187.9343 Y29.6641
G01 X187.9053 Y29.6568
G01 X187.8754 Y29.6582
G01 X185.9200
G01 X185.8197 Y29.6520
G01 X185.7226 Y29.6259
G01 X185.6327 Y29.5809
G01 X185.5536 Y29.5188
G01 X185.4885 Y29.4422
G01 X185.4401 Y29.3542
G01 X185.4101 Y29.2582
G01 X185.4000 Y29.1582
G01 Y27.5782
G01 X185.4013 Y27.5228
G01 X185.4166 Y27.4305
G01 X185.4489 Y27.3426
G01 X185.4970 Y27.2623
G01 X185.5592 Y27.1924
G01 X185.6333 Y27.1352
G01 X185.7169 Y27.0930
G01 X185.8068 Y27.0670
G01 X185.9000 Y27.0582
G01 X187.8754
G01 X187.9053 Y27.0596
G01 X187.9343 Y27.0523
G01 X187.9599 Y27.0370
G01 X187.9799 Y27.0148
G01 X187.9927 Y26.9878
G01 X187.9971 Y26.9582
G01 X187.9927 Y26.9286
G01 X187.9799 Y26.9016
G01 X187.9599 Y26.8795
G01 X187.9343 Y26.8641
G01 X187.9053 Y26.8568
G01 X187.8754 Y26.8582
G01 X185.9200
G01 X185.8197 Y26.8520
G01 X185.7226 Y26.8259
G01 X185.6327 Y26.7809
G01 X185.5536 Y26.7188
G01 X185.4885 Y26.6422
G01 X185.4401 Y26.5542
G01 X185.4101 Y26.4582
G01 X185.4000 Y26.3582
G01 Y26.0629
G01 X185.4020 Y26.0397
G01 X185.3987 Y26.0165
G01 X185.3904 Y25.9947
G01 X185.3775 Y25.9752
G01 X185.3605 Y25.9591
G01 X185.3404 Y25.9472
G01 X185.3181 Y25.9401
G01 X185.2949 Y25.9381
G01 X185.0640 Y26.0077
G01 X184.8409 Y26.0991
G01 X184.6275 Y26.2114
G01 X184.4259 Y26.3436
G01 X184.2378 Y26.4945
G01 X184.0650 Y26.6627
G01 X183.9091 Y26.8466
G01 X183.7715 Y27.0446
G01 X183.6535 Y27.2549
G01 X183.5561 Y27.4754
G01 X183.4802 Y27.7043
G01 X183.4266 Y27.9394
G01 X183.3943 Y28.0070
G01 X183.3523 Y28.0690
G01 X183.3014 Y28.1241
G01 X183.2429 Y28.1709
G01 X183.1781 Y28.2084
G01 X183.1084 Y28.2359
G01 X183.0353 Y28.2526
G01 X182.9606 Y28.2582
G01 X181.6941 Y28.2586
G01 X181.4291 Y28.2696
G01 X181.1661 Y28.3034
G01 X180.9070 Y28.3596
G01 X180.6536 Y28.4379
G01 X180.4079 Y28.5376
G01 X180.1716 Y28.6581
G01 X179.9466 Y28.7984
G01 X179.7345 Y28.9575
G01 X179.5368 Y29.1342
G01 X179.3550 Y29.3273
G01 X179.1905 Y29.5353
G01 X179.0444 Y29.7566
G01 X178.9179 Y29.9897
G01 X178.8119 Y30.2327
G01 X178.7271 Y30.4840
G01 X178.6642 Y30.7416
G00 Z1.0000 F500


;No. 25: Hole 70
G00 X185.0043 Y35.3095 Z1.0000 F3000
G00 Z0.5000 F500
G01 Z-1.2000 F120
G01 X185.0000 Y35.3531 F108
G01 Y40.1040
G01 X185.0032 Y40.1369
G01 X185.0078 Y40.1576
G01 X185.0165 Y40.1769
G01 X185.0288 Y40.1941
G01 X185.0444 Y40.2086
G01 X185.0625 Y40.2196
G01 X185.0824 Y40.2267
G01 X185.1034 Y40.2298
G01 X185.1246 Y40.2286
G01 X185.8754
G01 X185.9008 Y40.2291
G01 X185.9257 Y40.2238
G01 X185.9487 Y40.2130
G01 X185.9686 Y40.1972
G01 X185.9844 Y40.1773
G01 X185.9952 Y40.1543
G01 X186.0005 Y40.1294
G01 X186.0000 Y40.1040
G01 Y35.3531
G01 X186.0005 Y35.3277
G01 X185.9952 Y35.3028
G01 X185.9844 Y35.2798
G01 X185.9686 Y35.2599
G01 X185.9487 Y35.2441
G01 X185.9257 Y35.2333
G01 X185.9008 Y35.2280
G01 X185.8754 Y35.2286
G01 X185.1246
G01 X185.1047 Y35.2274
G01 X185.0850 Y35.2300
G01 X185.0661 Y35.2361
G01 X185.0487 Y35.2456
G01 X185.0333 Y35.2582
G01 X185.0205 Y35.2734
G01 X185.0107 Y35.2907
G01 X185.0043 Y35.3095
G01 Z-2.4000 F120
G01 X185.0000 Y35.3531 F108
G01 Y40.1040
G01 X185.0032 Y40.1369
G01 X185.0078 Y40.1576
G01 X185.0165 Y40.1769
G01 X185.0288 Y40.1941
G01 X185.0444 Y40.2086
G01 X185.0625 Y40.2196
G01 X185.0824 Y40.2267
G01 X185.1034 Y40.2298
G01 X185.1246 Y40.2286
G01 X185.8754
G01 X185.9008 Y40.2291
G01 X185.9257 Y40.2238
G01 X185.9487 Y40.2130
G01 X185.9686 Y40.1972
G01 X185.9844 Y40.1773
G01 X185.9952 Y40.1543
G01 X186.0005 Y40.1294
G01 X186.0000 Y40.1040
G01 Y35.3531
G01 X186.0005 Y35.3277
G01 X185.9952 Y35.3028
G01 X185.9844 Y35.2798
G01 X185.9686 Y35.2599
G01 X185.9487 Y35.2441
G01 X185.9257 Y35.2333
G01 X185.9008 Y35.2280
G01 X185.8754 Y35.2286
G01 X185.1246
G01 X185.1047 Y35.2274
G01 X185.0850 Y35.2300
G01 X185.0661 Y35.2361
G01 X185.0487 Y35.2456
G01 X185.0333 Y35.2582
G01 X185.0205 Y35.2734
G01 X185.0107 Y35.2907
G01 X185.0043 Y35.3095
G01 Z-3.6000 F120
G01 X185.0000 Y35.3531 F108
G01 Y40.1040
G01 X185.0032 Y40.1369
G01 X185.0078 Y40.1576
G01 X185.0165 Y40.1769
G01 X185.0288 Y40.1941
G01 X185.0444 Y40.2086
G01 X185.0625 Y40.2196
G01 X185.0824 Y40.2267
G01 X185.1034 Y40.2298
G01 X185.1246 Y40.2286
G01 X185.8754
G01 X185.9008 Y40.2291
G01 X185.9257 Y40.2238
G01 X185.9487 Y40.2130
G01 X185.9686 Y40.1972
G01 X185.9844 Y40.1773
G01 X185.9952 Y40.1543
G01 X186.0005 Y40.1294
G01 X186.0000 Y40.1040
G01 Y35.3531
G01 X186.0005 Y35.3277
G01 X185.9952 Y35.3028
G01 X185.9844 Y35.2798
G01 X185.9686 Y35.2599
G01 X185.9487 Y35.2441
G01 X185.9257 Y35.2333
G01 X185.9008 Y35.2280
G01 X185.8754 Y35.2286
G01 X185.1246
G01 X185.1047 Y35.2274
G01 X185.0850 Y35.2300
G01 X185.0661 Y35.2361
G01 X185.0487 Y35.2456
G01 X185.0333 Y35.2582
G01 X185.0205 Y35.2734
G01 X185.0107 Y35.2907
G01 X185.0043 Y35.3095
G01 Z-4.2000 F120
G01 X185.0000 Y35.3531 F108
G01 Y40.1040
G01 X185.0032 Y40.1369
G01 X185.0078 Y40.1576
G01 X185.0165 Y40.1769
G01 X185.0288 Y40.1941
G01 X185.0444 Y40.2086
G01 X185.0625 Y40.2196
G01 X185.0824 Y40.2267
G01 X185.1034 Y40.2298
G01 X185.1246 Y40.2286
G01 X185.8754
G01 X185.9008 Y40.2291
G01 X185.9257 Y40.2238
G01 X185.9487 Y40.2130
G01 X185.9686 Y40.1972
G01 X185.9844 Y40.1773
G01 X185.9952 Y40.1543
G01 X186.0005 Y40.1294
G01 X186.0000 Y40.1040
G01 Y35.3531
G01 X186.0005 Y35.3277
G01 X185.9952 Y35.3028
G01 X185.9844 Y35.2798
G01 X185.9686 Y35.2599
G01 X185.9487 Y35.2441
G01 X185.9257 Y35.2333
G01 X185.9008 Y35.2280
G01 X185.8754 Y35.2286
G01 X185.1246
G01 X185.1047 Y35.2274
G01 X185.0850 Y35.2300
G01 X185.0661 Y35.2361
G01 X185.0487 Y35.2456
G01 X185.0333 Y35.2582
G01 X185.0205 Y35.2734
G01 X185.0107 Y35.2907
G01 X185.0043 Y35.3095
G00 Z1.0000 F500


;No. 26: Hole 69
G00 X189.0043 Y35.3095 Z1.0000 F3000
G00 Z0.5000 F500
G01 Z-1.2000 F120
G01 X189.0000 Y35.3531 F108
G01 Y40.1040
G01 X189.0032 Y40.1369
G01 X189.0087 Y40.1594
G01 X189.0189 Y40.1803
G01 X189.0332 Y40.1986
G01 X189.0510 Y40.2135
G01 X189.0715 Y40.2243
G01 X189.0939 Y40.2306
G01 X189.1170 Y40.2320
G01 X189.1400 Y40.2286
G01 X189.8754
G01 X189.9008 Y40.2291
G01 X189.9257 Y40.2238
G01 X189.9487 Y40.2130
G01 X189.9686 Y40.1972
G01 X189.9844 Y40.1773
G01 X189.9952 Y40.1543
G01 X190.0005 Y40.1294
G01 X190.0000 Y40.1040
G01 Y35.3531
G01 X190.0005 Y35.3277
G01 X189.9952 Y35.3028
G01 X189.9844 Y35.2798
G01 X189.9686 Y35.2599
G01 X189.9487 Y35.2441
G01 X189.9257 Y35.2333
G01 X189.9008 Y35.2280
G01 X189.8754 Y35.2286
G01 X189.1246
G01 X189.1047 Y35.2274
G01 X189.0850 Y35.2300
G01 X189.0661 Y35.2361
G01 X189.0487 Y35.2456
G01 X189.0333 Y35.2582
G01 X189.0205 Y35.2734
G01 X189.0107 Y35.2907
G01 X189.0043 Y35.3095
G01 Z-2.4000 F120
G01 X189.0000 Y35.3531 F108
G01 Y40.1040
G01 X189.0032 Y40.1369
G01 X189.0087 Y40.1594
G01 X189.0189 Y40.1803
G01 X189.0332 Y40.1986
G01 X189.0510 Y40.2135
G01 X189.0715 Y40.2243
G01 X189.0939 Y40.2306
G01 X189.1170 Y40.2320
G01 X189.1400 Y40.2286
G01 X189.8754
G01 X189.9008 Y40.2291
G01 X189.9257 Y40.2238
G01 X189.9487 Y40.2130
G01 X189.9686 Y40.1972
G01 X189.9844 Y40.1773
G01 X189.9952 Y40.1543
G01 X190.0005 Y40.1294
G01 X190.0000 Y40.1040
G01 Y35.3531
G01 X190.0005 Y35.3277
G01 X189.9952 Y35.3028
G01 X189.9844 Y35.2798
G01 X189.9686 Y35.2599
G01 X189.9487 Y35.2441
G01 X189.9257 Y35.2333
G01 X189.9008 Y35.2280
G01 X189.8754 Y35.2286
G01 X189.1246
G01 X189.1047 Y35.2274
G01 X189.0850 Y35.2300
G01 X189.0661 Y35.2361
G01 X189.0487 Y35.2456
G01 X189.0333 Y35.2582
G01 X189.0205 Y35.2734
G01 X189.0107 Y35.2907
G01 X189.0043 Y35.3095
G01 Z-3.6000 F120
G01 X189.0000 Y35.3531 F108
G01 Y40.1040
G01 X189.0032 Y40.1369
G01 X189.0087 Y40.1594
G01 X189.0189 Y40.1803
G01 X189.0332 Y40.1986
G01 X189.0510 Y40.2135
G01 X189.0715 Y40.2243
G01 X189.0939 Y40.2306
G01 X189.1170 Y40.2320
G01 X189.1400 Y40.2286
G01 X189.8754
G01 X189.9008 Y40.2291
G01 X189.9257 Y40.2238
G01 X189.9487 Y40.2130
G01 X189.9686 Y40.1972
G01 X189.9844 Y40.1773
G01 X189.9952 Y40.1543
G01 X190.0005 Y40.1294
G01 X190.0000 Y40.1040
G01 Y35.3531
G01 X190.0005 Y35.3277
G01 X189.9952 Y35.3028
G01 X189.9844 Y35.2798
G01 X189.9686 Y35.2599
G01 X189.9487 Y35.2441
G01 X189.9257 Y35.2333
G01 X189.9008 Y35.2280
G01 X189.8754 Y35.2286
G01 X189.1246
G01 X189.1047 Y35.2274
G01 X189.0850 Y35.2300
G01 X189.0661 Y35.2361
G01 X189.0487 Y35.2456
G01 X189.0333 Y35.2582
G01 X189.0205 Y35.2734
G01 X189.0107 Y35.2907
G01 X189.0043 Y35.3095
G01 Z-4.2000 F120
G01 X189.0000 Y35.3531 F108
G01 Y40.1040
G01 X189.0032 Y40.1369
G01 X189.0087 Y40.1594
G01 X189.0189 Y40.1803
G01 X189.0332 Y40.1986
G01 X189.0510 Y40.2135
G01 X189.0715 Y40.2243
G01 X189.0939 Y40.2306
G01 X189.1170 Y40.2320
G01 X189.1400 Y40.2286
G01 X189.8754
G01 X189.9008 Y40.2291
G01 X189.9257 Y40.2238
G01 X189.9487 Y40.2130
G01 X189.9686 Y40.1972
G01 X189.9844 Y40.1773
G01 X189.9952 Y40.1543
G01 X190.0005 Y40.1294
G01 X190.0000 Y40.1040
G01 Y35.3531
G01 X190.0005 Y35.3277
G01 X189.9952 Y35.3028
G01 X189.9844 Y35.2798
G01 X189.9686 Y35.2599
G01 X189.9487 Y35.2441
G01 X189.9257 Y35.2333
G01 X189.9008 Y35.2280
G01 X189.8754 Y35.2286
G01 X189.1246
G01 X189.1047 Y35.2274
G01 X189.0850 Y35.2300
G01 X189.0661 Y35.2361
G01 X189.0487 Y35.2456
G01 X189.0333 Y35.2582
G01 X189.0205 Y35.2734
G01 X189.0107 Y35.2907
G01 X189.0043 Y35.3095
G00 Z1.0000 F500


;No. 27: Hole 68
G00 X193.0043 Y35.3095 Z1.0000 F3000
G00 Z0.5000 F500
G01 Z-1.2000 F120
G01 X193.0000 Y35.3531 F108
G01 Y40.1040
G01 X193.0032 Y40.1369
G01 X193.0087 Y40.1594
G01 X193.0189 Y40.1803
G01 X193.0332 Y40.1986
G01 X193.0510 Y40.2135
G01 X193.0715 Y40.2243
G01 X193.0939 Y40.2306
G01 X193.1170 Y40.2320
G01 X193.1400 Y40.2286
G01 X193.8754
G01 X193.9008 Y40.2291
G01 X193.9257 Y40.2238
G01 X193.9487 Y40.2130
G01 X193.9686 Y40.1972
G01 X193.9844 Y40.1773
G01 X193.9952 Y40.1543
G01 X194.0005 Y40.1294
G01 X194.0000 Y40.1040
G01 Y35.3531
G01 X194.0005 Y35.3277
G01 X193.9952 Y35.3028
G01 X193.9844 Y35.2798
G01 X193.9686 Y35.2599
G01 X193.9487 Y35.2441
G01 X193.9257 Y35.2333
G01 X193.9008 Y35.2280
G01 X193.8754 Y35.2286
G01 X193.1246
G01 X193.1047 Y35.2274
G01 X193.0850 Y35.2300
G01 X193.0661 Y35.2361
G01 X193.0487 Y35.2456
G01 X193.0333 Y35.2582
G01 X193.0205 Y35.2734
G01 X193.0107 Y35.2907
G01 X193.0043 Y35.3095
G01 Z-2.4000 F120
G01 X193.0000 Y35.3531 F108
G01 Y40.1040
G01 X193.0032 Y40.1369
G01 X193.0087 Y40.1594
G01 X193.0189 Y40.1803
G01 X193.0332 Y40.1986
G01 X193.0510 Y40.2135
G01 X193.0715 Y40.2243
G01 X193.0939 Y40.2306
G01 X193.1170 Y40.2320
G01 X193.1400 Y40.2286
G01 X193.8754
G01 X193.9008 Y40.2291
G01 X193.9257 Y40.2238
G01 X193.9487 Y40.2130
G01 X193.9686 Y40.1972
G01 X193.9844 Y40.1773
G01 X193.9952 Y40.1543
G01 X194.0005 Y40.1294
G01 X194.0000 Y40.1040
G01 Y35.3531
G01 X194.0005 Y35.3277
G01 X193.9952 Y35.3028
G01 X193.9844 Y35.2798
G01 X193.9686 Y35.2599
G01 X193.9487 Y35.2441
G01 X193.9257 Y35.2333
G01 X193.9008 Y35.2280
G01 X193.8754 Y35.2286
G01 X193.1246
G01 X193.1047 Y35.2274
G01 X193.0850 Y35.2300
G01 X193.0661 Y35.2361
G01 X193.0487 Y35.2456
G01 X193.0333 Y35.2582
G01 X193.0205 Y35.2734
G01 X193.0107 Y35.2907
G01 X193.0043 Y35.3095
G01 Z-3.6000 F120
G01 X193.0000 Y35.3531 F108
G01 Y40.1040
G01 X193.0032 Y40.1369
G01 X193.0087 Y40.1594
G01 X193.0189 Y40.1803
G01 X193.0332 Y40.1986
G01 X193.0510 Y40.2135
G01 X193.0715 Y40.2243
G01 X193.0939 Y40.2306
G01 X193.1170 Y40.2320
G01 X193.1400 Y40.2286
G01 X193.8754
G01 X193.9008 Y40.2291
G01 X193.9257 Y40.2238
G01 X193.9487 Y40.2130
G01 X193.9686 Y40.1972
G01 X193.9844 Y40.1773
G01 X193.9952 Y40.1543
G01 X194.0005 Y40.1294
G01 X194.0000 Y40.1040
G01 Y35.3531
G01 X194.0005 Y35.3277
G01 X193.9952 Y35.3028
G01 X193.9844 Y35.2798
G01 X193.9686 Y35.2599
G01 X193.9487 Y35.2441
G01 X193.9257 Y35.2333
G01 X193.9008 Y35.2280
G01 X193.8754 Y35.2286
G01 X193.1246
G01 X193.1047 Y35.2274
G01 X193.0850 Y35.2300
G01 X193.0661 Y35.2361
G01 X193.0487 Y35.2456
G01 X193.0333 Y35.2582
G01 X193.0205 Y35.2734
G01 X193.0107 Y35.2907
G01 X193.0043 Y35.3095
G01 Z-4.2000 F120
G01 X193.0000 Y35.3531 F108
G01 Y40.1040
G01 X193.0032 Y40.1369
G01 X193.0087 Y40.1594
G01 X193.0189 Y40.1803
G01 X193.0332 Y40.1986
G01 X193.0510 Y40.2135
