;Project RelayBoard-B.Cu
;Created by Estlcam version 10 build 11.006
;Machining time about 00:44:37 hours

G90
G92 X0 Y0 Z0
M03 S24000
G00 Z1.0000 F500


;No. 1: Part 15
G00 X51.6604 Y11.5074 F3000
G00 Z0.5000 F500
G01 Z-0.3000 F120
G01 X115.5843 F180
G01 X59.1523
G01 Y12.4074
G01 X51.5721
G01 Y13.3074
G01 X58.2525
G01 X57.3489 Y14.2074
G01 X51.5721
G01 Y15.1074
G01 X56.7713
G01 X56.6921 Y16.0074
G01 X51.5721
G01 Y16.9074
G01 X56.6921
G01 Y17.8074
G01 X51.5721
G01 Y18.7074
G01 X56.6921
G01 Y19.6074
G01 X51.5721
G01 Y20.5074
G01 X56.6921
G01 Y21.4074
G01 X51.5721
G01 Y22.3074
G01 X56.6921
G01 Y23.2074
G01 X51.5721
G01 Y24.1074
G01 X56.6921
G01 X56.9044 Y25.0074
G01 X51.5721
G01 Y25.9074
G01 X57.7032
G01 X51.5721
G01 Y26.8074
G01 X63.9596
G01 X64.8595 Y25.9074
G01 X60.0410
G01 X60.7973 Y25.0074
G01 X65.7595
G01 X66.6595 Y24.1074
G01 X60.9717
G01 X60.8921 Y23.2074
G01 X67.5594
G01 X68.2721 Y22.3074
G01 X60.8921
G01 Y21.4074
G01 X68.0721
G01 X68.2571 Y20.5074
G01 X60.8921
G01 Y19.6074
G01 X63.0509
G01 X62.0271
G01 Y18.7074
G01 X60.8921
G01 Y17.8074
G01 X61.7721
G01 X61.9107 Y16.9074
G01 X60.8921
G01 X61.4918 Y16.0074
G01 X62.5387
G00 Z1.0000 F500
G00 X77.5921 Y11.5074 F3000
G00 Z0.5000 F500
G01 Z-0.3000 F120
G01 Y12.4074 F180
G01 X115.6721
G01 Y13.3074
G01 X78.4920
G01 X79.3920 Y14.2074
G01 X115.6721
G01 Y15.1074
G01 X80.2920
G01 X81.1920 Y16.0074
G01 X115.6721
G01 X82.6523
G01 Y16.9074
G01 X82.0920
G00 Z1.0000 F500
G00 X95.0920 Y16.0074 F3000
G00 Z0.5000 F500
G01 Z-0.3000 F120
G01 Y16.9074 F180
G01 X95.7034
G00 Z1.0000 F500
G00 X111.0412 Y16.0074 F3000
G00 Z0.5000 F500
G01 Z-0.3000 F120
G01 Y16.9074 F180
G01 X115.6721
G01 Y17.8074
G01 X111.9920
G01 X112.8919 Y18.7074
G01 X115.6721
G01 Y19.6074
G01 X113.7918
G01 X114.6917 Y20.5074
G01 X115.6721
G00 Z1.0000 F500
G00 X67.5595 F3000
G00 Z0.5000 F500
G01 Z-0.3000 F120
G01 Y19.6074 F180
G01 X64.6947
G00 Z1.0000 F500
G00 X57.4147 Y26.8074 F3000
G00 Z0.5000 F500
G01 Z-0.3000 F120
G01 Y27.7074 F180
G01 X51.5721
G01 Y28.6074
G01 X56.8672
G01 X56.3396 Y29.5074
G01 X51.5721
G01 Y30.4074
G01 X55.8043
G01 X55.7721 Y31.3074
G01 X51.5721
G01 Y32.2074
G01 X55.7721
G01 Y33.1074
G01 X51.5721
G01 Y34.0074
G01 X55.7721
G01 Y34.9074
G01 X51.5721
G01 Y35.8074
G01 X55.7721
G01 Y36.7074
G01 X51.5721
G01 Y37.6074
G01 X55.7704
G01 X56.0143 Y38.5074
G01 X51.5721
G01 Y39.4074
G01 X56.8596
G01 X57.7595 Y40.3074
G01 X51.5721
G01 Y41.2074
G01 X58.9487
G01 X59.7723 Y42.1074
G01 X51.5721
G01 Y43.0074
G01 X59.7724
G01 X59.7725 Y43.9074
G01 X51.5721
G01 Y44.8074
G01 X59.7727
G01 X59.8540 Y45.7074
G01 X51.5721
G01 Y46.6074
G01 X60.6777
G01 X58.2482
G01 Y47.5074
G01 X51.5721
G01 Y48.4074
G01 X57.3594
G01 X56.4595 Y49.3074
G01 X51.5721
G01 Y50.2074
G01 X55.5595
G01 X54.6595 Y51.1074
G01 X51.5721
G01 Y52.0074
G01 X53.7596
G01 X52.8596 Y52.9074
G01 X51.5721
G01 Y53.8074
G01 X52.3094
G01 X52.2721 Y54.7074
G01 X51.5721
G01 Y55.6074
G01 X52.2721
G01 Y56.5074
G01 X51.5721
G01 Y57.4074
G01 X52.2721
G01 Y58.3074
G01 X51.5721
G01 Y59.2074
G01 X52.2721
G01 Y60.1074
G01 X51.5721
G01 Y61.0074
G01 X52.2721
G01 Y61.9074
G01 X51.5721
G01 Y62.8074
G01 X52.2640
G01 X52.6455 Y63.7074
G01 X51.5721
G01 Y64.6074
G01 X53.5596
G01 X54.4595 Y65.5074
G01 X51.5721
G01 Y66.4074
G01 X55.3595
G01 X56.2595 Y67.3074
G01 X51.5721
G01 Y68.2074
G01 X57.1594
G01 X58.1625 Y69.1074
G01 X51.5721
G01 Y70.0074
G01 X69.4595
G01 X70.3500 Y70.9074
G01 X51.5721
G01 X51.6600 Y71.8074
G01 X115.5839
G01 X115.6721 Y70.9074
G01 X92.8950
G01 X93.7848 Y70.0074
G01 X115.6721
G01 Y69.1074
G01 X94.6848
G01 X95.5847 Y68.2074
G01 X115.6721
G01 Y67.3074
G01 X96.4903
G01 X96.9613 Y66.4074
G01 X115.6721
G01 Y65.5074
G01 X97.9771
G01 X99.3520
G01 Y64.6074
G01 X115.6721
G01 Y63.7074
G01 X99.4721
G01 Y62.8074
G01 X115.6721
G01 Y61.9074
G01 X108.5639
G01 X108.9653 Y61.0074
G01 X115.6721
G01 Y60.1074
G01 X108.9067
G01 X108.3961 Y59.2074
G01 X115.6721
G01 Y58.3074
G01 X102.2848
G01 X105.8418
G01 Y57.4074
G01 X90.2001
G01 X91.9594
G01 Y56.5074
G01 X66.2846
G01 X67.1846 Y55.6074
G01 X91.0594
G01 X86.3652
G01 Y54.7074
G01 X84.3945
G01 X84.7209 Y53.8074
G01 X86.0230
G01 X86.0221 Y52.9074
G01 X84.7221
G01 Y52.0074
G01 X86.0221
G01 Y51.1074
G01 X84.7221
G01 Y50.2074
G01 X86.0221
G01 Y49.3074
G01 X84.7221
G01 X84.7082 Y48.4074
G01 X86.0349
G01 X86.4460 Y47.5074
G01 X84.2942
G01 X83.9823 Y46.6074
G01 X106.4526
G01 X107.3525 Y45.7074
G01 X83.6706
G01 X82.7848 Y44.8074
G01 X108.2525
G01 X109.1524 Y43.9074
G01 X81.8943
G01 X94.7848
G01 Y43.0074
G01 X110.0524
G01 X110.9523 Y42.1074
G01 X95.6847
G01 X96.5997 Y41.2074
G01 X106.1936
G01 X103.2550
G01 Y40.3074
G01 X98.7370
G01 X99.4151 Y39.4074
G01 X102.3594
G01 X101.4595 Y38.5074
G01 X99.4721
G01 Y37.6074
G01 X100.5595
G00 Z1.0000 F500
G00 X107.5489 Y42.1074 F3000
G00 Z0.5000 F500
G01 Z-0.3000 F120
G01 Y41.2074 F180
G01 X111.2721
G01 Y40.3074
G01 X109.9895
G00 Z1.0000 F500
G00 X91.5073 Y46.6074 F3000
G00 Z0.5000 F500
G01 Z-0.3000 F120
G01 Y47.5074 F180
G01 X90.2942
G01 X90.7082 Y48.4074
G01 X91.2721
G01 Y49.3074
G01 X90.7221
G01 Y50.2074
G01 X91.2979
G01 X91.0848 Y51.1074
G01 X91.7423
G00 Z1.0000 F500
G00 X75.3652 Y55.6074 F3000
G00 Z0.5000 F500
G01 Z-0.3000 F120
G01 Y54.7074 F180
G01 X68.0846
G01 X68.9846 Y53.8074
G01 X75.0230
G01 X75.0221 Y52.9074
G01 X69.8846
G01 X70.7846 Y52.0074
G01 X75.0221
G01 Y51.1074
G01 X71.6846
G01 X72.5846 Y50.2074
G01 X75.0221
G01 Y49.3074
G01 X73.4846
G01 X74.3847 Y48.4074
G01 X75.0349
G00 Z1.0000 F500
G00 X79.3945 Y55.6074 F3000
G00 Z0.5000 F500
G01 Z-0.3000 F120
G01 Y54.7074 F180
G01 X80.3656
G00 Z1.0000 F500
G00 X75.5647 Y56.5074 F3000
G00 Z0.5000 F500
G01 Z-0.3000 F120
G01 Y57.4074 F180
G01 X65.5639
G01 X75.0526
G01 Y58.3074
G01 X55.4721
G01 Y57.4074
G01 X56.6799
G01 X56.2784 Y56.5074
G01 X55.4721
G01 Y55.6074
G01 X56.3376
G01 X56.8478 Y54.7074
G01 X55.5849
G01 X56.4848 Y53.8074
G01 X64.4597
G01 X65.3597 Y52.9074
G01 X57.3848
G01 X58.2847 Y52.0074
G01 X66.2596
G01 X67.1596 Y51.1074
G01 X59.1847
G01 X61.7922
G01 Y50.2074
G01 X68.0596
G01 X68.9596 Y49.3074
G01 X62.8379
G01 X62.9670 Y48.4074
G01 X69.8595
G01 X69.1658 Y47.5074
G01 X62.4961
G00 Z1.0000 F500
G00 X79.2001 Y56.5074 F3000
G00 Z0.5000 F500
G01 Z-0.3000 F120
G01 Y57.4074 F180
G01 X80.5643
G00 Z1.0000 F500
G00 X84.2001 Y56.5074 F3000
G00 Z0.5000 F500
G01 Z-0.3000 F120
G01 Y57.4074 F180
G01 X86.5647
G01 X86.0526 Y58.3074
G01 X84.6830
G01 X84.7221 Y59.2074
G01 X86.0221
G01 Y60.1074
G01 X84.7221
G01 Y61.0074
G01 X86.0221
G01 Y61.9074
G01 X84.7221
G01 Y62.8074
G01 X86.0221
G01 Y63.7074
G01 X84.7221
G01 X84.4583 Y64.6074
G01 X86.2811
G01 Y65.5074
G01 X83.9349
G01 X92.7471
G01 X91.4052
G01 Y64.6074
G01 X90.4583
G01 X90.7221 Y63.7074
G01 X91.2721
G01 Y62.8074
G01 X90.7221
G01 Y61.9074
G01 X91.3292
G01 X90.7848 Y61.0074
G01 X92.0073
G00 Z1.0000 F500
G00 X107.9025 Y58.3074 F3000
G00 Z0.5000 F500
G01 Z-0.3000 F120
G01 Y57.4074 F180
G01 X115.6721
G01 Y56.5074
G01 X108.7684
G01 X108.9721 Y55.6074
G01 X115.6721
G01 Y54.7074
G01 X108.7902
G01 X108.0060 Y53.8074
G01 X115.6721
G01 Y52.9074
G01 X92.8847
G01 X91.9848 Y52.0074
G01 X115.6721
G01 Y51.1074
G01 X107.7040
G01 X108.7920
G01 Y50.2074
G01 X115.6721
G01 Y49.3074
G01 X109.6920
G01 X110.5919 Y48.4074
G01 X115.6721
G01 Y47.5074
G01 X111.4919
G01 X112.3918 Y46.6074
G01 X115.6721
G01 Y45.7074
G01 X113.2918
G01 X114.1917 Y44.8074
G01 X115.6721
G01 Y43.9074
G01 X115.0755
G00 Z1.0000 F500
G00 X105.7388 Y52.9074 F3000
G00 Z0.5000 F500
G01 Z-0.3000 F120
G01 Y53.8074 F180
G01 X93.7847
G00 Z1.0000 F500
G00 X57.7913 Y58.3074 F3000
G00 Z0.5000 F500
G01 Z-0.3000 F120
G01 Y59.2074 F180
G01 X55.4721
G01 Y60.1074
G01 X56.5798
G01 X56.2721 Y61.0074
G01 X55.4721
G01 Y61.9074
G01 X56.3813
G01 X56.2848 Y62.8074
G01 X56.9490
G00 Z1.0000 F500
G00 X58.9526 Y58.3074 F3000
G00 Z0.5000 F500
G01 Z-0.3000 F120
G01 Y59.2074 F180
G01 X63.2913
G00 Z1.0000 F500
G00 X64.4530 Y58.3074 F3000
G00 Z0.5000 F500
G01 Z-0.3000 F120
G01 Y59.2074 F180
G01 X75.0221
G01 Y60.1074
G01 X72.0849
G01 X72.9848 Y61.0074
G01 X75.0221
G01 Y61.9074
G01 X73.8847
G00 Z1.0000 F500
G00 X101.3500 Y62.8074 F3000
G00 Z0.5000 F500
G01 Z-0.3000 F120
G01 Y61.9074 F180
G01 X99.3929
G01 X98.7111 Y61.0074
G01 X100.4595
G00 Z1.0000 F500
G00 X92.7471 Y65.5074 F3000
G00 Z0.5000 F500
G01 Z-0.3000 F120
G01 Y66.4074 F180
G01 X92.8595
G01 X83.3847
G01 X82.4848 Y67.3074
G01 X91.9595
G00 Z1.0000 F500
G00 X75.2526 Y16.0074 F3000
G00 Z0.5000 F500
G01 Z-0.3000 F120
G01 X65.2065 F180
G01 X69.3848
G01 Y16.9074
G01 X76.1525
G01 X77.0525 Y17.8074
G01 X70.2847
G01 X71.1706 Y18.7074
G01 X77.9524
G01 X78.8523 Y19.6074
G01 X71.4823
G01 X71.4846 Y20.5074
G01 X79.7523
G01 X80.2721 Y21.4074
G01 X71.6721
G01 X71.4721 Y22.3074
G01 X75.6845
G01 X75.0704 Y23.2074
G01 X71.4823
G01 X71.4721 Y24.1074
G01 X75.0221
G01 Y25.0074
G01 X71.4721
G01 Y25.9074
G01 X75.0221
G01 Y26.8074
G01 X71.4721
G01 X71.6849 Y27.7074
G01 X75.0221
G01 Y28.6074
G01 X72.5849
G01 X73.4849 Y29.5074
G01 X75.2125
G00 Z1.0000 F500
G00 X79.0484 Y21.4074 F3000
G00 Z0.5000 F500
G01 Z-0.3000 F120
G01 Y22.3074 F180
G01 X80.2721
G00 Z1.0000 F500
G00 X84.9918 Y20.5074 F3000
G00 Z0.5000 F500
G01 Z-0.3000 F120
G01 X92.7525 F180
G01 X93.2721 Y21.4074
G01 X84.4721
G01 Y22.3074
G01 X86.6845
G01 X86.0704 Y23.2074
G01 X84.6561
G01 X84.7221 Y24.1074
G01 X86.0221
G01 Y25.0074
G01 X84.7221
G01 Y25.9074
G01 X86.0221
G01 Y26.8074
G01 X84.7221
G01 Y27.7074
G01 X86.0221
G01 Y28.6074
G01 X84.7221
G01 X84.5157 Y29.5074
G01 X86.2125
G01 Y30.4074
G01 X82.1785
G01 X98.7823
G01 X99.2535 Y31.3074
G01 X83.0777
G01 X83.8741 Y32.2074
G01 X86.8665
G01 X86.0892 Y33.1074
G01 X84.6293
G01 X84.7221 Y34.0074
G01 X86.0221
G01 Y34.9074
G01 X84.7221
G01 Y35.8074
G01 X86.0221
G01 Y36.7074
G01 X84.7221
G01 Y37.6074
G01 X86.0221
G01 Y38.5074
G01 X84.7221
G01 X84.5732 Y39.4074
G01 X86.1697
G01 Y40.3074
G01 X92.0332
G01 X71.0862
G01 Y39.4074
G01 X69.8852
G01 X75.1697
G01 X75.0221 Y38.5074
G01 X68.9851
G01 X68.0851 Y37.6074
G01 X75.0221
G01 Y36.7074
G01 X67.1850
G01 X66.2849 Y35.8074
G01 X75.0221
G01 Y34.9074
G01 X65.3943
G01 Y34.0074
G01 X58.9721
G01 X75.0221
G01 X75.0892 Y33.1074
G01 X58.9721
G01 Y32.2074
G01 X71.6596
G01 X70.7596 Y31.3074
G01 X59.2243
G01 X64.8987
G01 Y30.4074
G01 X69.8596
G01 X68.9596 Y29.5074
G01 X65.7849
G01 X66.6849 Y28.6074
G01 X68.3274
G01 X68.2721 Y27.7074
G01 X67.5849
G00 Z1.0000 F500
G00 X90.0484 Y21.4074 F3000
G00 Z0.5000 F500
G01 Z-0.3000 F120
G01 Y22.3074 F180
G01 X91.6425
G01 X91.2774 Y23.2074
G01 X90.6561
G01 X90.7221 Y24.1074
G01 X91.2721
G01 Y25.0074
G01 X90.7221
G01 Y25.9074
G01 X91.5733
G00 Z1.0000 F500
G00 X89.8741 Y31.3074 F3000
G00 Z0.5000 F500
G01 Z-0.3000 F120
G01 Y32.2074 F180
G01 X100.1596
G00 Z1.0000 F500
G00 X60.3493 Y34.0074 F3000
G00 Z0.5000 F500
G01 Z-0.3000 F120
G01 Y34.9074 F180
G01 X58.9721
G01 Y35.8074
G01 X59.7980
G01 X59.8698 Y36.7074
G01 X58.9721
G01 X59.5848 Y37.6074
G01 X60.6849
G00 Z1.0000 F500
G00 X79.5732 Y40.3074 F3000
G00 Z0.5000 F500
G01 Z-0.3000 F120
G01 Y39.4074 F180
G01 X80.1697
G00 Z1.0000 F500
G00 X90.5732 Y40.3074 F3000
G00 Z0.5000 F500
G01 Z-0.3000 F120
G01 Y39.4074 F180
G01 X91.3513
G01 X91.2721 Y38.5074
G01 X90.7221
G01 Y37.6074
G01 X91.2721
G01 X91.3923 Y36.7074
G01 X90.7221
G01 X90.9847 Y35.8074
G01 X98.7596
G00 Z1.0000 F500
G00 X97.4721 Y21.4074 F3000
G00 Z0.5000 F500
G01 Z-0.3000 F120
G01 X104.8432 F180
G01 X103.9594 Y22.3074
G01 X99.0869
G01 X99.4667 Y23.2074
G01 X103.0595
G01 X102.1595 Y24.1074
G01 X99.4721
G01 Y25.0074
G01 X101.2595
G01 X100.3596 Y25.9074
G01 X99.1786
G00 Z1.0000 F500
G00 X108.5980 Y21.4074 F3000
G00 Z0.5000 F500
G01 Z-0.3000 F120
G01 X109.6525 F180
G01 X108.9698 Y22.3074
G01 X110.5524
G01 X111.2721 Y23.2074
G01 X108.8922
G01 X108.3630 Y24.1074
G01 X111.2721
G01 Y25.0074
G01 X105.7850
G01 X107.9712
G01 Y25.9074
G01 X111.2721
G01 Y26.8074
G01 X109.7849
G01 X110.6849 Y27.7074
G01 X111.2721
G00 Z1.0000 F500
G00 X105.7725 Y25.9074 F3000
G00 Z0.5000 F500
G01 Z-0.3000 F120
G01 X104.8849 F180
G01 X104.9615 Y26.8074
G01 X103.9849
G01 X104.7721 Y27.7074
G01 X103.0849
G01 X102.1849 Y28.6074
G01 X104.9693
G01 X105.8071 Y29.5074
G01 X101.9849
G01 X102.8848 Y30.4074
G01 X108.7721
G01 Y31.3074
G01 X103.7847
G01 X104.6847 Y32.2074
G01 X105.9803
G00 Z1.0000 F500
G00 X107.7640 Y31.3074 F3000
G00 Z0.5000 F500
G01 Z-0.3000 F120
G01 Y32.2074 F180
G01 X108.7721
G00 Z1.0000 F500
G00 X80.2125 Y29.5074 F3000
G00 Z0.5000 F500
G01 Z-0.3000 F120
G01 X79.5157 F180
G00 Z1.0000 F500
G00 X78.8741 Y32.2074 F3000
G00 Z0.5000 F500
G01 Z-0.3000 F120
G01 X75.8665 F180
G00 Z1.0000 F500
G00 X103.2848 Y35.8074 F3000
G00 Z0.5000 F500
G01 Z-0.3000 F120
G01 X105.5993 F180
G01 X104.1847
G01 Y36.7074
G01 X108.7721
G01 Y35.8074
G01 X108.1446
G00 Z1.0000 F500
G00 X64.4597 Y38.5074 F3000
G00 Z0.5000 F500
G01 Z-0.3000 F120
G01 X62.6586 F180
G01 X62.9671 Y39.4074
G01 X65.3597
G01 X66.2598 Y40.3074
G01 X62.9717
G01 X62.9718 Y41.2074
G01 X67.1598
G01 X68.0599 Y42.1074
G01 X62.9719
G01 X62.9721 Y43.0074
G01 X68.6581
G01 X65.8943
G01 Y43.9074
G01 X74.3493
G01 X73.4594 Y44.8074
G01 X71.3573
G01 X71.6721 Y45.7074
G01 X72.5595
G00 Z1.0000 F500
G00 X79.2942 Y47.5074 F3000
G00 Z0.5000 F500
G01 Z-0.3000 F120
G01 X80.4460 F180
G00 Z1.0000 F500
G00 X70.2596 Y62.8074 F3000
G00 Z0.5000 F500
G01 Z-0.3000 F120
G01 X65.9448 F180
G01 Y63.7074
G01 X71.1595
G01 X57.1848
G01 X58.0847 Y64.6074
G01 X68.9569
G01 X68.1936 Y65.5074
G01 X58.9847
G00 Z1.0000 F500
G00 X70.7874 Y63.7074 F3000
G00 Z0.5000 F500
G01 Z-0.3000 F120
G01 Y64.6074 F180
G01 X71.7721
G00 Z1.0000 F500
G00 X79.4583 F3000
G00 Z0.5000 F500
G01 Z-0.3000 F120
G01 X80.2810 F180
G00 Z1.0000 F500
G00 X72.7595 Y67.3074 F3000
G00 Z0.5000 F500
G01 Z-0.3000 F120
G01 X71.4721 F180
G00 Z1.0000 F500
G00 X73.9487 Y68.2074 F3000
G00 Z0.5000 F500
G01 Z-0.3000 F120
G01 X81.2935 F180
G00 Z1.0000 F500
G00 X86.2811 Y64.6074 F3000
G00 Z0.5000 F500
G01 Z-0.3000 F120
G01 X86.3264 Y64.5021 F180
G01 X86.2493 Y64.3386
G01 X86.1893 Y64.1681
G01 X86.1471 Y63.9923
G01 X86.1231 Y63.8131
G01 X86.1221 Y58.5324
G01 X86.1321 Y58.4350
G01 X86.1456 Y58.3381
G01 X86.1625 Y58.2417
G01 X86.1828 Y58.1459
G01 X86.2593 Y57.9435
G01 X86.3667 Y57.7557
G01 X86.5023 Y57.5871
G01 X86.6628 Y57.4421
G01 X86.8442 Y57.3241
G01 X87.0418 Y57.2361
G01 X87.2509 Y57.1804
G01 X87.4661 Y57.1584
G01 X89.2471 Y57.1574
G01 X89.3928 Y57.1652
G01 X89.5367 Y57.1889
G01 X89.6772 Y57.2281
G01 X89.8125 Y57.2824
G01 X89.9411 Y57.3512
G01 X90.0615 Y57.4336
G01 X90.1721 Y57.5286
G01 X90.2717 Y57.6352
G01 X90.3038 Y57.6462
G01 X90.4381 Y57.6574
G01 X100.8064
G01 X100.9177 Y57.6477
G01 X101.0683 Y57.6573
G01 X101.2171 Y57.6828
G01 X101.3623 Y57.7240
G01 X101.5023 Y57.7805
G01 X101.6355 Y57.8516
G01 X101.7603 Y57.9364
G01 X101.8754 Y58.0341
G01 X101.9795 Y58.1435
G01 X102.9933 Y59.1574
G01 X105.5131
G01 X105.7263 Y58.9884
G01 X105.9603 Y58.8495
G01 X106.2108 Y58.7434
G01 X106.4733 Y58.6719
G01 X106.7431 Y58.6363
G01 X107.0151 Y58.6373
G01 X107.2846 Y58.6749
G01 X107.5466 Y58.7484
G01 X107.7963 Y58.8563
G01 X108.0292 Y58.9969
G01 X108.2412 Y59.1675
G01 X108.4282 Y59.3651
G01 X108.5871 Y59.5860
G01 X108.7148 Y59.8262
G01 X108.8090 Y60.0814
G01 X108.8681 Y60.3470
G01 X108.8910 Y60.6181
G01 X108.8772 Y60.8898
G01 X108.8270 Y61.1572
G01 X108.7413 Y61.4155
G01 X108.6217 Y61.6598
G01 X108.4704 Y61.8859
G01 X108.2900 Y62.0896
G01 X108.0839 Y62.2672
G01 X107.8904 Y62.3952
G01 X107.6836 Y62.5004
G01 X107.4662 Y62.5814
G01 X107.2410 Y62.6371
G01 X107.0109 Y62.6668
G01 X106.7790 Y62.6702
G01 X106.5481 Y62.6471
G01 X106.3214 Y62.5979
G01 X106.1017 Y62.5232
G01 X105.8920 Y62.4239
G01 X105.6950 Y62.3015
G01 X105.5131 Y62.1574
G01 X102.4381
G01 X102.3279 Y62.1671
G01 X102.1771 Y62.1577
G01 X102.0281 Y62.1323
G01 X101.8827 Y62.0911
G01 X101.7425 Y62.0346
G01 X101.6092 Y61.9636
G01 X101.4842 Y61.8786
G01 X101.3689 Y61.7809
G01 X101.2648 Y61.6714
G01 X100.2510 Y60.6574
G01 X90.9933
G01 X90.6221 Y61.0287
G01 Y63.7824
G01 X90.6081 Y63.9628
G01 X90.5708 Y64.1398
G01 X90.5109 Y64.3105
G01 X90.4294 Y64.4720
G01 X90.3276 Y64.6215
G01 X90.2073 Y64.7566
G01 X90.0704 Y64.8750
G01 X89.9194 Y64.9746
G01 X89.7568 Y65.0538
G01 X89.5852 Y65.1113
G01 X89.4077 Y65.1460
G01 X89.2271 Y65.1574
G01 X87.4971
G01 X87.3230 Y65.1441
G01 X87.1518 Y65.1094
G01 X86.9862 Y65.0537
G01 X86.8288 Y64.9780
G01 X86.6820 Y64.8834
G01 X86.5480 Y64.7714
G01 X86.4288 Y64.6436
G01 X86.3264 Y64.5021
G01 X86.2811 Y64.6074
G00 Z1.0000 F500
G00 X87.4472 Y55.6074 F3000
G00 Z0.5000 F500
G01 Z-0.3000 F120
G01 Y55.1549 F180
G01 X87.2752 Y55.1373
G01 X87.1068 Y55.0984
G01 X86.9446 Y55.0387
G01 X86.7911 Y54.9591
G01 X86.6488 Y54.8609
G01 X86.5199 Y54.7457
G01 X86.4064 Y54.6153
G01 X86.3102 Y54.4717
G01 X86.2326 Y54.3172
G01 X86.1751 Y54.1542
G01 X86.1384 Y53.9853
G01 X86.1231 Y53.8131
G01 X86.1221 Y48.5324
G01 X86.1246 Y48.4825
G01 X86.1430 Y48.3109
G01 X86.1825 Y48.1428
G01 X86.2426 Y47.9810
G01 X86.3224 Y47.8279
G01 X86.4205 Y47.6859
G01 X86.5356 Y47.5572
G01 X86.6658 Y47.4439
G01 X86.8090 Y47.3476
G01 X86.9632 Y47.2698
G01 X87.1257 Y47.2118
G01 X87.2943 Y47.1745
G01 X87.4661 Y47.1584
G01 X89.2471 Y47.1574
G01 X89.4280 Y47.1702
G01 X89.6056 Y47.2065
G01 X89.7769 Y47.2658
G01 X89.9390 Y47.3470
G01 X90.0890 Y47.4487
G01 X90.2245 Y47.5692
G01 X90.3430 Y47.7064
G01 X90.4425 Y47.8579
G01 X90.5214 Y48.0212
G01 X90.5782 Y48.1933
G01 X90.6120 Y48.3714
G01 X90.6221 Y48.5524
G01 Y50.7861
G01 X93.9133 Y54.0774
G01 X105.5131
G01 X105.7263 Y53.9084
G01 X105.9603 Y53.7695
G01 X106.2108 Y53.6634
G01 X106.4733 Y53.5919
G01 X106.7431 Y53.5563
G01 X107.0151 Y53.5573
G01 X107.2846 Y53.5949
G01 X107.5466 Y53.6684
G01 X107.7963 Y53.7763
G01 X108.0292 Y53.9169
G01 X108.2412 Y54.0875
G01 X108.4282 Y54.2851
G01 X108.5871 Y54.5060
G01 X108.7148 Y54.7462
G01 X108.8090 Y55.0014
G01 X108.8681 Y55.2670
G01 X108.8910 Y55.5381
G01 X108.8772 Y55.8098
G01 X108.8270 Y56.0772
G01 X108.7413 Y56.3355
G01 X108.6217 Y56.5798
G01 X108.4704 Y56.8059
G01 X108.2900 Y57.0096
G01 X108.0839 Y57.1872
G01 X107.8904 Y57.3152
G01 X107.6836 Y57.4204
G01 X107.4662 Y57.5013
G01 X107.2410 Y57.5570
G01 X107.0109 Y57.5867
G01 X106.7790 Y57.5901
G01 X106.5481 Y57.5670
G01 X106.3214 Y57.5178
G01 X106.1018 Y57.4431
G01 X105.8921 Y57.3439
G01 X105.6950 Y57.2215
G01 X105.5131 Y57.0774
G01 X93.3581
G01 X93.2479 Y57.0871
G01 X93.0971 Y57.0777
G01 X92.9481 Y57.0522
G01 X92.8027 Y57.0111
G01 X92.6626 Y56.9546
G01 X92.5292 Y56.8835
G01 X92.4042 Y56.7986
G01 X92.2890 Y56.7009
G01 X92.1848 Y56.5914
G01 X90.2859 Y54.6925
G01 X90.4415 Y54.8481
G01 X90.2568 Y54.7117
G01 X90.1583 Y54.8083
G01 X90.0507 Y54.8946
G01 X89.9350 Y54.9697
G01 X89.8124 Y55.0330
G01 X89.6842 Y55.0837
G01 X89.5515 Y55.1215
G01 X89.4157 Y55.1458
G01 X89.2781 Y55.1565
G01 X87.4971 Y55.1574
G01 X87.4472 Y55.1549
G01 Y55.6074
G00 Z1.0000 F500
G00 X79.5615 Y54.7074 F3000
G00 Z0.5000 F500
G01 Z-0.3000 F120
G01 Y54.1689 F180
G01 X79.4810 Y54.3762
G01 X79.3684 Y54.5680
G01 X79.2265 Y54.7392
G01 X79.0591 Y54.8855
G01 X78.8703 Y55.0031
G01 X78.6652 Y55.0890
G01 X78.4489 Y55.1408
G01 X78.2271 Y55.1574
G01 X76.4971
G01 X76.3203 Y55.1459
G01 X76.1463 Y55.1118
G01 X75.9782 Y55.0555
G01 X75.8188 Y54.9781
G01 X75.6706 Y54.8808
G01 X75.5361 Y54.7653
G01 X75.4177 Y54.6334
G01 X75.3172 Y54.4874
G01 X75.2363 Y54.3296
G01 X75.1764 Y54.1628
G01 X75.1384 Y53.9896
G01 X75.1231 Y53.8131
G01 X75.1221 Y48.5324
G01 X75.1321 Y48.4350
G01 X75.1456 Y48.3381
G01 X75.1625 Y48.2417
G01 X75.1828 Y48.1459
G01 X75.2593 Y47.9435
G01 X75.3667 Y47.7557
G01 X75.5023 Y47.5871
G01 X75.6628 Y47.4421
G01 X75.8442 Y47.3241
G01 X76.0418 Y47.2361
G01 X76.2509 Y47.1804
G01 X76.4661 Y47.1584
G01 X78.2471 Y47.1574
G01 X78.4240 Y47.1689
G01 X78.5980 Y47.2031
G01 X78.7661 Y47.2593
G01 X78.9255 Y47.3367
G01 X79.0737 Y47.4340
G01 X79.2081 Y47.5496
G01 X79.3266 Y47.6815
G01 X79.4271 Y47.8275
G01 X79.5080 Y47.9852
G01 X79.5679 Y48.1520
G01 X79.6058 Y48.3252
G01 X79.6212 Y48.5018
G01 X79.6221 Y53.7824
G01 X79.6122 Y53.8798
G01 X79.5987 Y53.9767
G01 X79.5818 Y54.0732
G01 X79.5615 Y54.1689
G01 Y54.7074
G00 Z1.0000 F500
G00 X80.2786 F3000
G00 Z0.5000 F500
G01 Z-0.3000 F120
G01 Y54.4145 F180
G01 X80.2274 Y54.2676
G01 X80.1844 Y54.1180
G01 X80.1496 Y53.9664
G01 X80.1231 Y53.8131
G01 X80.1221 Y48.5324
G01 X80.1246 Y48.4825
G01 X80.1428 Y48.3021
G01 X80.1847 Y48.1256
G01 X80.2496 Y47.9563
G01 X80.3364 Y47.7971
G01 X80.4435 Y47.6508
G01 X80.5691 Y47.5200
G01 X80.7109 Y47.4069
G01 X80.8664 Y47.3137
G01 X80.8721 Y47.2916
G01 Y47.2787
G01 X80.2510 Y46.6574
G01 X75.9932
G01 X65.7245 Y56.9260
G01 X65.7152 Y56.9407
G01 X65.6611 Y57.0896
G01 X65.5428 Y57.2871
G01 X65.4028 Y57.4699
G01 X65.2429 Y57.6357
G01 X65.0653 Y57.7822
G01 X64.8723 Y57.9077
G01 X64.6662 Y58.0105
G01 X64.4498 Y58.0892
G01 X64.2259 Y58.1429
G01 X63.9973 Y58.1708
G01 X63.7671 Y58.1726
G01 X63.5381 Y58.1483
G01 X63.3134 Y58.0982
G01 X63.0958 Y58.0230
G01 X62.8881 Y57.9235
G01 X62.6930 Y57.8011
G01 X62.5131 Y57.6574
G01 X59.7311
G01 X59.5165 Y57.8262
G01 X59.2812 Y57.9646
G01 X59.0293 Y58.0701
G01 X58.7656 Y58.1407
G01 X58.4947 Y58.1751
G01 X58.2217 Y58.1728
G01 X57.9515 Y58.1338
G01 X57.6890 Y58.0587
G01 X57.4389 Y57.9490
G01 X57.2060 Y57.8066
G01 X56.9943 Y57.6341
G01 X56.8077 Y57.4348
G01 X56.6497 Y57.2121
G01 X56.5231 Y56.9702
G01 X56.4302 Y56.7134
G01 X56.3727 Y56.4465
G01 X56.3721 Y55.8929
G01 X56.3746 Y55.8430
G01 X56.4353 Y55.5784
G01 X56.5308 Y55.3242
G01 X56.6594 Y55.0851
G01 X56.8189 Y54.8654
G01 X57.0063 Y54.6689
G01 X57.2182 Y54.4993
G01 X57.4510 Y54.3596
G01 X57.7004 Y54.2522
G01 X57.9618 Y54.1791
G01 X58.2307 Y54.1417
G01 X58.5022 Y54.1405
G01 X58.7714 Y54.1757
G01 X59.0335 Y54.2465
G01 X59.2838 Y54.3518
G01 X59.5177 Y54.4896
G01 X59.7311 Y54.6574
G01 X62.5131
G01 X62.6911 Y54.5121
G01 X62.8851 Y54.3889
G01 X63.0924 Y54.2896
G01 X63.3099 Y54.2156
G01 X63.5347 Y54.1680
G01 X63.7636 Y54.1474
G01 X63.9933 Y54.1541
G01 X64.2206 Y54.1880
G01 X74.2648 Y44.1434
G01 X74.3355 Y44.0589
G01 X74.4488 Y43.9588
G01 X74.5722 Y43.8715
G01 X74.7041 Y43.7977
G01 X74.8432 Y43.7385
G01 X74.9878 Y43.6944
G01 X75.1363 Y43.6661
G01 X75.2869 Y43.6537
G01 X75.4381 Y43.6574
G01 X80.8064
G01 X80.9177 Y43.6477
G01 X81.0683 Y43.6573
G01 X81.2171 Y43.6828
G01 X81.3623 Y43.7240
G01 X81.5023 Y43.7805
G01 X81.6355 Y43.8516
G01 X81.7603 Y43.9364
G01 X81.8754 Y44.0341
G01 X81.9795 Y44.1435
G01 X83.3860 Y45.5501
G01 X83.4709 Y45.6212
G01 X83.5709 Y45.7345
G01 X83.6583 Y45.8578
G01 X83.7320 Y45.9898
G01 X83.7912 Y46.1289
G01 X83.8353 Y46.2735
G01 X83.8636 Y46.4220
G01 X83.8759 Y46.5726
G01 X83.8721 Y46.7238
G01 Y47.3194
G01 Y47.2601
G01 X83.8828 Y47.3273
G01 X84.0339 Y47.4168
G01 X84.1719 Y47.5253
G01 X84.2947 Y47.6509
G01 X84.4000 Y47.7915
G01 X84.4860 Y47.9446
G01 X84.5513 Y48.1076
G01 X84.5948 Y48.2777
G01 X84.6156 Y48.4521
G01 X84.6212 Y48.5018
G01 X84.6221 Y53.7824
G01 X84.6094 Y53.9633
G01 X84.5730 Y54.1409
G01 X84.5138 Y54.3122
G01 X84.4326 Y54.4743
G01 X84.3308 Y54.6243
G01 X84.2104 Y54.7598
G01 X84.0732 Y54.8783
G01 X83.9217 Y54.9778
G01 X83.7584 Y55.0567
G01 X83.5863 Y55.1135
G01 X83.4081 Y55.1473
G01 X83.2271 Y55.1574
G01 X81.4971
G01 X81.3101 Y55.1445
G01 X81.1266 Y55.1062
G01 X80.9500 Y55.0432
G01 X80.7837 Y54.9568
G01 X80.6307 Y54.8485
G01 X80.4938 Y54.7204
G01 X80.3757 Y54.5748
G01 X80.2786 Y54.4145
G01 Y54.7074
G00 Z1.0000 F500
G00 X78.3278 Y40.3074 F3000
G00 Z0.5000 F500
G01 Z-0.3000 F120
G01 Y40.1509 F180
G01 X78.3028 Y40.1543
G01 X78.2776 Y40.1565
G01 X78.2524 Y40.1575
G01 X78.2271 Y40.1574
G01 X76.4971
G01 X76.3203 Y40.1459
G01 X76.1463 Y40.1118
G01 X75.9782 Y40.0555
G01 X75.8188 Y39.9781
G01 X75.6706 Y39.8808
G01 X75.5361 Y39.7653
G01 X75.4177 Y39.6334
G01 X75.3172 Y39.4874
G01 X75.2363 Y39.3296
G01 X75.1764 Y39.1628
G01 X75.1384 Y38.9896
G01 X75.1231 Y38.8131
G01 X75.1221 Y33.5324
G01 X75.1246 Y33.4825
G01 X75.1437 Y33.3067
G01 X75.1850 Y33.1347
G01 X75.2479 Y32.9694
G01 X75.3313 Y32.8134
G01 X75.4339 Y32.6693
G01 X75.5540 Y32.5395
G01 X75.6896 Y32.4260
G01 X75.8386 Y32.3307
G01 X75.9985 Y32.2551
G01 X76.1668 Y32.2005
G01 X76.3406 Y32.1678
G01 X76.5171 Y32.1574
G01 X78.2471
G01 X78.4238 Y32.1696
G01 X78.5974 Y32.2043
G01 X78.7652 Y32.2609
G01 X78.9243 Y32.3385
G01 X79.0722 Y32.4358
G01 X79.2065 Y32.5513
G01 X79.3248 Y32.6830
G01 X79.4254 Y32.8287
G01 X79.5064 Y32.9861
G01 X79.5667 Y33.1526
G01 X79.6052 Y33.3254
G01 X79.6212 Y33.5018
G01 X79.6221 Y38.7824
G01 X79.6114 Y38.9551
G01 X79.5790 Y39.1250
G01 X79.5255 Y39.2895
G01 X79.4516 Y39.4459
G01 X79.3585 Y39.5918
G01 X79.2478 Y39.7247
G01 X79.1212 Y39.8426
G01 X78.9808 Y39.9436
G01 X78.8287 Y40.0261
G01 X78.6675 Y40.0888
G01 X78.4996 Y40.1306
G01 X78.3278 Y40.1509
G01 Y40.3074
G00 Z1.0000 F500
G00 X79.5157 Y29.5074 F3000
G00 Z0.5000 F500
G01 Z-0.3000 F120
G01 X78.2271 Y30.1574 F180
G01 X76.4971
G01 X76.3203 Y30.1459
G01 X76.1463 Y30.1118
G01 X75.9782 Y30.0555
G01 X75.8188 Y29.9781
G01 X75.6706 Y29.8808
G01 X75.5361 Y29.7653
G01 X75.4177 Y29.6334
G01 X75.3172 Y29.4874
G01 X75.2363 Y29.3296
G01 X75.1764 Y29.1628
G01 X75.1384 Y28.9896
G01 X75.1231 Y28.8131
G01 X75.1221 Y28.7624
G01 Y23.5324
G01 X75.1246 Y23.4825
G01 X75.1422 Y23.3105
G01 X75.1811 Y23.1421
G01 X75.2408 Y22.9799
G01 X75.3204 Y22.8265
G01 X75.4185 Y22.6842
G01 X75.5337 Y22.5553
G01 X75.6640 Y22.4418
G01 X75.8076 Y22.3455
G01 X75.9621 Y22.2680
G01 X76.1251 Y22.2104
G01 X76.2940 Y22.1737
G01 X76.4661 Y22.1584
G01 X78.2471 Y22.1574
G01 X78.4240 Y22.1689
G01 X78.5980 Y22.2031
G01 X78.7661 Y22.2593
G01 X78.9255 Y22.3367
G01 X79.0737 Y22.4340
G01 X79.2081 Y22.5496
G01 X79.3266 Y22.6815
G01 X79.4271 Y22.8275
G01 X79.5080 Y22.9852
G01 X79.5679 Y23.1520
G01 X79.6058 Y23.3252
G01 X79.6212 Y23.5018
G01 X79.6221 Y28.7824
G01 X79.6094 Y28.9633
G01 X79.5730 Y29.1409
G01 X79.5138 Y29.3122
G01 X79.4326 Y29.4743
G01 X79.3308 Y29.6243
G01 X79.2104 Y29.7598
G01 X79.0732 Y29.8783
G01 X78.9217 Y29.9778
G01 X78.7584 Y30.0567
G01 X78.5863 Y30.1135
G01 X78.4081 Y30.1473
G01 X78.2271 Y30.1574
G01 X79.5157 Y29.5074
G00 Z1.0000 F500
G00 X86.0221 Y28.6074 F3000
G00 Z0.5000 F500
G01 Z-0.3000 F120
G01 X86.1231 Y28.8131 F180
G01 X86.1221 Y23.5324
G01 X86.1246 Y23.4825
G01 X86.1437 Y23.3067
G01 X86.1850 Y23.1347
G01 X86.2479 Y22.9694
G01 X86.3313 Y22.8134
G01 X86.4339 Y22.6693
G01 X86.5540 Y22.5395
G01 X86.6896 Y22.4260
G01 X86.8386 Y22.3307
G01 X86.9985 Y22.2551
G01 X87.1668 Y22.2005
G01 X87.3406 Y22.1678
G01 X87.5171 Y22.1574
G01 X89.2471
G01 X89.4280 Y22.1702
G01 X89.6056 Y22.2065
G01 X89.7769 Y22.2658
G01 X89.9390 Y22.3470
G01 X90.0890 Y22.4487
G01 X90.2245 Y22.5692
G01 X90.3430 Y22.7064
G01 X90.4425 Y22.8579
G01 X90.5214 Y23.0212
G01 X90.5782 Y23.1933
G01 X90.6120 Y23.3714
G01 X90.6221 Y23.5524
G01 Y26.2862
G01 X90.9933 Y26.6574
G01 X99.7510
G01 X104.8048 Y21.6034
G01 X104.8755 Y21.5189
G01 X105.0039 Y21.4071
G01 X105.1450 Y21.3117
G01 X105.2965 Y21.2340
G01 X105.4563 Y21.1752
G01 X105.6453 Y21.0107
G01 X105.8532 Y20.8708
G01 X106.0769 Y20.7578
G01 X106.3128 Y20.6733
G01 X106.5574 Y20.6187
G01 X106.8069 Y20.5949
G01 X107.0574 Y20.6021
G01 X107.3050 Y20.6403
G01 X107.5461 Y20.7088
G01 X107.7767 Y20.8067
G01 X107.9935 Y20.9324
G01 X108.1931 Y21.0840
G01 X108.3723 Y21.2591
G01 X108.5285 Y21.4551
G01 X108.6591 Y21.6690
G01 X108.7623 Y21.8973
G01 X108.8364 Y22.1367
G01 X108.8803 Y22.3834
G01 X108.8933 Y22.6337
G01 X108.8752 Y22.8836
G01 X108.8263 Y23.1294
G01 X108.7473 Y23.3672
G01 X108.6395 Y23.5934
G01 X108.5045 Y23.8045
G01 X108.3443 Y23.9973
G01 X108.1616 Y24.1687
G01 X107.9590 Y24.3162
G01 X107.7397 Y24.4375
G01 X107.5070 Y24.5306
G01 X107.2647 Y24.5942
G01 X107.0163 Y24.6274
G01 X106.7657 Y24.6295
G01 X106.6075 Y24.6148
G01 X106.4508 Y24.5894
G01 X106.2961 Y24.5533
G01 X106.1443 Y24.5067
G01 X101.8721 Y28.7787
G01 Y29.5361
G01 X104.9533 Y32.6174
G01 X105.5131
G01 X105.7263 Y32.4484
G01 X105.9603 Y32.3095
G01 X106.2108 Y32.2034
G01 X106.4733 Y32.1319
G01 X106.7431 Y32.0963
G01 X107.0151 Y32.0973
G01 X107.2846 Y32.1349
G01 X107.5466 Y32.2084
G01 X107.7963 Y32.3163
G01 X108.0292 Y32.4569
G01 X108.2412 Y32.6275
G01 X108.4282 Y32.8251
G01 X108.5871 Y33.0460
G01 X108.7148 Y33.2862
G01 X108.8090 Y33.5414
G01 X108.8681 Y33.8070
G01 X108.8910 Y34.0781
G01 X108.8772 Y34.3498
G01 X108.8270 Y34.6172
G01 X108.7413 Y34.8755
G01 X108.6217 Y35.1198
G01 X108.4704 Y35.3459
G01 X108.2900 Y35.5496
G01 X108.0839 Y35.7272
G01 X107.8904 Y35.8552
G01 X107.6836 Y35.9604
G01 X107.4662 Y36.0414
G01 X107.2410 Y36.0971
G01 X107.0109 Y36.1268
G01 X106.7790 Y36.1302
G01 X106.5481 Y36.1071
G01 X106.3214 Y36.0579
G01 X106.1017 Y35.9832
G01 X105.8920 Y35.8839
G01 X105.6950 Y35.7615
G01 X105.5131 Y35.6174
G01 X104.3981
G01 X104.2879 Y35.6271
G01 X104.1371 Y35.6177
G01 X103.9881 Y35.5923
G01 X103.8427 Y35.5511
G01 X103.7025 Y35.4946
G01 X103.5692 Y35.4236
G01 X103.4442 Y35.3386
G01 X103.3289 Y35.2409
G01 X103.2248 Y35.1314
G01 X99.3583 Y31.2647
G01 X99.2734 Y31.1937
G01 X99.1854 Y31.0927
G01 X99.1068 Y30.9843
G01 X99.0382 Y30.8693
G01 X98.9800 Y30.7487
G01 X98.9329 Y30.6233
G01 X98.8970 Y30.4943
G01 X98.8728 Y30.3626
G01 X98.8604 Y30.2293
G01 X98.8721 Y30.0912
G01 Y29.6574
G01 X90.4381
G01 X90.3279 Y29.6671
G01 X90.2920 Y29.6757
G01 X90.1858 Y29.7819
G01 X90.0692 Y29.8767
G01 X89.9435 Y29.9590
G01 X89.8099 Y30.0279
G01 X89.6700 Y30.0827
G01 X89.5252 Y30.1228
G01 X89.3771 Y30.1478
G01 X89.2271 Y30.1574
G01 X87.4971
G01 X87.3205 Y30.1452
G01 X87.1469 Y30.1105
G01 X86.9791 Y30.0539
G01 X86.8200 Y29.9763
G01 X86.6721 Y29.8790
G01 X86.5378 Y29.7635
G01 X86.4195 Y29.6319
G01 X86.3189 Y29.4861
G01 X86.2378 Y29.3287
G01 X86.1776 Y29.1622
G01 X86.1391 Y28.9894
G01 X86.1231 Y28.8131
G01 X86.0221 Y28.6074
G00 Z1.0000 F500
G00 X86.8665 Y32.2074 F3000
G00 Z0.5000 F500
G01 Z-0.3000 F120
G01 X87.0075 Y32.2713 F180
G01 X87.1302 Y32.2246
G01 X87.2568 Y32.1899
G01 X87.3862 Y32.1674
G01 X87.5171 Y32.1574
G01 X89.2471
G01 X89.3928 Y32.1652
G01 X89.5367 Y32.1889
G01 X89.6772 Y32.2281
G01 X89.8125 Y32.2824
G01 X89.9411 Y32.3512
G01 X90.0615 Y32.4336
G01 X90.1721 Y32.5286
G01 X90.2717 Y32.6352
G01 X90.3038 Y32.6462
G01 X90.4381 Y32.6574
G01 X99.3064
G01 X99.4177 Y32.6477
G01 X99.5683 Y32.6573
G01 X99.7171 Y32.6828
G01 X99.8623 Y32.7240
G01 X100.0023 Y32.7805
G01 X100.1355 Y32.8516
G01 X100.2603 Y32.9364
G01 X100.3754 Y33.0341
G01 X100.4795 Y33.1434
G01 X105.0333 Y37.6974
G01 X105.5131
G01 X105.7060 Y37.5433
G01 X105.9163 Y37.4139
G01 X106.1407 Y37.3109
G01 X106.3759 Y37.2360
G01 X106.6185 Y37.1903
G01 X106.8649 Y37.1744
G01 X107.1114 Y37.1887
G01 X107.3543 Y37.2327
G01 X107.5900 Y37.3060
G01 X107.8151 Y37.4075
G01 X108.0262 Y37.5355
G01 X108.2201 Y37.6883
G01 X108.8594 Y37.0490
G01 X108.8721 Y37.0267
G01 Y30.2881
G01 X108.8594 Y30.2658
G01 X107.9699 Y29.3762
G01 X108.0212 Y29.4275
G01 X107.9626 Y29.3772
G01 X107.6432 Y29.5617
G01 X107.4241 Y29.6374
G01 X107.1978 Y29.6875
G01 X106.9673 Y29.7113
G01 X106.7355 Y29.7086
G01 X106.5056 Y29.6792
G01 X106.2805 Y29.6238
G01 X106.0633 Y29.5428
G01 X105.8568 Y29.4376
G01 X105.6638 Y29.3093
G01 X105.4867 Y29.1597
G01 X105.3279 Y28.9909
G01 X105.1895 Y28.8049
G01 X105.0734 Y28.6043
G01 X104.9810 Y28.3917
G01 X104.9137 Y28.1700
G01 X104.8721 Y27.9419
G01 Y27.4329
G01 X104.9264 Y27.1639
G01 X105.0167 Y26.9046
G01 X105.1412 Y26.6600
G01 X105.2977 Y26.4345
G01 X105.4833 Y26.2324
G01 X105.6946 Y26.0572
G01 X105.9277 Y25.9122
G01 X106.1783 Y25.8002
G01 X106.4418 Y25.7232
G01 X106.7132 Y25.6825
G01 X106.9877 Y25.6790
G01 X107.2601 Y25.7128
G01 X107.5254 Y25.7831
G01 X107.7787 Y25.8887
G01 X108.0154 Y26.0277
G01 X108.2311 Y26.1974
G01 X108.3464
G01 X108.4577 Y26.1877
G01 X108.6083 Y26.1972
G01 X108.7571 Y26.2228
G01 X108.9023 Y26.2640
G01 X109.0423 Y26.3205
G01 X109.1755 Y26.3915
G01 X109.3004 Y26.4764
G01 X109.4154 Y26.5741
G01 X109.5195 Y26.6834
G01 X110.9947 Y28.1587
G01 X111.1188 Y28.3114
G01 X111.2214 Y28.4794
G01 X111.3006 Y28.6597
G01 X111.3550 Y28.8488
G01 X111.3837 Y29.0436
G01 X111.3860 Y29.2404
G01 X111.3620 Y29.4358
G01 X111.3121 Y29.6262
G01 X111.2372 Y29.8083
G01 X111.1387 Y29.9787
G01 X111.0182 Y30.1344
G01 X110.8781 Y30.2726
G01 X110.8721 Y30.3456
G01 Y30.2876
G01 Y37.0272
G01 Y36.9693
G01 X110.8781 Y37.0423
G01 X111.0191 Y37.1818
G01 X111.1401 Y37.3391
G01 X111.2388 Y37.5112
G01 X111.3135 Y37.6950
G01 X111.3627 Y37.8872
G01 X111.3856 Y38.0843
G01 X111.3817 Y38.2827
G01 X111.3512 Y38.4787
G01 X111.2946 Y38.6689
G01 X111.2129 Y38.8497
G01 X111.1075 Y39.0179
G01 X110.9806 Y39.1703
G01 X109.9395 Y40.2114
G01 X109.8688 Y40.2960
G01 X109.7555 Y40.3960
G01 X109.6322 Y40.4834
G01 X109.5002 Y40.5571
G01 X109.3612 Y40.6163
G01 X109.2166 Y40.6604
G01 X109.0681 Y40.6888
G01 X108.9175 Y40.7012
G01 X108.7664 Y40.6974
G01 X108.2311
G01 X108.0369 Y40.8514
G01 X107.8254 Y40.9805
G01 X107.5997 Y41.0831
G01 X107.3633 Y41.1574
G01 X107.1195 Y41.2025
G01 X106.8721 Y41.2175
G01 X106.6247 Y41.2025
G01 X106.3810 Y41.1574
G01 X106.1446 Y41.0831
G01 X105.9189 Y40.9805
G01 X105.7074 Y40.8514
G01 X105.5131 Y40.6974
G01 X104.4781
G01 X104.3679 Y40.7071
G01 X104.2171 Y40.6977
G01 X104.0681 Y40.6723
G01 X103.9227 Y40.6311
G01 X103.7825 Y40.5746
G01 X103.6492 Y40.5036
G01 X103.5242 Y40.4186
G01 X103.4089 Y40.3209
G01 X103.3048 Y40.2114
G01 X98.7510 Y35.6574
G01 X90.9933
G01 X90.6221 Y36.0287
G01 Y38.7824
G01 X90.6094 Y38.9633
G01 X90.5730 Y39.1409
G01 X90.5138 Y39.3122
G01 X90.4326 Y39.4743
G01 X90.3308 Y39.6243
G01 X90.2104 Y39.7598
G01 X90.0732 Y39.8783
G01 X89.9217 Y39.9778
G01 X89.7584 Y40.0567
G01 X89.5863 Y40.1135
G01 X89.4081 Y40.1473
G01 X89.2271 Y40.1574
G01 X87.4971
G01 X87.3205 Y40.1452
G01 X87.1469 Y40.1105
G01 X86.9791 Y40.0539
G01 X86.8200 Y39.9763
G01 X86.6721 Y39.8790
G01 X86.5378 Y39.7635
G01 X86.4195 Y39.6319
G01 X86.3189 Y39.4861
G01 X86.2378 Y39.3287
G01 X86.1776 Y39.1622
G01 X86.1391 Y38.9894
G01 X86.1231 Y38.8131
G01 X86.1221 Y33.5324
G01 X86.1246 Y33.4825
G01 X86.1429 Y33.2838
G01 X86.1914 Y33.0903
G01 X86.2689 Y32.9065
G01 X86.3737 Y32.7367
G01 X86.5032 Y32.5850
G01 X86.6545 Y32.4549
G01 X86.8239 Y32.3495
G01 X87.0075 Y32.2713
G01 X86.8665 Y32.2074
G00 Z1.0000 F500
G00 X91.3923 Y36.7074 F3000
G00 Z0.5000 F500
G01 Z-0.3000 F120
G01 X91.7025 Y36.3889 F180
G01 X91.8026 Y36.2850
G01 X91.9129 Y36.1921
G01 X92.0321 Y36.1110
G01 X92.1591 Y36.0426
G01 X92.2924 Y35.9876
G01 X92.4307 Y35.9466
G01 X92.5724 Y35.9201
G01 X92.7161 Y35.9084
G01 X97.9971 Y35.9074
G01 X98.1738 Y35.9196
G01 X98.3474 Y35.9543
G01 X98.5152 Y36.0109
G01 X98.6743 Y36.0885
G01 X98.8222 Y36.1858
G01 X98.9565 Y36.3013
G01 X99.0748 Y36.4330
G01 X99.1754 Y36.5787
G01 X99.2564 Y36.7361
G01 X99.3167 Y36.9026
G01 X99.3552 Y37.0754
G01 X99.3712 Y37.2518
G01 X99.3721 Y39.0324
G01 X99.3607 Y39.2093
G01 X99.3265 Y39.3832
G01 X99.2703 Y39.5513
G01 X99.1929 Y39.7107
G01 X99.0956 Y39.8589
G01 X98.9801 Y39.9933
G01 X98.8483 Y40.1118
G01 X98.7023 Y40.2123
G01 X98.5446 Y40.2932
G01 X98.3778 Y40.3531
G01 X98.2047 Y40.3911
G01 X98.0281 Y40.4065
G01 X96.8721 Y40.4074
G01 X96.8559 Y40.4163
G01 X96.8326 Y40.5379
G01 X96.7983 Y40.6570
G01 X96.7535 Y40.7724
G01 X96.6984 Y40.8834
G01 X96.6336 Y40.9889
G01 X96.5595 Y41.0882
G01 X96.4767 Y41.1804
G01 X96.3860 Y41.2647
G01 X94.4795 Y43.1714
G01 X94.4088 Y43.2560
G01 X94.2955 Y43.3560
G01 X94.1722 Y43.4434
G01 X94.0402 Y43.5171
G01 X93.9012 Y43.5763
G01 X93.7566 Y43.6204
G01 X93.6081 Y43.6488
G01 X93.4575 Y43.6612
G01 X93.3064 Y43.6574
G01 X70.4381
G01 X70.3279 Y43.6671
G01 X70.1970 Y43.6579
G01 X70.0674 Y43.6375
G01 X69.9400 Y43.6061
G01 X69.8158 Y43.5639
G01 X69.6956 Y43.5113
G01 X69.5804 Y43.4485
G01 X69.4709 Y43.3762
G01 X69.3681 Y43.2948
G01 X69.1715 Y43.2201
G01 X68.9855 Y43.1219
G01 X68.8131 Y43.0015
G01 X68.6568 Y42.8608
G01 X68.5189 Y42.7020
G01 X68.4017 Y42.5274
G01 X68.3068 Y42.3398
G01 X68.2357 Y42.1418
G01 X63.7510 Y37.6574
G01 X61.2851
G01 X61.1121 Y37.6405
G01 X60.9423 Y37.6035
G01 X60.7779 Y37.5468
G01 X60.6214 Y37.4712
G01 X60.4748 Y37.3778
G01 X60.3401 Y37.2678
G01 X60.2193 Y37.1428
G01 X60.1139 Y37.0046
G01 X60.0255 Y36.8549
G01 X59.9552 Y36.6959
G01 X59.9041 Y36.5297
G01 X59.8728 Y36.3587
G01 X59.8721 Y35.9811
G01 X59.8746 Y35.9312
G01 X59.9089 Y35.7612
G01 X59.9628 Y35.5963
G01 X60.0357 Y35.4388
G01 X60.1264 Y35.2910
G01 X60.2338 Y35.1548
G01 X60.3563 Y35.0320
G01 X60.4924 Y34.9245
G01 X60.6401 Y34.8335
G01 X60.7975 Y34.7605
G01 X60.9623 Y34.7063
G01 X61.1323 Y34.6718
G01 X61.3051 Y34.6574
G01 X64.3064
G01 X64.4177 Y34.6477
G01 X64.5683 Y34.6572
G01 X64.7171 Y34.6828
G01 X64.8623 Y34.7240
G01 X65.0023 Y34.7805
G01 X65.1355 Y34.8515
G01 X65.2603 Y34.9364
G01 X65.3754 Y35.0341
G01 X65.4795 Y35.1434
G01 X70.3505 Y40.0141
G01 X70.4838 Y40.0572
G01 X70.6128 Y40.1117
G01 X70.7366 Y40.1772
G01 X70.8542 Y40.2532
G01 X70.9647 Y40.3392
G01 X71.0674 Y40.4345
G01 X71.1613 Y40.5384
G01 X71.2458 Y40.6501
G01 X71.3166 Y40.6574
G01 X71.2671
G01 X92.7510
G01 X93.0010 Y40.4074
G01 X92.7471
G01 X92.5705 Y40.3952
G01 X92.3969 Y40.3605
G01 X92.2291 Y40.3039
G01 X92.0700 Y40.2263
G01 X91.9221 Y40.1290
G01 X91.7878 Y40.0135
G01 X91.6695 Y39.8819
G01 X91.5689 Y39.7361
G01 X91.4878 Y39.5787
G01 X91.4276 Y39.4122
G01 X91.3891 Y39.2394
G01 X91.3731 Y39.0631
G01 X91.3721 Y39.0124
G01 Y37.2824
G01 X91.3746 Y37.2325
G01 X91.4015 Y37.0037
G01 X91.4665 Y36.7827
G01 X91.5678 Y36.5758
G01 X91.7025 Y36.3889
G01 X91.3923 Y36.7074
G00 Z1.0000 F500
G00 X92.0073 Y61.0074 F3000
G00 Z0.5000 F500
G01 Z-0.3000 F120
G01 X92.7161 Y60.9084 F180
G01 X97.9971 Y60.9074
G01 X98.1738 Y60.9196
G01 X98.3474 Y60.9543
G01 X98.5152 Y61.0109
G01 X98.6743 Y61.0885
G01 X98.8222 Y61.1858
G01 X98.9565 Y61.3013
G01 X99.0748 Y61.4330
G01 X99.1754 Y61.5787
G01 X99.2564 Y61.7361
G01 X99.3167 Y61.9026
G01 X99.3552 Y62.0754
G01 X99.3712 Y62.2518
G01 X99.3721 Y64.0324
G01 X99.3594 Y64.2133
G01 X99.3230 Y64.3909
G01 X99.2638 Y64.5622
G01 X99.1826 Y64.7243
G01 X99.0808 Y64.8743
G01 X98.9604 Y65.0098
G01 X98.8232 Y65.1283
G01 X98.6717 Y65.2278
G01 X98.5084 Y65.3067
G01 X98.3363 Y65.3635
G01 X98.1581 Y65.3973
G01 X97.9771 Y65.4074
G01 X96.8721
G01 Y66.0911
G01 X96.8821 Y66.2007
G01 X96.8727 Y66.3517
G01 X96.8473 Y66.5008
G01 X96.8060 Y66.6463
G01 X96.7495 Y66.7866
G01 X96.6784 Y66.9200
G01 X96.5934 Y67.0451
G01 X96.4956 Y67.1605
G01 X96.3860 Y67.2647
G01 X92.9795 Y70.6714
G01 X92.9088 Y70.7560
G01 X92.7955 Y70.8560
G01 X92.6721 Y70.9434
G01 X92.5402 Y71.0171
G01 X92.4011 Y71.0763
G01 X92.2566 Y71.1204
G01 X92.1081 Y71.1487
G01 X91.9575 Y71.1611
G01 X91.8064 Y71.1574
G01 X71.4381
G01 X71.3279 Y71.1671
G01 X71.1771 Y71.1577
G01 X71.0281 Y71.1323
G01 X70.8827 Y71.0911
G01 X70.7425 Y71.0346
G01 X70.6092 Y70.9636
G01 X70.4842 Y70.8786
G01 X70.3689 Y70.7809
G01 X70.2648 Y70.6714
G01 X69.8699 Y70.2887
G01 X69.4781 Y69.9030
G01 X69.0893 Y69.5141
G01 X68.7036 Y69.1223
G01 X68.6070 Y69.1512
G01 X68.5074 Y69.1669
G01 X68.4065 Y69.1689
G01 X68.3064 Y69.1574
G01 X58.9381
G01 X58.8279 Y69.1671
G01 X58.6771 Y69.1577
G01 X58.5281 Y69.1323
G01 X58.3827 Y69.0911
G01 X58.2425 Y69.0346
G01 X58.1092 Y68.9636
G01 X57.9842 Y68.8786
G01 X57.8689 Y68.7809
G01 X57.7648 Y68.6714
G01 X52.8583 Y63.7647
G01 X52.7734 Y63.6937
G01 X52.6854 Y63.5927
G01 X52.6068 Y63.4843
G01 X52.5382 Y63.3693
G01 X52.4800 Y63.2487
G01 X52.4329 Y63.1233
G01 X52.3970 Y62.9943
G01 X52.3728 Y62.8626
G01 X52.3604 Y62.7293
G01 X52.3721 Y62.5912
G01 Y54.2237
G01 X52.3622 Y54.1141
G01 X52.3602 Y54.0642
G01 X52.3756 Y53.9200
G01 X52.4053 Y53.7781
G01 X52.4491 Y53.6399
G01 X52.5065 Y53.5067
G01 X52.5768 Y53.3799
G01 X52.6595 Y53.2608
G01 X52.7536 Y53.1505
G01 X52.8583 Y53.0501
G01 X58.2648 Y47.6434
G01 X58.3355 Y47.5589
G01 X58.4488 Y47.4588
G01 X58.5722 Y47.3715
G01 X58.7041 Y47.2977
G01 X58.8432 Y47.2385
G01 X58.9878 Y47.1944
G01 X59.1363 Y47.1661
G01 X59.2869 Y47.1537
G01 X59.4381 Y47.1574
G01 X61.4591
G01 X61.6866 Y47.1861
G01 X61.9070 Y47.2491
G01 X62.1153 Y47.3449
G01 X62.3065 Y47.4713
G01 X62.4763 Y47.6254
G01 X62.6206 Y47.8035
G01 X62.7362 Y48.0014
G01 X62.8202 Y48.2147
G01 X62.8708 Y48.4383
G01 X62.8868 Y48.6670
G01 X62.8678 Y48.8955
G01 X62.8142 Y49.1183
G01 X62.7273 Y49.3305
G01 X62.6091 Y49.5269
G01 X62.4624 Y49.7031
G01 X62.2906 Y49.8548
G01 X62.0977 Y49.9787
G01 X61.8882 Y50.0717
G01 X61.6669 Y50.1318
G01 X61.4391 Y50.1574
G01 X59.9933
G01 X55.3721 Y54.7787
G01 Y62.0361
G01 X59.4933 Y66.1574
G01 X67.7511
G01 X68.2358 Y65.6729
G01 X68.3191 Y65.4481
G01 X68.4329 Y65.2371
G01 X68.5752 Y65.0440
G01 X68.7430 Y64.8727
G01 X68.9330 Y64.7266
G01 X69.1417 Y64.6084
G01 X69.3648 Y64.5205
G01 X69.5979 Y64.4646
G01 X69.8366 Y64.4418
G01 X70.0762 Y64.4526
G01 X70.3119 Y64.4968
G01 X70.5391 Y64.5734
G01 X70.7533 Y64.6810
G01 X70.9505 Y64.8175
G01 X71.1266 Y64.9802
G01 X71.2783 Y65.1659
G01 X71.4026 Y65.3709
G01 X71.4970 Y65.5913
G01 X71.5598 Y65.8228
G01 X71.5895 Y66.0607
G01 X71.5858 Y66.3004
G01 X71.5486 Y66.5373
G01 X71.4787 Y66.7667
G01 X71.3774 Y66.9840
G01 X71.3721 Y67.0140
G01 Y67.5361
G01 X71.9933 Y68.1574
G01 X91.2510
G01 X93.8721 Y65.5361
G01 Y65.4074
G01 X92.7471
G01 X92.5705 Y65.3952
G01 X92.3969 Y65.3605
G01 X92.2291 Y65.3039
G01 X92.0700 Y65.2263
G01 X91.9221 Y65.1290
G01 X91.7878 Y65.0135
G01 X91.6695 Y64.8819
G01 X91.5689 Y64.7361
G01 X91.4878 Y64.5787
G01 X91.4276 Y64.4122
G01 X91.3891 Y64.2394
G01 X91.3731 Y64.0631
G01 X91.3721 Y62.2824
G01 X91.3821 Y62.1850
G01 X91.3956 Y62.0881
G01 X91.4125 Y61.9917
G01 X91.4328 Y61.8959
G01 X91.5093 Y61.6935
G01 X91.6167 Y61.5057
G01 X91.7523 Y61.3371
G01 X91.9128 Y61.1921
G01 X92.0942 Y61.0741
G01 X92.2918 Y60.9861
G01 X92.5009 Y60.9304
G01 X92.7161 Y60.9084
G01 X92.0073 Y61.0074
G00 Z1.0000 F500
G00 X84.7221 F3000
G00 Z0.5000 F500
G01 Z-0.3000 F120
G01 X84.6221 F180
G01 Y63.7824
G01 X84.6093 Y63.9696
G01 X84.5710 Y64.1533
G01 X84.5079 Y64.3300
G01 X84.4213 Y64.4964
G01 X84.3128 Y64.6495
G01 X84.1844 Y64.7863
G01 X84.0385 Y64.9042
G01 X83.8779 Y65.0012
G01 X83.8721 Y65.0738
G01 Y65.0912
G01 X83.8821 Y65.2007
G01 X83.8731 Y65.3517
G01 X83.8479 Y65.5009
G01 X83.8068 Y65.6466
G01 X83.7504 Y65.7869
G01 X83.6791 Y65.9204
G01 X83.5940 Y66.0455
G01 X83.4959 Y66.1607
G01 X83.3860 Y66.2647
G01 X81.9795 Y67.6714
G01 X81.9088 Y67.7560
G01 X81.7955 Y67.8560
G01 X81.6721 Y67.9434
G01 X81.5402 Y68.0171
G01 X81.4011 Y68.0763
G01 X81.2566 Y68.1204
G01 X81.1081 Y68.1487
G01 X80.9575 Y68.1611
G01 X80.8064 Y68.1574
G01 X74.4381
G01 X74.3279 Y68.1671
G01 X74.1771 Y68.1577
G01 X74.0281 Y68.1323
G01 X73.8827 Y68.0911
G01 X73.7425 Y68.0346
G01 X73.6092 Y67.9636
G01 X73.4842 Y67.8786
G01 X73.3689 Y67.7809
G01 X73.2648 Y67.6714
G01 X72.3583 Y66.7647
G01 X72.2734 Y66.6937
G01 X72.1854 Y66.5927
G01 X72.1068 Y66.4843
G01 X72.0382 Y66.3693
G01 X71.9800 Y66.2487
G01 X71.9329 Y66.1233
G01 X71.8970 Y65.9943
G01 X71.8728 Y65.8626
G01 X71.8604 Y65.7293
G01 X71.8721 Y65.5912
G01 Y64.2787
G01 X70.2510 Y62.6574
G01 X69.3828
G01 X65.2409 Y62.7176
G01 X65.0473 Y62.8742
G01 X64.8361 Y63.0060
G01 X64.6104 Y63.1110
G01 X64.3736 Y63.1877
G01 X64.1292 Y63.2349
G01 X63.8808 Y63.2519
G01 X63.6322 Y63.2385
G01 X63.3871 Y63.1948
G01 X63.1492 Y63.1216
G01 X62.9220 Y63.0198
G01 X62.7089 Y62.8912
G01 X62.5131 Y62.7374
G01 X59.7311
G01 X59.5148 Y62.9086
G01 X59.2770 Y63.0487
G01 X59.0224 Y63.1550
G01 X58.7557 Y63.2255
G01 X58.4818 Y63.2590
G01 X58.2059 Y63.2548
G01 X57.9331 Y63.2129
G01 X57.6687 Y63.1342
G01 X57.4174 Y63.0202
G01 X57.1841 Y62.8729
G01 X56.9731 Y62.6951
G01 X56.7883 Y62.4902
G01 X56.6332 Y62.2620
G01 X56.5108 Y62.0147
G01 X56.4232 Y61.7531
G01 X56.3721 Y61.4819
G01 Y60.9729
G01 X56.4259 Y60.7035
G01 X56.5157 Y60.4438
G01 X56.6399 Y60.1988
G01 X56.7963 Y59.9729
G01 X56.9819 Y59.7703
G01 X57.1933 Y59.5948
G01 X57.4265 Y59.4496
G01 X57.6773 Y59.3375
G01 X57.9410 Y59.2604
G01 X58.2127 Y59.2198
G01 X58.4875 Y59.2165
G01 X58.7601 Y59.2506
G01 X59.0256 Y59.3213
G01 X59.2790 Y59.4275
G01 X59.5156 Y59.5670
G01 X59.7311 Y59.7374
G01 X62.5131
G01 X62.7049 Y59.5841
G01 X62.9139 Y59.4551
G01 X63.1369 Y59.3524
G01 X63.3707 Y59.2773
G01 X63.6118 Y59.2312
G01 X63.8568 Y59.2145
G01 X64.1020 Y59.2276
G01 X64.3438 Y59.2703
G01 X64.5786 Y59.3419
G01 X64.8031 Y59.4414
G01 X65.0139 Y59.5673
G01 X65.2079 Y59.7178
G01 X69.4376 Y59.6563
G01 X70.8066 Y59.6574
G01 X70.9177 Y59.6477
G01 X71.0684 Y59.6570
G01 X71.2173 Y59.6823
G01 X71.3626 Y59.7234
G01 X71.5026 Y59.7799
G01 X71.6358 Y59.8510
G01 X71.7606 Y59.9360
G01 X71.8756 Y60.0338
G01 X71.9795 Y60.1435
G01 X74.3860 Y62.5501
G01 X74.4709 Y62.6212
G01 X74.5709 Y62.7345
G01 X74.6583 Y62.8578
G01 X74.7320 Y62.9898
G01 X74.7912 Y63.1289
G01 X74.8353 Y63.2735
G01 X74.8636 Y63.4219
G01 X74.8759 Y63.5726
G01 X74.8721 Y63.7237
G01 Y65.0362
G01 X74.9933 Y65.1574
G01 X80.2510
G01 X80.5802 Y64.8282
G01 X80.5683 Y64.7924
G01 X80.4734 Y64.6926
G01 X80.3884 Y64.5842
G01 X80.3142 Y64.4682
G01 X80.2513 Y64.3457
G01 X80.2003 Y64.2177
G01 X80.1617 Y64.0855
G01 X80.1359 Y63.9502
G01 X80.1231 Y63.8131
G01 X80.1221 Y58.5324
G01 X80.1246 Y58.4825
G01 X80.1442 Y58.3068
G01 X80.1858 Y58.1351
G01 X80.2489 Y57.9700
G01 X80.3325 Y57.8143
G01 X80.4351 Y57.6704
G01 X80.5551 Y57.5406
G01 X80.6906 Y57.4272
G01 X80.8394 Y57.3318
G01 X80.9991 Y57.2561
G01 X81.1671 Y57.2013
G01 X81.3407 Y57.1682
G01 X81.5171 Y57.1574
G01 X83.2471
G01 X83.4280 Y57.1702
G01 X83.6056 Y57.2065
G01 X83.7769 Y57.2658
G01 X83.9390 Y57.3470
G01 X84.0890 Y57.4487
G01 X84.2245 Y57.5692
G01 X84.3430 Y57.7064
G01 X84.4425 Y57.8579
G01 X84.5214 Y58.0212
G01 X84.5782 Y58.1933
G01 X84.6120 Y58.3714
G01 X84.6221 Y58.5524
G01 Y61.0074
G01 X84.7221
G00 Z1.0000 F500
G00 X79.6216 Y64.6074 F3000
G00 Z0.5000 F500
G01 Z-0.3000 F120
G01 Y61.0083 F180
G01 X79.6221 Y63.7824
G01 X79.6094 Y63.9633
G01 X79.5730 Y64.1409
G01 X79.5138 Y64.3122
G01 X79.4326 Y64.4743
G01 X79.3308 Y64.6243
G01 X79.2104 Y64.7598
G01 X79.0732 Y64.8783
G01 X78.9217 Y64.9778
G01 X78.7584 Y65.0567
G01 X78.5863 Y65.1135
G01 X78.4081 Y65.1473
G01 X78.2271 Y65.1574
G01 X76.4971
G01 X76.3203 Y65.1459
G01 X76.1463 Y65.1118
G01 X75.9782 Y65.0555
G01 X75.8188 Y64.9781
G01 X75.6706 Y64.8808
G01 X75.5361 Y64.7653
G01 X75.4177 Y64.6334
G01 X75.3172 Y64.4874
G01 X75.2363 Y64.3296
G01 X75.1764 Y64.1628
G01 X75.1384 Y63.9896
G01 X75.1231 Y63.8131
G01 X75.1221 Y58.5324
G01 X75.1321 Y58.4350
G01 X75.1456 Y58.3381
G01 X75.1625 Y58.2417
G01 X75.1828 Y58.1459
G01 X75.2593 Y57.9435
G01 X75.3667 Y57.7557
G01 X75.5023 Y57.5871
G01 X75.6628 Y57.4421
G01 X75.8442 Y57.3241
G01 X76.0418 Y57.2361
G01 X76.2509 Y57.1804
G01 X76.4661 Y57.1584
G01 X78.2471 Y57.1574
G01 X78.4240 Y57.1689
G01 X78.5980 Y57.2031
G01 X78.7661 Y57.2593
G01 X78.9255 Y57.3367
G01 X79.0737 Y57.4340
G01 X79.2081 Y57.5496
G01 X79.3266 Y57.6815
G01 X79.4271 Y57.8275
G01 X79.5080 Y57.9852
G01 X79.5679 Y58.1520
G01 X79.6058 Y58.3252
G01 X79.6212 Y58.5018
G01 X79.6216 Y61.0083
G01 Y64.6074
G00 Z1.0000 F500
G00 X69.8595 Y48.4074 F3000
G00 Z0.5000 F500
G01 Z-0.3000 F120
G01 X70.5394 Y47.4153 F180
G01 X70.3804 Y47.4684
G01 X70.2174 Y47.5071
G01 X70.0515 Y47.5310
G01 X69.8841 Y47.5400
G01 X69.7166 Y47.5340
G01 X69.5503 Y47.5131
G01 X69.3866 Y47.4774
G01 X69.2267 Y47.4272
G01 X69.0753 Y47.3404
G01 X69.0641 Y47.3374
G01 X65.6179
G01 X65.5066 Y47.3471
G01 X65.3559 Y47.3376
G01 X65.2071 Y47.3121
G01 X65.0619 Y47.2708
G01 X64.9219 Y47.2144
G01 X64.7887 Y47.1433
G01 X64.6639 Y47.0584
G01 X64.5488 Y46.9607
G01 X64.4448 Y46.8513
G01 X64.2510 Y46.6574
G01 X61.1961
G01 X61.0378 Y46.6327
G01 X60.8831 Y46.5908
G01 X60.7339 Y46.5321
G01 X60.5921 Y46.4574
G01 X60.4962 Y46.4519
G01 X60.4030 Y46.4281
G01 X60.3162 Y46.3870
G01 X60.2387 Y46.3301
G01 X60.1736 Y46.2594
G01 X60.1232 Y46.1775
G01 X60.0894 Y46.0876
G01 X60.0734 Y45.9928
G01 X60.0721 Y45.9374
G01 X59.9997 Y45.8007
G01 X59.9419 Y45.6573
G01 X59.8994 Y45.5085
G01 X59.8726 Y45.3562
G01 X59.8721 Y41.1574
G01 X59.4381
G01 X59.3279 Y41.1671
G01 X59.1771 Y41.1577
G01 X59.0281 Y41.1323
G01 X58.8827 Y41.0911
G01 X58.7425 Y41.0346
G01 X58.6092 Y40.9636
G01 X58.4842 Y40.8786
G01 X58.3689 Y40.7809
G01 X58.2648 Y40.6714
G01 X56.3583 Y38.7647
G01 X56.2734 Y38.6937
G01 X56.1854 Y38.5927
G01 X56.1068 Y38.4843
G01 X56.0382 Y38.3693
G01 X55.9800 Y38.2487
G01 X55.9329 Y38.1233
G01 X55.8970 Y37.9943
G01 X55.8728 Y37.8626
G01 X55.8604 Y37.7293
G01 X55.8721 Y37.5912
G01 Y30.8037
G01 X55.8622 Y30.6941
G01 X55.8602 Y30.6442
G01 X55.8756 Y30.5000
G01 X55.9053 Y30.3581
G01 X55.9491 Y30.2199
G01 X56.0065 Y30.0867
G01 X56.0768 Y29.9599
G01 X56.1595 Y29.8408
G01 X56.2536 Y29.7305
G01 X56.3583 Y29.6302
G01 X56.8721 Y29.1162
G01 Y28.9729
G01 X56.8746 Y28.9230
G01 X56.9360 Y28.6589
G01 X57.0320 Y28.4052
G01 X57.1610 Y28.1667
G01 X57.3206 Y27.9475
G01 X57.5080 Y27.7515
G01 X57.7199 Y27.5823
G01 X57.9525 Y27.4429
G01 X58.2016 Y27.3357
G01 X58.4627 Y27.2626
G01 X58.7313 Y27.2251
G01 X59.0025 Y27.2237
G01 X59.2714 Y27.2584
G01 X59.5333 Y27.3288
G01 X59.7835 Y27.4334
G01 X60.0175 Y27.5704
G01 X60.2311 Y27.7374
G01 X63.1710
G01 X68.3721 Y22.5361
G01 Y22.1925
G01 X68.3003 Y22.0457
G01 X68.2428 Y21.8927
G01 X68.2001 Y21.7349
G01 X68.1728 Y21.5738
G01 X68.1721 Y21.5290
G01 Y21.1258
G01 X68.1746 Y21.0759
G01 X68.2247 Y20.9274
G01 X68.2743 Y20.7787
G01 X68.3235 Y20.6299
G01 X68.3721 Y20.4809
G01 Y20.2787
G01 X67.2510 Y19.1574
G01 X65.2311
G01 X65.0145 Y19.3277
G01 X64.7767 Y19.4669
G01 X64.5222 Y19.5725
G01 X64.2557 Y19.6424
G01 X63.9821 Y19.6754
G01 X63.7066 Y19.6709
G01 X63.4342 Y19.6290
G01 X63.1702 Y19.5503
G01 X62.9192 Y19.4365
G01 X62.6861 Y19.2895
G01 X62.4752 Y19.1122
G01 X62.2903 Y18.9079
G01 X62.1350 Y18.6802
G01 X62.0122 Y18.4336
G01 X61.9240 Y18.1725
G01 X61.8721 Y17.9019
G01 Y17.3929
G01 X61.8746 Y17.3430
G01 X61.9363 Y17.0791
G01 X62.0325 Y16.8257
G01 X62.1617 Y16.5874
G01 X62.3214 Y16.3685
G01 X62.5089 Y16.1727
G01 X62.7207 Y16.0037
G01 X62.9532 Y15.8643
G01 X63.2021 Y15.7572
G01 X63.4632 Y15.6842
G01 X63.7316 Y15.6466
G01 X64.0026 Y15.6451
G01 X64.2714 Y15.6797
G01 X64.5332 Y15.7497
G01 X64.7834 Y15.8541
G01 X65.0174 Y15.9908
G01 X65.2311 Y16.1574
G01 X67.8064
G01 X67.9177 Y16.1477
G01 X68.0683 Y16.1572
G01 X68.2171 Y16.1828
G01 X68.3623 Y16.2240
G01 X68.5023 Y16.2805
G01 X68.6355 Y16.3515
G01 X68.7604 Y16.4364
G01 X68.8755 Y16.5341
G01 X68.9795 Y16.6435
G01 X70.8860 Y18.5501
G01 X70.9709 Y18.6212
G01 X71.0709 Y18.7345
G01 X71.1583 Y18.8578
G01 X71.2320 Y18.9898
G01 X71.2912 Y19.1289
G01 X71.3353 Y19.2735
G01 X71.3636 Y19.4219
G01 X71.3759 Y19.5726
G01 X71.3721 Y19.7237
G01 Y20.4823
G01 X71.3884 Y20.5351
G01 X71.4760 Y20.7323
G01 X71.5390 Y20.9386
G01 X71.5762 Y21.1511
G01 X71.5873 Y21.3666
G01 X71.5720 Y21.5818
G01 X71.5306 Y21.7935
G01 X71.4636 Y21.9986
G01 X71.3721 Y22.1940
G01 Y23.0912
G01 X71.3758 Y24.2024
G01 X71.3771 Y25.3136
G01 X71.3758 Y26.4249
G01 X71.3721 Y27.5361
G01 X73.9806 Y30.1445
G01 X74.0029 Y30.1574
G01 X81.3282
G01 X81.4378 Y30.1556
G01 X81.5469 Y30.1666
G01 X81.6540 Y30.1903
G01 X81.7575 Y30.2262
G01 X81.8562 Y30.2740
G01 X81.9486 Y30.3329
G01 X82.0336 Y30.4023
G01 X82.1099 Y30.4810
G01 X83.0479 Y31.4190
G01 X83.1235 Y31.4945
G01 X83.1911 Y31.5773
G01 X83.2498 Y31.6666
G01 X83.2991 Y31.7614
G01 X83.3384 Y31.8607
G01 X83.3674 Y31.9636
G01 X83.3857 Y32.0689
G01 X83.3932 Y32.1755
G01 X83.5594 Y32.2033
G01 X83.7210 Y32.2514
G01 X83.8755 Y32.3188
G01 X84.0206 Y32.4048
G01 X84.1540 Y32.5078
G01 X84.2737 Y32.6265
G01 X84.3781 Y32.7589
G01 X84.4653 Y32.9031
G01 X84.5343 Y33.0569
G01 X84.5839 Y33.2181
G01 X84.6133 Y33.3841
G01 X84.6221 Y33.5524
G01 Y38.7824
G01 X84.6100 Y38.9590
G01 X84.5753 Y39.1326
G01 X84.5187 Y39.3004
G01 X84.4411 Y39.4595
G01 X84.3438 Y39.6074
G01 X84.2284 Y39.7416
G01 X84.0968 Y39.8600
G01 X83.9511 Y39.9605
G01 X83.7937 Y40.0416
G01 X83.6272 Y40.1019
G01 X83.4544 Y40.1404
G01 X83.2781 Y40.1565
G01 X81.4971 Y40.1574
G01 X81.3205 Y40.1452
G01 X81.1469 Y40.1105
G01 X80.9791 Y40.0539
G01 X80.8200 Y39.9763
G01 X80.6721 Y39.8790
G01 X80.5378 Y39.7635
G01 X80.4195 Y39.6319
G01 X80.3189 Y39.4861
G01 X80.2378 Y39.3287
G01 X80.1776 Y39.1622
G01 X80.1391 Y38.9894
G01 X80.1231 Y38.8131
G01 X80.1221 Y33.5324
G01 X80.1321 Y33.4350
G01 X80.1456 Y33.3381
G01 X80.1625 Y33.2417
G01 X80.1828 Y33.1459
G01 X80.2357 Y32.9922
G01 X80.3075 Y32.8464
G01 X80.3969 Y32.7107
G01 X80.5027 Y32.5872
G01 X80.6230 Y32.4779
G01 X80.7561 Y32.3846
G01 X80.8998 Y32.3087
G01 X81.0519 Y32.2513
G01 X80.9580 Y32.1574
G01 X74.0021
G01 X74.0622
G01 X73.9865 Y32.1644
G01 X73.8468 Y32.3052
G01 X73.6895 Y32.4258
G01 X73.5175 Y32.5243
G01 X73.3337 Y32.5987
G01 X73.1416 Y32.6477
G01 X72.9447 Y32.6705
G01 X72.7465 Y32.6666
G01 X72.5506 Y32.6360
G01 X72.3606 Y32.5794
G01 X72.1799 Y32.4978
G01 X72.0118 Y32.3926
G01 X71.8594 Y32.2658
G01 X68.8583 Y29.2647
G01 X68.7734 Y29.1937
G01 X68.6854 Y29.0927
G01 X68.6068 Y28.9843
G01 X68.5382 Y28.8693
G01 X68.4800 Y28.7487
G01 X68.4329 Y28.6233
G01 X68.3970 Y28.4943
G01 X68.3728 Y28.3626
G01 X68.3604 Y28.2293
G01 X68.3721 Y28.0912
G01 Y26.7787
G01 X64.8995 Y30.2514
G01 X64.8288 Y30.3360
G01 X64.7155 Y30.4360
G01 X64.5921 Y30.5234
G01 X64.4602 Y30.5971
G01 X64.3211 Y30.6563
G01 X64.1766 Y30.7004
G01 X64.0281 Y30.7287
G01 X63.8775 Y30.7411
G01 X63.7264 Y30.7374
G01 X60.2311
G01 X60.0995 Y30.8447
G01 X59.9594 Y30.9406
G01 X59.8118 Y31.0245
G01 X59.6577 Y31.0958
G01 X59.4981 Y31.1539
G01 X59.3343 Y31.1985
G01 X59.1673 Y31.2293
G01 X58.9983 Y31.2460
G01 X58.9490 Y31.2816
G01 X58.9774 Y31.2532
G01 X58.8721 Y31.3586
G01 Y37.0361
G01 X59.9933 Y38.1574
G01 X61.5481
G01 X61.7065 Y38.1821
G01 X61.8612 Y38.2241
G01 X62.0103 Y38.2827
G01 X62.1521 Y38.3574
G01 X62.2549 Y38.3641
G01 X62.3542 Y38.3916
G01 X62.4457 Y38.4389
G01 X62.5257 Y38.5039
G01 X62.5907 Y38.5838
G01 X62.6379 Y38.6753
G01 X62.6655 Y38.7746
G01 X62.6721 Y38.8774
G01 X62.7446 Y39.0141
G01 X62.8024 Y39.1576
G01 X62.8449 Y39.3063
G01 X62.8716 Y39.4587
G01 X62.8721 Y43.6574
G01 X64.8064
G01 X64.9177 Y43.6477
G01 X65.0684 Y43.6572
G01 X65.2171 Y43.6828
G01 X65.3624 Y43.7240
G01 X65.5024 Y43.7805
G01 X65.6355 Y43.8516
G01 X65.7604 Y43.9364
G01 X65.8755 Y44.0341
G01 X65.9795 Y44.1435
G01 X66.1733 Y44.3374
G01 X69.0641
G01 X69.2063 Y44.2567
G01 X69.3584 Y44.1969
G01 X69.5175 Y44.1595
G01 X69.6803 Y44.1450
G01 X69.9241 Y44.1340
G01 X70.1670 Y44.1579
G01 X70.4039 Y44.2162
G01 X70.6301 Y44.3077
G01 X70.8410 Y44.4304
G01 X71.0323 Y44.5820
G01 X71.1999 Y44.7593
G01 X71.3406 Y44.9587
G01 X71.4514 Y45.1761
G01 X71.5301 Y45.4071
G01 X71.5751 Y45.6469
G01 X71.5854 Y45.8907
G01 X71.5609 Y46.1335
G01 X71.5020 Y46.3703
G01 X71.4100 Y46.5963
G01 X71.2866 Y46.8068
G01 X71.1346 Y46.9977
G01 X70.9568 Y47.1649
G01 X70.7571 Y47.3050
G01 X70.5394 Y47.4153
G01 X69.8595 Y48.4074
G00 Z1.0000 F500
G00 X80.2125 Y29.5074 F3000
G00 Z0.5000 F500
G01 Z-0.3000 F120
G01 X80.6851 Y29.8857 F180
G01 X80.5677 Y29.7913
G01 X80.4618 Y29.6844
G01 X80.3686 Y29.5661
G01 X80.2893 Y29.4382
G01 X80.2249 Y29.3021
G01 X80.1763 Y29.1596
G01 X80.1441 Y29.0125
G01 X80.1286 Y28.8627
G01 X80.1231 Y28.8131
G01 X80.1221 Y28.7624
G01 Y23.5324
G01 X80.1246 Y23.4825
G01 X80.1420 Y23.2929
G01 X80.1885 Y23.1083
G01 X80.2632 Y22.9332
G01 X80.3642 Y22.7718
G01 X80.3721 Y22.6998
G01 Y22.7520
G01 X80.3716 Y20.9854
G01 X75.0440 Y15.6574
G01 X61.7003
G01 X60.7921 Y16.5658
G01 Y23.5850
G01 X60.8420 Y23.7219
G01 X60.8809 Y23.9727
G01 X60.8880 Y24.2264
G01 X60.8633 Y24.4791
G01 X60.8070 Y24.7266
G01 X60.7202 Y24.9651
G01 X60.6041 Y25.1908
G01 X60.4606 Y25.4002
G01 X60.2920 Y25.5899
G01 X60.1009 Y25.7570
G01 X59.8904 Y25.8988
G01 X59.6638 Y26.0130
G01 X59.4246 Y26.0980
G01 X59.1766 Y26.1522
G01 X58.9238 Y26.1749
G01 X58.6702 Y26.1658
G01 X58.4197 Y26.1249
G01 X58.1763 Y26.0529
G01 X57.9439 Y25.9509
G01 X57.7260 Y25.8206
G01 X57.5263 Y25.6640
G01 X57.4164 Y25.5337
G01 X57.2798 Y25.4006
G01 X57.1577 Y25.2541
G01 X57.0515 Y25.0956
G01 X56.9624 Y24.9270
G01 X56.8912 Y24.7501
G01 X56.8387 Y24.5667
G01 X56.8056 Y24.3789
G01 X56.7921 Y24.1886
G01 Y15.8243
G01 X56.7770 Y15.6473
G01 X56.7752 Y15.5974
G01 X56.7829 Y15.5224
G01 X56.7960 Y15.4482
G01 X56.8143 Y15.3751
G01 X56.8377 Y15.3035
G01 X56.8722 Y15.1316
G01 X56.9287 Y14.9656
G01 X57.0063 Y14.8083
G01 X57.1036 Y14.6624
G01 X57.1647 Y14.5445
G01 X57.2423 Y14.4368
G01 X57.3348 Y14.3417
G01 X57.4403 Y14.2611
G01 X59.3962 Y12.3050
G01 X59.4767 Y12.2000
G01 X59.5716 Y12.1078
G01 X59.6788 Y12.0303
G01 X59.7961 Y11.9691
G01 X59.9423 Y11.8715
G01 X60.0999 Y11.7938
G01 X60.2664 Y11.7373
G01 X60.4388 Y11.7030
G01 X60.5650 Y11.6632
G01 X60.6955 Y11.6421
G01 X60.8278 Y11.6402
G01 X60.9589 Y11.6574
G01 X75.7853
G01 X75.9165 Y11.6402
G01 X76.0487 Y11.6421
G01 X76.1793 Y11.6632
G01 X76.3055 Y11.7030
G01 X76.4779 Y11.7373
G01 X76.6443 Y11.7938
G01 X76.8020 Y11.8715
G01 X76.9482 Y11.9691
G01 X77.0654 Y12.0303
G01 X77.1726 Y12.1078
G01 X77.2675 Y12.1999
G01 X77.3480 Y12.3048
G01 X82.3721 Y17.3290
G01 X82.8962 Y16.8050
G01 X82.9767 Y16.7000
G01 X83.0716 Y16.6078
G01 X83.1788 Y16.5303
G01 X83.2961 Y16.4691
G01 X83.4423 Y16.3715
G01 X83.5999 Y16.2938
G01 X83.7664 Y16.2373
G01 X83.9388 Y16.2030
G01 X84.0650 Y16.1632
G01 X84.1955 Y16.1421
G01 X84.3278 Y16.1402
G01 X84.4589 Y16.1574
G01 X93.2853
G01 X93.4165 Y16.1402
G01 X93.5487 Y16.1421
G01 X93.6793 Y16.1632
G01 X93.8055 Y16.2030
G01 X93.9779 Y16.2373
G01 X94.1443 Y16.2938
G01 X94.3020 Y16.3715
G01 X94.4482 Y16.4691
G01 X94.5654 Y16.5303
G01 X94.6726 Y16.6078
G01 X94.7675 Y16.6999
G01 X94.8481 Y16.8048
G01 X95.3722 Y17.3290
G01 X95.4578 Y17.2172
G01 X95.5583 Y17.1187
G01 X95.6719 Y17.0354
G01 X95.7961 Y16.9691
G01 X95.9423 Y16.8715
G01 X96.0999 Y16.7938
G01 X96.2664 Y16.7373
G01 X96.4388 Y16.7030
G01 X96.5650 Y16.6632
G01 X96.6955 Y16.6421
G01 X96.8278 Y16.6402
G01 X96.9589 Y16.6574
G01 X109.7853
G01 X109.9165 Y16.6402
G01 X110.0487 Y16.6421
G01 X110.1793 Y16.6632
G01 X110.3055 Y16.7030
G01 X110.4779 Y16.7373
G01 X110.6443 Y16.7938
G01 X110.8020 Y16.8715
G01 X110.9482 Y16.9691
G01 X111.0654 Y17.0303
G01 X111.1726 Y17.1078
G01 X111.2675 Y17.1999
G01 X111.3481 Y17.3048
G01 X114.7239 Y20.6811
G01 X114.8294 Y20.7617
G01 X114.9220 Y20.8568
G01 X114.9996 Y20.9645
G01 X115.0606 Y21.0824
G01 X115.1581 Y21.2286
G01 X115.2358 Y21.3862
G01 X115.2924 Y21.5525
G01 X115.3268 Y21.7248
G01 X115.3663 Y21.8508
G01 X115.3872 Y21.9813
G01 X115.3891 Y22.1133
G01 X115.3721 Y22.2443
G01 Y42.5705
G01 X115.3891 Y42.7018
G01 X115.3871 Y42.8342
G01 X115.3661 Y42.9650
G01 X115.3265 Y43.0913
G01 X115.2921 Y43.2633
G01 X115.2355 Y43.4293
G01 X115.1580 Y43.5865
G01 X115.0606 Y43.7324
G01 X114.9996 Y43.8503
G01 X114.9220 Y43.9580
G01 X114.8294 Y44.0532
G01 X114.7239 Y44.1337
G01 X108.3481 Y50.5100
G01 X108.2675 Y50.6149
G01 X108.1726 Y50.7071
G01 X108.0654 Y50.7845
G01 X107.9482 Y50.8457
G01 X107.8020 Y50.9433
G01 X107.6443 Y51.0211
G01 X107.4779 Y51.0776
G01 X107.3055 Y51.1118
G01 X107.1793 Y51.1516
G01 X107.0487 Y51.1727
G01 X106.9165 Y51.1747
G01 X106.7853 Y51.1574
G01 X98.7745
G01 X98.5911 Y51.2632
G01 X98.3942 Y51.3411
G01 X98.1881 Y51.3895
G01 X97.9771 Y51.4074
G01 X92.7471
G01 X92.5703 Y51.3959
G01 X92.3963 Y51.3618
G01 X92.2282 Y51.3055
G01 X92.0688 Y51.2281
G01 X91.9206 Y51.1308
G01 X91.7861 Y51.0153
G01 X91.6677 Y50.8834
G01 X91.5672 Y50.7374
G01 X91.4863 Y50.5796
G01 X91.4264 Y50.4128
G01 X91.3884 Y50.2396
G01 X91.3731 Y50.0631
G01 X91.3721 Y50.0124
G01 Y48.2824
G01 X91.3821 Y48.1850
G01 X91.3956 Y48.0881
G01 X91.4125 Y47.9917
G01 X91.4328 Y47.8959
G01 X91.5110 Y47.6947
G01 X91.6194 Y47.5080
G01 X91.7554 Y47.3404
G01 X91.9157 Y47.1959
G01 X92.0965 Y47.0779
G01 X92.2934 Y46.9894
G01 X92.5016 Y46.9324
G01 X92.7161 Y46.9084
G01 X97.9971 Y46.9074
G01 X98.1993 Y46.9214
G01 X98.3966 Y46.9672
G01 X98.5842 Y47.0438
G01 X98.7573 Y47.1491
G01 X98.8303 Y47.1574
G01 X98.7771
G01 X106.0440
G01 X111.3721 Y41.8290
G01 Y22.9858
G01 X109.0440 Y20.6574
G01 X97.7003
G01 X97.3721 Y20.9858
G01 Y21.9074
G01 X97.9971
G01 X98.1780 Y21.9202
G01 X98.3556 Y21.9565
G01 X98.5269 Y22.0158
G01 X98.6890 Y22.0970
G01 X98.8390 Y22.1987
G01 X98.9745 Y22.3192
G01 X99.0930 Y22.4564
G01 X99.1925 Y22.6079
G01 X99.2714 Y22.7712
G01 X99.3282 Y22.9433
G01 X99.3620 Y23.1214
G01 X99.3721 Y23.3024
G01 Y25.0324
G01 X99.3600 Y25.2090
G01 X99.3253 Y25.3826
G01 X99.2687 Y25.5504
G01 X99.1911 Y25.7095
G01 X99.0938 Y25.8574
G01 X98.9784 Y25.9916
G01 X98.8468 Y26.1100
G01 X98.7011 Y26.2105
G01 X98.5437 Y26.2916
G01 X98.3772 Y26.3519
G01 X98.2044 Y26.3904
G01 X98.0281 Y26.4065
G01 X92.7471 Y26.4074
G01 X92.5705 Y26.3952
G01 X92.3969 Y26.3605
G01 X92.2291 Y26.3039
G01 X92.0700 Y26.2263
G01 X91.9221 Y26.1290
G01 X91.7878 Y26.0135
G01 X91.6695 Y25.8819
G01 X91.5689 Y25.7361
G01 X91.4878 Y25.5787
G01 X91.4276 Y25.4122
G01 X91.3891 Y25.2394
G01 X91.3731 Y25.0631
G01 X91.3721 Y23.2824
G01 X91.3746 Y23.2325
G01 X91.3937 Y23.0567
G01 X91.4350 Y22.8847
G01 X91.4979 Y22.7194
G01 X91.5813 Y22.5634
G01 X91.6839 Y22.4193
G01 X91.8040 Y22.2895
G01 X91.9396 Y22.1760
G01 X92.0886 Y22.0807
G01 X92.2485 Y22.0051
G01 X92.4168 Y21.9505
G01 X92.5906 Y21.9178
G01 X92.7671 Y21.9074
G01 X93.3721
G01 Y20.9858
G01 X92.5440 Y20.1574
G01 X85.2003
G01 X84.3726 Y20.9854
G01 X84.3721 Y22.7545
G01 X84.4727 Y22.9265
G01 X84.5486 Y23.1108
G01 X84.5984 Y23.3038
G01 X84.6212 Y23.5018
G01 X84.6221 Y28.7824
G01 X84.6100 Y28.9590
G01 X84.5753 Y29.1326
G01 X84.5187 Y29.3004
G01 X84.4411 Y29.4595
G01 X84.3438 Y29.6074
G01 X84.2284 Y29.7416
G01 X84.0968 Y29.8600
G01 X83.9511 Y29.9605
G01 X83.7937 Y30.0416
G01 X83.6272 Y30.1019
G01 X83.4544 Y30.1404
G01 X83.2781 Y30.1565
G01 X81.4971 Y30.1574
G01 X81.2802 Y30.1401
G01 X81.0689 Y30.0880
G01 X80.8687 Y30.0025
G01 X80.6851 Y29.8857
G01 X80.2125 Y29.5074
G00 Z1.0000 F500
G00 Y11.5074 F3000
G00 Z0.5000 F500
G01 Z-0.3000 F120
G01 Y11.2574 F180
G01 X115.2721
G01 X115.3721 Y11.2676
G01 X115.4681 Y11.2975
G01 X115.5562 Y11.3460
G01 X115.6327 Y11.4111
G01 X115.6948 Y11.4901
G01 X115.7398 Y11.5800
G01 X115.7659 Y11.6771
G01 X115.7721 Y11.7774
G01 Y71.5574
G01 X115.7620 Y71.6574
G01 X115.7321 Y71.7534
G01 X115.6836 Y71.8414
G01 X115.6185 Y71.9180
G01 X115.5394 Y71.9801
G01 X115.4495 Y72.0251
G01 X115.3525 Y72.0512
G01 X115.2521 Y72.0574
G01 X51.9721
G01 X51.8789 Y72.0487
G01 X51.7890 Y72.0227
G01 X51.7055 Y71.9804
G01 X51.6313 Y71.9233
G01 X51.5691 Y71.8533
G01 X51.5210 Y71.7730
G01 X51.4887 Y71.6851
G01 X51.4734 Y71.5928
G01 X51.4721 Y71.5374
G01 Y11.7574
G01 X51.4746 Y11.7075
G01 X51.4929 Y11.6150
G01 X51.5282 Y11.5275
G01 X51.5792 Y11.4483
G01 X51.6442 Y11.3800
G01 X51.7209 Y11.3251
G01 X51.8065 Y11.2855
G01 X51.8980 Y11.2627
G01 X51.9921 Y11.2574
G01 X80.2125
G01 Y11.5074
G00 Z1.0000 F500


;No. 2: Part 17
G00 X115.2721 Y11.2574 Z1.0000 F3000
G00 Z0.5000 F500
G01 Z-0.5000 F120
G01 X115.3721 Y11.2676 F180
G01 X115.4681 Y11.2975
G01 X115.5562 Y11.3460
G01 X115.6327 Y11.4111
G01 X115.6948 Y11.4901
G01 X115.7398 Y11.5800
G01 X115.7659 Y11.6771
G01 X115.7721 Y11.7774
G01 Y71.5574
G01 X115.7620 Y71.6574
G01 X115.7321 Y71.7534
G01 X115.6836 Y71.8414
G01 X115.6185 Y71.9180
G01 X115.5394 Y71.9801
G01 X115.4495 Y72.0251
G01 X115.3525 Y72.0512
G01 X115.2521 Y72.0574
G01 X51.9721
G01 X51.8789 Y72.0487
G01 X51.7890 Y72.0227
G01 X51.7055 Y71.9804
G01 X51.6313 Y71.9233
G01 X51.5691 Y71.8533
G01 X51.5210 Y71.7730
G01 X51.4887 Y71.6851
G01 X51.4734 Y71.5928
G01 X51.4721 Y71.5374
G01 Y11.7574
G01 X51.4746 Y11.7075
G01 X51.4929 Y11.6150
G01 X51.5282 Y11.5275
G01 X51.5792 Y11.4483
G01 X51.6442 Y11.3800
G01 X51.7209 Y11.3251
G01 X51.8065 Y11.2855
G01 X51.8980 Y11.2627
G01 X51.9921 Y11.2574
G01 X115.2721
G01 Z-1.0000 F120
G01 X115.3721 Y11.2676 F180
G01 X115.4681 Y11.2975
G01 X115.5562 Y11.3460
G01 X115.6327 Y11.4111
G01 X115.6948 Y11.4901
G01 X115.7398 Y11.5800
G01 X115.7659 Y11.6771
G01 X115.7721 Y11.7774
G01 Y71.5574
G01 X115.7620 Y71.6574
G01 X115.7321 Y71.7534
G01 X115.6836 Y71.8414
G01 X115.6185 Y71.9180
G01 X115.5394 Y71.9801
G01 X115.4495 Y72.0251
G01 X115.3525 Y72.0512
G01 X115.2521 Y72.0574
G01 X51.9721
G01 X51.8789 Y72.0487
G01 X51.7890 Y72.0227
G01 X51.7055 Y71.9804
G01 X51.6313 Y71.9233
G01 X51.5691 Y71.8533
G01 X51.5210 Y71.7730
G01 X51.4887 Y71.6851
G01 X51.4734 Y71.5928
G01 X51.4721 Y71.5374
G01 Y11.7574
G01 X51.4746 Y11.7075
G01 X51.4929 Y11.6150
G01 X51.5282 Y11.5275
G01 X51.5792 Y11.4483
G01 X51.6442 Y11.3800
G01 X51.7209 Y11.3251
G01 X51.8065 Y11.2855
G01 X51.8980 Y11.2627
G01 X51.9921 Y11.2574
G01 X115.2721
G01 Z-1.5000 F120
G01 X115.3721 Y11.2676 F180
G01 X115.4681 Y11.2975
G01 X115.5562 Y11.3460
G01 X115.6327 Y11.4111
G01 X115.6948 Y11.4901
G01 X115.7398 Y11.5800
G01 X115.7659 Y11.6771
G01 X115.7721 Y11.7774
G01 Y71.5574
G01 X115.7620 Y71.6574
G01 X115.7321 Y71.7534
G01 X115.6836 Y71.8414
G01 X115.6185 Y71.9180
G01 X115.5394 Y71.9801
G01 X115.4495 Y72.0251
G01 X115.3525 Y72.0512
G01 X115.2521 Y72.0574
G01 X51.9721
G01 X51.8789 Y72.0487
G01 X51.7890 Y72.0227
G01 X51.7055 Y71.9804
G01 X51.6313 Y71.9233
G01 X51.5691 Y71.8533
G01 X51.5210 Y71.7730
G01 X51.4887 Y71.6851
G01 X51.4734 Y71.5928
G01 X51.4721 Y71.5374
G01 Y11.7574
G01 X51.4746 Y11.7075
G01 X51.4929 Y11.6150
G01 X51.5282 Y11.5275
G01 X51.5792 Y11.4483
G01 X51.6442 Y11.3800
G01 X51.7209 Y11.3251
G01 X51.8065 Y11.2855
G01 X51.8980 Y11.2627
G01 X51.9921 Y11.2574
G01 X115.2721
G01 Z-1.7000 F120
G01 X115.3721 Y11.2676 F180
G01 X115.4681 Y11.2975
G01 X115.5562 Y11.3460
G01 X115.6327 Y11.4111
G01 X115.6948 Y11.4901
G01 X115.7398 Y11.5800
G01 X115.7659 Y11.6771
G01 X115.7721 Y11.7774
G01 Y71.5574
G01 X115.7620 Y71.6574
G01 X115.7321 Y71.7534
G01 X115.6836 Y71.8414
G01 X115.6185 Y71.9180
G01 X115.5394 Y71.9801
G01 X115.4495 Y72.0251
G01 X115.3525 Y72.0512
G01 X115.2521 Y72.0574
G01 X51.9721
G01 X51.8789 Y72.0487
G01 X51.7890 Y72.0227
G01 X51.7055 Y71.9804
G01 X51.6313 Y71.9233
G01 X51.5691 Y71.8533
G01 X51.5210 Y71.7730
G01 X51.4887 Y71.6851
G01 X51.4734 Y71.5928
G01 X51.4721 Y71.5374
G01 Y11.7574
G01 X51.4746 Y11.7075
G01 X51.4929 Y11.6150
G01 X51.5282 Y11.5275
G01 X51.5792 Y11.4483
G01 X51.6442 Y11.3800
G01 X51.7209 Y11.3251
G01 X51.8065 Y11.2855
G01 X51.8980 Y11.2627
G01 X51.9921 Y11.2574
G01 X115.2721
G00 Z1.0000 F500


;No. 3: Drill 3
G00 X113.3742 Y13.6556 Z1.0000 F3000
G00 Z0.5000 F500
G01 Z-0.5000 F120
G00 Z0.5000 F500
G00 Z0.0000
G01 Z-1.0000 F120
G00 Z0.5000 F500
G00 Z-0.5000
G01 Z-1.5000 F120
G00 Z0.5000 F500
G00 Z-1.0000
G01 Z-1.7000 F120
G00 Z1.0000 F500


;No. 4: Engraving 13
G00 X97.3732 Y24.1558 Z1.0000 F3000
G00 Z0.5000 F500
G01 Z-0.5000 F120
G01 X93.3716 F180
G00 Z1.0000 F500
G00 X97.3732 F3000
G00 Z0.0000 F500
G01 Z-1.0000 F120
G01 X93.3716 F180
G00 Z1.0000 F500
G00 X97.3732 F3000
G00 Z-0.5000 F500
G01 Z-1.5000 F120
G01 X93.3716 F180
G00 Z1.0000 F500
G00 X97.3732 F3000
G00 Z-1.0000 F500
G01 Z-1.7000 F120
G01 X93.3716 F180
G00 Z1.0000 F500


;No. 5: Engraving 14
G00 X88.3708 Y24.1483 Z1.0000 F3000
G00 Z0.5000 F500
G01 Z-0.5000 F120
G01 Y28.1581 F180
G00 Z1.0000 F500
G00 Y24.1483 F3000
G00 Z0.0000 F500
G01 Z-1.0000 F120
G01 Y28.1581 F180
G00 Z1.0000 F500
G00 Y24.1483 F3000
G00 Z-0.5000 F500
G01 Z-1.5000 F120
G01 Y28.1581 F180
G00 Z1.0000 F500
G00 Y24.1483 F3000
G00 Z-1.0000 F500
G01 Z-1.7000 F120
G01 Y28.1581 F180
G00 Z1.0000 F500


;No. 6: Engraving 15
G00 X82.3732 Y28.1567 Z1.0000 F3000
G00 Z0.5000 F500
G01 Z-0.5000 F120
G01 Y24.1582 F180
G00 Z1.0000 F500
G00 Y28.1567 F3000
G00 Z0.0000 F500
G01 Z-1.0000 F120
G01 Y24.1582 F180
G00 Z1.0000 F500
G00 Y28.1567 F3000
G00 Z-0.5000 F500
G01 Z-1.5000 F120
G01 Y24.1582 F180
G00 Z1.0000 F500
G00 Y28.1567 F3000
G00 Z-1.0000 F500
G01 Z-1.7000 F120
G01 Y24.1582 F180
G00 Z1.0000 F500


;No. 7: Engraving 16
G00 X77.3711 Y28.1567 Z1.0000 F3000
G00 Z0.5000 F500
G01 Z-0.5000 F120
G01 Y24.1508 F180
G00 Z1.0000 F500
G00 Y28.1567 F3000
G00 Z0.0000 F500
G01 Z-1.0000 F120
G01 Y24.1508 F180
G00 Z1.0000 F500
G00 Y28.1567 F3000
G00 Z-0.5000 F500
G01 Z-1.5000 F120
G01 Y24.1508 F180
G00 Z1.0000 F500
G00 Y28.1567 F3000
G00 Z-1.0000 F500
G01 Z-1.7000 F120
G01 Y24.1508 F180
G00 Z1.0000 F500


;No. 8: Engraving 10
G00 X82.3708 Y34.1483 Z1.0000 F3000
G00 Z0.5000 F500
G01 Z-0.5000 F120
G01 Y38.1640 F180
G00 Z1.0000 F500
G00 Y34.1483 F3000
G00 Z0.0000 F500
G01 Z-1.0000 F120
G01 Y38.1640 F180
G00 Z1.0000 F500
G00 Y34.1483 F3000
G00 Z-0.5000 F500
G01 Z-1.5000 F120
G01 Y38.1640 F180
G00 Z1.0000 F500
G00 Y34.1483 F3000
G00 Z-1.0000 F500
G01 Z-1.7000 F120
G01 Y38.1640 F180
G00 Z1.0000 F500


;No. 9: Engraving 9
G00 X77.3774 Y38.1613 Z1.0000 F3000
G00 Z0.5000 F500
G01 Z-0.5000 F120
G01 Y34.1582 F180
G00 Z1.0000 F500
G00 Y38.1613 F3000
G00 Z0.0000 F500
G01 Z-1.0000 F120
G01 Y34.1582 F180
G00 Z1.0000 F500
G00 Y38.1613 F3000
G00 Z-0.5000 F500
G01 Z-1.5000 F120
G01 Y34.1582 F180
G00 Z1.0000 F500
G00 Y38.1613 F3000
G00 Z-1.0000 F500
G01 Z-1.7000 F120
G01 Y34.1582 F180
G00 Z1.0000 F500


;No. 10: Engraving 11
G00 X88.3711 Y34.1582 Z1.0000 F3000
G00 Z0.5000 F500
G01 Z-0.5000 F120
G01 X88.3721 Y38.1554 F180
G00 Z1.0000 F500
G00 X88.3711 Y34.1582 F3000
G00 Z0.0000 F500
G01 Z-1.0000 F120
G01 X88.3721 Y38.1554 F180
G00 Z1.0000 F500
G00 X88.3711 Y34.1582 F3000
G00 Z-0.5000 F500
G01 Z-1.5000 F120
G01 X88.3721 Y38.1554 F180
G00 Z1.0000 F500
G00 X88.3711 Y34.1582 F3000
G00 Z-1.0000 F500
G01 Z-1.7000 F120
G01 X88.3721 Y38.1554 F180
G00 Z1.0000 F500


;No. 11: Engraving 12
G00 X97.3774 Y38.1535 Z1.0000 F3000
G00 Z0.5000 F500
G01 Z-0.5000 F120
G01 X93.3725 F180
G00 Z1.0000 F500
G00 X97.3774 F3000
G00 Z0.0000 F500
G01 Z-1.0000 F120
G01 X93.3725 F180
G00 Z1.0000 F500
G00 X97.3774 F3000
G00 Z-0.5000 F500
G01 Z-1.5000 F120
G01 X93.3725 F180
G00 Z1.0000 F500
G00 X97.3774 F3000
G00 Z-1.0000 F500
G01 Z-1.7000 F120
G01 X93.3725 F180
G00 Z1.0000 F500


;No. 12: Engraving 5
G00 X97.3732 Y49.1567 Z1.0000 F3000
G00 Z0.5000 F500
G01 Z-0.5000 F120
G01 X93.3711 F180
G00 Z1.0000 F500
G00 X97.3732 F3000
G00 Z0.0000 F500
G01 Z-1.0000 F120
G01 X93.3711 F180
G00 Z1.0000 F500
G00 X97.3732 F3000
G00 Z-0.5000 F500
G01 Z-1.5000 F120
G01 X93.3711 F180
G00 Z1.0000 F500
G00 X97.3732 F3000
G00 Z-1.0000 F500
G01 Z-1.7000 F120
G01 X93.3711 F180
G00 Z1.0000 F500


;No. 13: Engraving 6
G00 X88.3721 Y53.1524 Z1.0000 F3000
G00 Z0.5000 F500
G01 Z-0.5000 F120
G01 Y49.1483 F180
G00 Z1.0000 F500
G00 Y53.1524 F3000
G00 Z0.0000 F500
G01 Z-1.0000 F120
G01 Y49.1483 F180
G00 Z1.0000 F500
G00 Y53.1524 F3000
G00 Z-0.5000 F500
G01 Z-1.5000 F120
G01 Y49.1483 F180
G00 Z1.0000 F500
G00 Y53.1524 F3000
G00 Z-1.0000 F500
G01 Z-1.7000 F120
G01 Y49.1483 F180
G00 Z1.0000 F500


;No. 14: Engraving 7
G00 X82.3732 Y49.1582 Z1.0000 F3000
G00 Z0.5000 F500
G01 Z-0.5000 F120
G01 Y53.1554 F180
G00 Z1.0000 F500
G00 Y49.1582 F3000
G00 Z0.0000 F500
G01 Z-1.0000 F120
G01 Y53.1554 F180
G00 Z1.0000 F500
G00 Y49.1582 F3000
G00 Z-0.5000 F500
G01 Z-1.5000 F120
G01 Y53.1554 F180
G00 Z1.0000 F500
G00 Y49.1582 F3000
G00 Z-1.0000 F500
G01 Z-1.7000 F120
G01 Y53.1554 F180
G00 Z1.0000 F500


;No. 15: Engraving 8
G00 X77.3708 Y53.1666 Z1.0000 F3000
G00 Z0.5000 F500
G01 Z-0.5000 F120
G01 Y49.1535 F180
G00 Z1.0000 F500
G00 Y53.1666 F3000
G00 Z0.0000 F500
G01 Z-1.0000 F120
G01 Y49.1535 F180
G00 Z1.0000 F500
G00 Y53.1666 F3000
G00 Z-0.5000 F500
G01 Z-1.5000 F120
G01 Y49.1535 F180
G00 Z1.0000 F500
G00 Y53.1666 F3000
G00 Z-1.0000 F500
G01 Z-1.7000 F120
G01 Y49.1535 F180
G00 Z1.0000 F500


;No. 16: Engraving 2
G00 X82.3774 Y59.1535 Z1.0000 F3000
G00 Z0.5000 F500
G01 Z-0.5000 F120
G01 Y63.1613 F180
G00 Z1.0000 F500
G00 Y59.1535 F3000
G00 Z0.0000 F500
G01 Z-1.0000 F120
G01 Y63.1613 F180
G00 Z1.0000 F500
G00 Y59.1535 F3000
G00 Z-0.5000 F500
G01 Z-1.5000 F120
G01 Y63.1613 F180
G00 Z1.0000 F500
G00 Y59.1535 F3000
G00 Z-1.0000 F500
G01 Z-1.7000 F120
G01 Y63.1613 F180
G00 Z1.0000 F500


;No. 17: Engraving 1
G00 X77.3721 Y63.1554 Z1.0000 F3000
G00 Z0.5000 F500
G01 Z-0.5000 F120
G01 Y59.1594 F180
G00 Z1.0000 F500
G00 Y63.1554 F3000
G00 Z0.0000 F500
G01 Z-1.0000 F120
G01 Y59.1594 F180
G00 Z1.0000 F500
G00 Y63.1554 F3000
G00 Z-0.5000 F500
G01 Z-1.5000 F120
G01 Y59.1594 F180
G00 Z1.0000 F500
G00 Y63.1554 F3000
G00 Z-1.0000 F500
G01 Z-1.7000 F120
G01 Y59.1594 F180
G00 Z1.0000 F500


;No. 18: Engraving 3
G00 X88.3732 Y63.1567 Z1.0000 F3000
G00 Z0.5000 F500
G01 Z-0.5000 F120
G01 Y59.1546 F180
G00 Z1.0000 F500
G00 Y63.1567 F3000
G00 Z0.0000 F500
G01 Z-1.0000 F120
G01 Y59.1546 F180
G00 Z1.0000 F500
G00 Y63.1567 F3000
G00 Z-0.5000 F500
G01 Z-1.5000 F120
G01 Y59.1546 F180
G00 Z1.0000 F500
G00 Y63.1567 F3000
G00 Z-1.0000 F500
G01 Z-1.7000 F120
G01 Y59.1546 F180
G00 Z1.0000 F500


;No. 19: Engraving 4
G00 X97.3732 Y63.1558 Z1.0000 F3000
G00 Z0.5000 F500
G01 Z-0.5000 F120
G01 X93.3776 F180
G00 Z1.0000 F500
G00 X97.3732 F3000
G00 Z0.0000 F500
G01 Z-1.0000 F120
G01 X93.3776 F180
G00 Z1.0000 F500
G00 X97.3732 F3000
G00 Z-0.5000 F500
G01 Z-1.5000 F120
G01 X93.3776 F180
G00 Z1.0000 F500
G00 X97.3732 F3000
G00 Z-1.0000 F500
G01 Z-1.7000 F120
G01 X93.3776 F180
G00 Z1.0000 F500


;No. 20: Drill 4
G00 X113.3722 Y69.6579 Z1.0000 F3000
G00 Z0.5000 F500
G01 Z-0.5000 F120
G00 Z0.5000 F500
G00 Z0.0000
G01 Z-1.0000 F120
G00 Z0.5000 F500
G00 Z-0.5000
G01 Z-1.5000 F120
G00 Z0.5000 F500
G00 Z-1.0000
G01 Z-1.7000 F120
G00 Z1.0000 F500


;No. 21: Drill 1
G00 X53.8722 Y69.6579 Z1.0000 F3000
G00 Z0.5000 F500
G01 Z-0.5000 F120
G00 Z0.5000 F500
G00 Z0.0000
G01 Z-1.0000 F120
G00 Z0.5000 F500
G00 Z-0.5000
G01 Z-1.5000 F120
G00 Z0.5000 F500
G00 Z-1.0000
G01 Z-1.7000 F120
G00 Z1.0000 F500


;No. 22: Drill 2
G00 X53.8746 Y13.6582 Z1.0000 F3000
G00 Z0.5000 F500
G01 Z-0.5000 F120
G00 Z0.5000 F500
G00 Z0.0000
G01 Z-1.0000 F120
G00 Z0.5000 F500
G00 Z-0.5000
G01 Z-1.5000 F120
G00 Z0.5000 F500
G00 Z-1.0000
G01 Z-1.7000 F120
G00 Z1.0000 F500


;No. 23: Drill 19
G1 X0 Y0 F2000
G1 Z0 F300
M18 Z
M00 
G1 Z1 F500
G1 X50 Y10 F2000
G1 Z0 F300
M18 Z
M00
G1 Z1 F300
G00 X58.7921 Y17.6574 Z1.0000 F3000
G00 Z0.5000 F500
G01 Z-1.7000 F120
G00 Z1.0000 F500


;No. 24: Drill 18
G00 X63.8721 Y17.6574 Z1.0000 F3000
G00 Z0.5000 F500
G01 Z-1.7000 F120
G00 Z1.0000 F500


;No. 25: Drill 17
G00 X69.8721 Y21.3374 Z1.0000 F3000
G00 Z0.5000 F500
G01 Z-1.7000 F120
G00 Z1.0000 F500


;No. 26: Drill 20
G00 X58.8721 Y24.1574 Z1.0000 F3000
G00 Z0.5000 F500
G01 Z-1.7000 F120
G00 Z1.0000 F500


;No. 27: Drill 16
G00 X58.8721 Y29.2374 Z1.0000 F3000
G00 Z0.5000 F500
G01 Z-1.7000 F120
G00 Z1.0000 F500


;No. 28: Drill 15
G00 X61.3721 Y36.1574 Z1.0000 F3000
G00 Z0.5000 F500
G01 Z-1.7000 F120
G00 Z1.0000 F500


;No. 29: Drill 14
G00 X61.3721 Y39.6574 Z1.0000 F3000
G00 Z0.5000 F500
G01 Z-1.7000 F120
G00 Z1.0000 F500


;No. 30: Drill 12
G00 X61.3721 Y45.1574 Z1.0000 F3000
G00 Z0.5000 F500
G01 Z-1.7000 F120
G00 Z1.0000 F500


;No. 31: Drill 10
G00 X61.3721 Y48.6574 Z1.0000 F3000
G00 Z0.5000 F500
G01 Z-1.7000 F120
G00 Z1.0000 F500


;No. 32: Drill 8
G00 X63.8721 Y56.1574 Z1.0000 F3000
G00 Z0.5000 F500
G01 Z-1.7000 F120
G00 Z1.0000 F500


;No. 33: Drill 6
G00 X63.8721 Y61.2374 Z1.0000 F3000
G00 Z0.5000 F500
G01 Z-1.7000 F120
G00 Z1.0000 F500


;No. 34: Drill 7
G00 X58.3721 Y61.2374 Z1.0000 F3000
G00 Z0.5000 F500
G01 Z-1.7000 F120
G00 Z1.0000 F500


;No. 35: Drill 9
G00 X58.3721 Y56.1574 Z1.0000 F3000
G00 Z0.5000 F500
G01 Z-1.7000 F120
G00 Z1.0000 F500


;No. 36: Drill 5
G00 X69.8721 Y66.1574 Z1.0000 F3000
G00 Z0.5000 F500
G01 Z-1.7000 F120
G00 Z1.0000 F500


;No. 37: Drill 11
G00 X69.8721 Y45.8374 Z1.0000 F3000
G00 Z0.5000 F500
G01 Z-1.7000 F120
G00 Z1.0000 F500


;No. 38: Drill 13
G00 X69.8721 Y41.6574 Z1.0000 F3000
G00 Z0.5000 F500
G01 Z-1.7000 F120
G00 Z1.0000 F500


;No. 39: Drill 23
G00 X106.8721 Y39.1974 Z1.0000 F3000
G00 Z0.5000 F500
G01 Z-1.7000 F120
G00 Z1.0000 F500


;No. 40: Drill 24
G00 X106.8721 Y34.1174 Z1.0000 F3000
G00 Z0.5000 F500
G01 Z-1.7000 F120
G00 Z1.0000 F500


;No. 41: Drill 22
G00 X106.8721 Y27.6974 Z1.0000 F3000
G00 Z0.5000 F500
G01 Z-1.7000 F120
G00 Z1.0000 F500


;No. 42: Drill 21
G00 X106.8721 Y22.6174 Z1.0000 F3000
G00 Z0.5000 F500
G01 Z-1.7000 F120
G00 Z1.0000 F500


;No. 43: Drill 26
G00 X106.8721 Y55.5774 Z1.0000 F3000
G00 Z0.5000 F500
G01 Z-1.7000 F120
G00 Z1.0000 F500


;No. 44: Drill 25
G00 X106.8721 Y60.6574 Z1.0000 F3000
G00 Z0.5000 F500
G01 Z-1.7000 F120
G00 Z1.0000 F500
G00 X0.0000 Y0.0000 F3000

M05
