;Project SpeakerHole
;Created by Estlcam version 10 build 11.006
;Machining time about 02:25:08 hours

G90
G92 X0 Y0 Z0
M03 S24000
G00 Z1.0000 F500


;No. 2: Hole 1
G00 X20.2955 Y-79.6500 Z1.0000 F3000
G00 Z0.5000 F500
G01 Z-1.0000 F120
G01 X-20.2955 F300
G01 Y-76.9500
G01 X-28.8915
G01 X28.8915
G01 Y-74.2500
G01 X35.2570
G01 X-35.2570
G01 Y-71.5500
G01 X-40.4554
G01 X40.4554
G01 X-16.4909
G01 Y-68.8500
G01 X-44.8965
G01 Y-66.1500
G01 X-48.7918
G01 X-25.2232
G01 X-31.4027
G01 Y-63.4500
G01 X-52.2507
G01 Y-60.7500
G01 X-55.3707
G01 X-36.3512
G01 X-40.5238
G01 Y-58.0500
G01 X-58.1966
G01 X-60.7686 Y-55.3500
G01 X-44.1411
G01 X-47.3300
G01 Y-52.6500
G01 X-63.1223
G01 X-65.2812 Y-49.9500
G01 X-50.1738
G01 X-52.7199 Y-47.2500
G01 X-67.2611
G01 X-69.0761 Y-44.5500
G01 X-55.0207
G01 X-57.1009 Y-41.8500
G01 X-70.7432
G01 X-72.2738 Y-39.1500
G01 X-58.9844
G01 X-60.6916 Y-36.4500
G01 X-73.6752
G01 X-74.9466 Y-33.7500
G01 X-62.2358
G01 X-63.6261 Y-31.0500
G01 X-76.1060
G01 X-77.1538 Y-28.3500
G01 X-64.8712
G01 X-65.9852 Y-25.6500
G01 X-78.0903
G01 X-78.9305 Y-22.9500
G01 X-66.9748
G01 X-67.8392 Y-20.2500
G01 X-79.6617
G01 X-80.3022 Y-17.5500
G01 X-68.5851
G01 X-69.2221 Y-14.8500
G01 X-80.8430
G01 X-81.2938 Y-12.1500
G01 X-69.7456
G01 X-70.1611 Y-9.4500
G01 X-81.6509
G01 X-81.9188 Y-6.7500
G01 X-70.4769
G01 X-70.6787 Y-4.0500
G01 X-82.0963
G01 X-82.1852 Y-1.3500
G01 X-70.7841
G01 X-70.7835 Y1.3500
G01 X-82.1852
G01 X-82.0963 Y4.0500
G01 X-70.6794
G01 X-70.4774 Y6.7500
G01 X-81.9188
G01 X-81.6509 Y9.4500
G01 X-70.1619
G01 X-69.7459 Y12.1500
G01 X-81.2938
G01 X-80.8430 Y14.8500
G01 X-69.2231
G01 X-68.5851 Y17.5500
G01 X-80.3022
G01 X-79.6617 Y20.2500
G01 X-67.8383
G01 X-66.9744 Y22.9500
G01 X-78.9305
G01 X-78.0903 Y25.6500
G01 X-65.9849
G01 X-64.8707 Y28.3500
G01 X-77.1538
G01 X-76.1060 Y31.0500
G01 X-63.6267
G01 X-62.2353 Y33.7500
G01 X-74.9466
G01 X-73.6752 Y36.4500
G01 X-60.6910
G01 X-58.9853 Y39.1500
G01 X-72.2738
G01 X-70.7432 Y41.8500
G01 X-57.1008
G01 X-55.0198 Y44.5500
G01 X-69.0761
G01 X-67.2611 Y47.2500
G01 X-52.7210
G01 X-50.1732 Y49.9500
G01 X-65.2812
G01 X-63.1223 Y52.6500
G01 X-47.3298
G01 Y55.3500
G01 X-44.1403
G01 X-60.7686
G01 X-58.1966 Y58.0500
G01 X-40.5224
G01 Y60.7500
G01 X-36.3502
G01 X-55.3707
G01 X-52.2507
G01 Y63.4500
G01 X-31.4015
G01 Y66.1500
G01 X-25.2227
G01 X-48.7918
G01 X-44.8965
G01 Y68.8500
G01 X-16.4932
G01 X-40.4554
G01 Y71.5500
G01 X40.4554
G01 Y68.8500
G01 X44.8965
G01 X16.4915
G01 X25.2232
G01 Y66.1500
G01 X48.7918
G01 Y63.4500
G01 X52.2507
G01 X31.4027
G01 X36.3512
G01 Y60.7500
G01 X55.3707
G01 X58.1966 Y58.0500
G01 X40.5226
G01 X44.1413
G01 Y55.3500
G01 X60.7686
G01 X63.1223 Y52.6500
G01 X47.3294
G01 X50.1738 Y49.9500
G01 X65.2812
G01 X67.2611 Y47.2500
G01 X52.7208
G01 X55.0204 Y44.5500
G01 X69.0761
G01 X70.7432 Y41.8500
G01 X57.1002
G01 X58.9851 Y39.1500
G01 X72.2738
G01 X73.6752 Y36.4500
G01 X60.6918
G01 X62.2357 Y33.7500
G01 X74.9466
G01 X76.1060 Y31.0500
G01 X63.6262
G01 X64.8709 Y28.3500
G01 X77.1538
G01 X78.0903 Y25.6500
G01 X65.9849
G01 X66.9739 Y22.9500
G01 X78.9305
G01 X79.6617 Y20.2500
G01 X67.8388
G01 X68.5853 Y17.5500
G01 X80.3022
G01 X80.8430 Y14.8500
G01 X69.2230
G01 X69.7456 Y12.1500
G01 X81.2938
G01 X81.6509 Y9.4500
G01 X70.1611
G01 X70.4769 Y6.7500
G01 X81.9188
G01 X82.0963 Y4.0500
G01 X70.6791
G01 X70.7832 Y1.3500
G01 X82.1852
G01 Y-1.3500
G01 X70.7837
G01 X70.6792 Y-4.0500
G01 X82.0963
G01 X81.9188 Y-6.7500
G01 X70.4764
G01 X70.1616 Y-9.4500
G01 X81.6509
G01 X81.2938 Y-12.1500
G01 X69.7459
G01 X69.2231 Y-14.8500
G01 X80.8430
G01 X80.3022 Y-17.5500
G01 X68.5851
G01 X67.8392 Y-20.2500
G01 X79.6617
G01 X78.9305 Y-22.9500
G01 X66.9743
G01 X65.9849 Y-25.6500
G01 X78.0903
G01 X77.1538 Y-28.3500
G01 X64.8707
G01 X63.6267 Y-31.0500
G01 X76.1060
G01 X74.9466 Y-33.7500
G01 X62.2358
G01 X60.6913 Y-36.4500
G01 X73.6752
G01 X72.2738 Y-39.1500
G01 X58.9853
G01 X57.1008 Y-41.8500
G01 X70.7432
G01 X69.0761 Y-44.5500
G01 X55.0203
G01 X52.7201 Y-47.2500
G01 X67.2611
G01 X65.2812 Y-49.9500
G01 X50.1732
G01 X47.3287 Y-52.6500
G01 X63.1223
G01 X60.7686 Y-55.3500
G01 X44.1407
G01 Y-58.0500
G01 X40.5224
G01 X58.1966
G01 X55.3707 Y-60.7500
G01 X36.3518
G01 Y-63.4500
G01 X31.4022
G01 X52.2507
G01 X48.7918
G01 Y-66.1500
G01 X25.2227
G01 Y-68.8500
G01 X16.4894
G01 X44.8965
G00 Z1.0000 F500
G00 X35.2570 Y71.5500 F3000
G00 Z0.5000 F500
G01 Z-1.0000 F120
G01 Y74.2500 F300
G01 X-35.2570
G01 X-28.8915
G01 Y76.9500
G01 X28.8915
G01 X20.2955
G01 Y79.6500
G01 X-20.2955
G00 Z1.0000 F500
G00 X-17.4049 Y68.8500 F3000
G00 Z0.5000 F500
G01 Z-1.0000 F120
G01 Y68.3125 F300
G01 X-18.9782 Y67.8923
G01 X-20.5414 Y67.4358
G01 X-22.0936 Y66.9433
G01 X-23.6340 Y66.4151
G01 X-25.1618 Y65.8515
G01 X-26.6762 Y65.2527
G01 X-28.1764 Y64.6191
G01 X-29.6615 Y63.9510
G01 X-31.1308 Y63.2488
G01 X-32.5835 Y62.5129
G01 X-34.0188 Y61.7436
G01 X-35.4359 Y60.9413
G01 X-36.8341 Y60.1065
G01 X-38.2127 Y59.2397
G01 X-39.5709 Y58.3412
G01 X-40.9080 Y57.4117
G01 X-42.2232 Y56.4514
G01 X-43.5160 Y55.4611
G01 X-44.7855 Y54.4411
G01 X-46.0311 Y53.3921
G01 X-47.2521 Y52.3147
G01 X-48.4479 Y51.2092
G01 X-49.6179 Y50.0765
G01 X-50.7614 Y48.9171
G01 X-51.8778 Y47.7315
G01 X-52.9665 Y46.5205
G01 X-54.0270 Y45.2846
G01 X-55.0586 Y44.0246
G01 X-56.0609 Y42.7411
G01 X-57.0333 Y41.4348
G01 X-57.9752 Y40.1064
G01 X-58.8861 Y38.7566
G01 X-59.7657 Y37.3861
G01 X-60.6134 Y35.9956
G01 X-61.4287 Y34.5859
G01 X-62.2112 Y33.1578
G01 X-62.9606 Y31.7120
G01 X-63.6764 Y30.2493
G01 X-64.3581 Y28.7704
G01 X-65.0056 Y27.2762
G01 X-65.6183 Y25.7674
G01 X-66.1961 Y24.2448
G01 X-66.7385 Y22.7093
G01 X-67.2453 Y21.1617
G01 X-67.7162 Y19.6029
G01 X-68.1510 Y18.0335
G01 X-68.5494 Y16.4545
G01 X-68.9113 Y14.8668
G01 X-69.2364 Y13.2711
G01 X-69.5245 Y11.6683
G01 X-69.7755 Y10.0593
G01 X-69.9894 Y8.4449
G01 X-70.1658 Y6.8260
G01 X-70.3048 Y5.2035
G01 X-70.4063 Y3.5782
G01 X-70.4703 Y1.9510
G01 X-70.4966 Y0.3227
G01 X-70.4853 Y-1.3057
G01 X-70.4365 Y-2.9334
G01 X-70.3500 Y-4.5596
G01 X-70.2260 Y-6.1833
G01 X-70.0645 Y-7.8038
G01 X-69.8656 Y-9.4201
G01 X-69.6295 Y-11.0313
G01 X-69.3562 Y-12.6367
G01 X-69.0459 Y-14.2353
G01 X-68.6987 Y-15.8263
G01 X-68.3149 Y-17.4089
G01 X-67.8946 Y-18.9822
G01 X-67.4381 Y-20.5454
G01 X-66.9457 Y-22.0976
G01 X-66.4175 Y-23.6381
G01 X-65.8538 Y-25.1659
G01 X-65.2551 Y-26.6803
G01 X-64.6215 Y-28.1804
G01 X-63.9534 Y-29.6656
G01 X-63.2512 Y-31.1349
G01 X-62.5152 Y-32.5875
G01 X-61.7459 Y-34.0228
G01 X-60.9437 Y-35.4400
G01 X-60.1089 Y-36.8382
G01 X-59.2421 Y-38.2168
G01 X-58.3436 Y-39.5750
G01 X-57.4140 Y-40.9121
G01 X-56.4538 Y-42.2273
G01 X-55.4634 Y-43.5200
G01 X-54.4435 Y-44.7895
G01 X-53.3945 Y-46.0351
G01 X-52.3170 Y-47.2562
G01 X-51.2116 Y-48.4520
G01 X-50.0789 Y-49.6220
G01 X-48.9194 Y-50.7655
G01 X-47.7339 Y-51.8819
G01 X-46.5229 Y-52.9706
G01 X-45.2870 Y-54.0311
G01 X-44.0270 Y-55.0627
G01 X-42.7435 Y-56.0650
G01 X-41.4372 Y-57.0373
G01 X-40.1088 Y-57.9792
G01 X-38.7589 Y-58.8902
G01 X-37.3884 Y-59.7698
G01 X-35.9980 Y-60.6174
G01 X-34.5883 Y-61.4328
G01 X-33.1602 Y-62.2153
G01 X-31.7144 Y-62.9647
G01 X-30.2516 Y-63.6804
G01 X-28.7727 Y-64.3622
G01 X-27.2785 Y-65.0097
G01 X-25.7697 Y-65.6224
G01 X-24.2472 Y-66.2001
G01 X-22.7117 Y-66.7426
G01 X-21.1641 Y-67.2494
G01 X-19.6052 Y-67.7203
G01 X-18.0359 Y-68.1551
G01 X-16.4569 Y-68.5535
G01 X-14.8691 Y-68.9154
G01 X-13.2734 Y-69.2404
G01 X-11.6707 Y-69.5286
G01 X-10.0617 Y-69.7796
G01 X-8.4473 Y-69.9934
G01 X-6.8284 Y-70.1699
G01 X-5.2059 Y-70.3089
G01 X-3.5806 Y-70.4104
G01 X-1.9534 Y-70.4744
G01 X-0.3251 Y-70.5007
G01 X1.3033 Y-70.4894
G01 X2.9311 Y-70.4405
G01 X4.5572 Y-70.3541
G01 X6.1810 Y-70.2300
G01 X7.8014 Y-70.0686
G01 X9.4177 Y-69.8697
G01 X11.0290 Y-69.6335
G01 X12.6343 Y-69.3602
G01 X14.2330 Y-69.0499
G01 X15.8240 Y-68.7028
G01 X17.4066 Y-68.3190
G01 X18.9799 Y-67.8987
G01 X20.5431 Y-67.4422
G01 X22.0953 Y-66.9497
G01 X23.6357 Y-66.4215
G01 X25.1635 Y-65.8579
G01 X26.6779 Y-65.2591
G01 X28.1781 Y-64.6255
G01 X29.6632 Y-63.9575
G01 X31.1325 Y-63.2553
G01 X32.5852 Y-62.5193
G01 X34.0205 Y-61.7500
G01 X35.4376 Y-60.9478
G01 X36.8359 Y-60.1130
G01 X38.2144 Y-59.2461
G01 X39.5726 Y-58.3477
G01 X40.9097 Y-57.4181
G01 X42.2250 Y-56.4579
G01 X43.5177 Y-55.4675
G01 X44.7872 Y-54.4476
G01 X46.0328 Y-53.3986
G01 X47.2538 Y-52.3211
G01 X48.4496 Y-51.2157
G01 X49.6196 Y-50.0829
G01 X50.7631 Y-48.9235
G01 X51.8795 Y-47.7379
G01 X52.9683 Y-46.5269
G01 X54.0287 Y-45.2911
G01 X55.0604 Y-44.0311
G01 X56.0626 Y-42.7476
G01 X57.0350 Y-41.4412
G01 X57.9769 Y-40.1128
G01 X58.8879 Y-38.7630
G01 X59.7674 Y-37.3925
G01 X60.6151 Y-36.0020
G01 X61.4304 Y-34.5924
G01 X62.2130 Y-33.1642
G01 X62.9623 Y-31.7184
G01 X63.6781 Y-30.2557
G01 X64.3599 Y-28.7768
G01 X65.0073 Y-27.2826
G01 X65.6201 Y-25.7738
G01 X66.1978 Y-24.2513
G01 X66.7402 Y-22.7158
G01 X67.2470 Y-21.1682
G01 X67.7179 Y-19.6093
G01 X68.1527 Y-18.0399
G01 X68.5512 Y-16.4610
G01 X68.9130 Y-14.8732
G01 X69.2381 Y-13.2775
G01 X69.5262 Y-11.6747
G01 X69.7773 Y-10.0657
G01 X69.9911 Y-8.4514
G01 X70.1675 Y-6.8325
G01 X70.3066 Y-5.2099
G01 X70.4081 Y-3.5846
G01 X70.4720 Y-1.9574
G01 X70.4983 Y-0.3292
G01 X70.4871 Y1.2993
G01 X70.4382 Y2.9270
G01 X70.3517 Y4.5532
G01 X70.2277 Y6.1769
G01 X70.0662 Y7.7973
G01 X69.8673 Y9.4136
G01 X69.6312 Y11.0249
G01 X69.3579 Y12.6303
G01 X69.0476 Y14.2289
G01 X68.7004 Y15.8199
G01 X68.3166 Y17.4025
G01 X67.8963 Y18.9758
G01 X67.4399 Y20.5390
G01 X66.9474 Y22.0912
G01 X66.4192 Y23.6316
G01 X65.8556 Y25.1595
G01 X65.2568 Y26.6739
G01 X64.6232 Y28.1740
G01 X63.9551 Y29.6591
G01 X63.2529 Y31.1284
G01 X62.5170 Y32.5811
G01 X61.7477 Y34.0164
G01 X60.9454 Y35.4336
G01 X60.1106 Y36.8318
G01 X59.2438 Y38.2104
G01 X58.3453 Y39.5686
G01 X57.4157 Y40.9056
G01 X56.4555 Y42.2209
G01 X55.4652 Y43.5136
G01 X54.4452 Y44.7831
G01 X53.3962 Y46.0287
G01 X52.3187 Y47.2497
G01 X51.2133 Y48.4456
G01 X50.0806 Y49.6155
G01 X48.9211 Y50.7590
G01 X47.7356 Y51.8755
G01 X46.5246 Y52.9642
G01 X45.2887 Y54.0247
G01 X44.0287 Y55.0563
G01 X42.7452 Y56.0586
G01 X41.4389 Y57.0309
G01 X40.1105 Y57.9728
G01 X38.7606 Y58.8838
G01 X37.3901 Y59.7634
G01 X35.9997 Y60.6110
G01 X34.5900 Y61.4263
G01 X33.1619 Y62.2089
G01 X31.7161 Y62.9582
G01 X30.2533 Y63.6740
G01 X28.7745 Y64.3558
G01 X27.2802 Y65.0032
G01 X25.7714 Y65.6160
G01 X24.2489 Y66.1937
G01 X22.7134 Y66.7361
G01 X21.1658 Y67.2429
G01 X19.6069 Y67.7139
G01 X18.0376 Y68.1487
G01 X16.4586 Y68.5471
G01 X14.8708 Y68.9089
G01 X13.2752 Y69.2340
G01 X11.6724 Y69.5222
G01 X10.0634 Y69.7732
G01 X8.4490 Y69.9870
G01 X6.8301 Y70.1635
G01 X5.2076 Y70.3025
G01 X3.5823 Y70.4040
G01 X1.9551 Y70.4679
G01 X0.3268 Y70.4943
G01 X-1.3016 Y70.4830
G01 X-2.9293 Y70.4341
G01 X-4.5555 Y70.3476
G01 X-6.1793 Y70.2236
G01 X-7.7997 Y70.0621
G01 X-9.4160 Y69.8633
G01 X-11.0272 Y69.6271
G01 X-12.6326 Y69.3538
G01 X-14.2312 Y69.0435
G01 X-15.8223 Y68.6963
G01 X-17.4049 Y68.3125
G01 Y68.8500
G00 Z1.0000 F500
G00 X-20.2544 Y79.6500 F3000
G00 Z0.5000 F500
G01 Z-1.0000 F120
G01 Y79.9702 F300
G01 X-18.5049 Y80.3930
G01 X-16.7467 Y80.7776
G01 X-14.9805 Y81.1237
G01 X-13.2072 Y81.4312
G01 X-11.4275 Y81.7000
G01 X-9.6425 Y81.9298
G01 X-7.8528 Y82.1207
G01 X-6.0594 Y82.2725
G01 X-4.2632 Y82.3851
G01 X-2.4649 Y82.4585
G01 X-0.6654 Y82.4927
G01 X1.1344 Y82.4876
G01 X2.9337 Y82.4432
G01 X4.7315 Y82.3596
G01 X6.5271 Y82.2368
G01 X8.3196 Y82.0749
G01 X10.1082 Y81.8739
G01 X11.8919 Y81.6339
G01 X13.6699 Y81.3551
G01 X15.4415 Y81.0375
G01 X17.2057 Y80.6814
G01 X18.9618 Y80.2869
G01 X20.7088 Y79.8541
G01 X22.4459 Y79.3834
G01 X24.1724 Y78.8748
G01 X25.8873 Y78.3288
G01 X27.5900 Y77.7454
G01 X29.2795 Y77.1251
G01 X30.9550 Y76.4680
G01 X32.6159 Y75.7745
G01 X34.2612 Y75.0450
G01 X35.8902 Y74.2797
G01 X37.5021 Y73.4791
G01 X39.0962 Y72.6436
G01 X40.6717 Y71.7734
G01 X42.2278 Y70.8691
G01 X43.7638 Y69.9311
G01 X45.2790 Y68.9597
G01 X46.7726 Y67.9556
G01 X48.2440 Y66.9191
G01 X49.6924 Y65.8507
G01 X51.1172 Y64.7510
G01 X52.5176 Y63.6205
G01 X53.8931 Y62.4597
G01 X55.2429 Y61.2692
G01 X56.5664 Y60.0495
G01 X57.8629 Y58.8013
G01 X59.1320 Y57.5250
G01 X60.3729 Y56.2214
G01 X61.5850 Y54.8910
G01 X62.7679 Y53.5345
G01 X63.9209 Y52.1525
G01 X65.0434 Y50.7457
G01 X66.1350 Y49.3147
G01 X67.1951 Y47.8602
G01 X68.2233 Y46.3830
G01 X69.2190 Y44.8837
G01 X70.1817 Y43.3630
G01 X71.1110 Y41.8217
G01 X72.0065 Y40.2605
G01 X72.8677 Y38.6801
G01 X73.6942 Y37.0813
G01 X74.4857 Y35.4649
G01 X75.2417 Y33.8316
G01 X75.9619 Y32.1822
G01 X76.6459 Y30.5174
G01 X77.2935 Y28.8381
G01 X77.9042 Y27.1452
G01 X78.4779 Y25.4392
G01 X79.0143 Y23.7212
G01 X79.5130 Y21.9919
G01 X79.9739 Y20.2521
G01 X80.3967 Y18.5027
G01 X80.7813 Y16.7445
G01 X81.1274 Y14.9782
G01 X81.4349 Y13.2049
G01 X81.7037 Y11.4253
G01 X81.9335 Y9.6402
G01 X82.1244 Y7.8506
G01 X82.2762 Y6.0572
G01 X82.3888 Y4.2609
G01 X82.4622 Y2.4626
G01 X82.4964 Y0.6631
G01 X82.4913 Y-1.1366
G01 X82.4469 Y-2.9359
G01 X82.3633 Y-4.7338
G01 X82.2405 Y-6.5294
G01 X82.0786 Y-8.3219
G01 X81.8776 Y-10.1104
G01 X81.6376 Y-11.8941
G01 X81.3588 Y-13.6722
G01 X81.0412 Y-15.4438
G01 X80.6851 Y-17.2080
G01 X80.2906 Y-18.9640
G01 X79.8578 Y-20.7110
G01 X79.3871 Y-22.4481
G01 X78.8785 Y-24.1746
G01 X78.3325 Y-25.8896
G01 X77.7491 Y-27.5922
G01 X77.1288 Y-29.2817
G01 X76.4717 Y-30.9573
G01 X75.7782 Y-32.6181
G01 X75.0487 Y-34.2634
G01 X74.2834 Y-35.8924
G01 X73.4828 Y-37.5044
G01 X72.6473 Y-39.0985
G01 X71.7771 Y-40.6739
G01 X70.8728 Y-42.2300
G01 X69.9348 Y-43.7661
G01 X68.9634 Y-45.2812
G01 X67.9593 Y-46.7749
G01 X66.9228 Y-48.2463
G01 X65.8544 Y-49.6947
G01 X64.7547 Y-51.1194
G01 X63.6242 Y-52.5199
G01 X62.4634 Y-53.8953
G01 X61.2729 Y-55.2451
G01 X60.0532 Y-56.5686
G01 X58.8050 Y-57.8652
G01 X57.5287 Y-59.1342
G01 X56.2251 Y-60.3751
G01 X54.8947 Y-61.5873
G01 X53.5382 Y-62.7701
G01 X52.1562 Y-63.9231
G01 X50.7494 Y-65.0457
G01 X49.3184 Y-66.1373
G01 X47.8639 Y-67.1974
G01 X46.3867 Y-68.2255
G01 X44.8874 Y-69.2212
G01 X43.3667 Y-70.1839
G01 X41.8254 Y-71.1132
G01 X40.2642 Y-72.0087
G01 X38.6838 Y-72.8699
G01 X37.0850 Y-73.6965
G01 X35.4686 Y-74.4879
G01 X33.8353 Y-75.2439
G01 X32.1859 Y-75.9641
G01 X30.5211 Y-76.6481
G01 X28.8418 Y-77.2957
G01 X27.1489 Y-77.9065
G01 X25.4429 Y-78.4802
G01 X23.7249 Y-79.0165
G01 X21.9956 Y-79.5152
G01 X20.2558 Y-79.9761
G01 X18.5064 Y-80.3990
G01 X16.7481 Y-80.7835
G01 X14.9819 Y-81.1297
G01 X13.2086 Y-81.4372
G01 X11.4290 Y-81.7059
G01 X9.6439 Y-81.9358
G01 X7.8543 Y-82.1266
G01 X6.0609 Y-82.2784
G01 X4.2646 Y-82.3911
G01 X2.4663 Y-82.4645
G01 X0.6668 Y-82.4986
G01 X-1.1329 Y-82.4935
G01 X-2.9322 Y-82.4492
G01 X-4.7301 Y-82.3656
G01 X-6.5257 Y-82.2428
G01 X-8.3182 Y-82.0808
G01 X-10.1067 Y-81.8798
G01 X-11.8904 Y-81.6398
G01 X-13.6685 Y-81.3610
G01 X-15.4401 Y-81.0434
G01 X-17.2043 Y-80.6873
G01 X-18.9603 Y-80.2928
G01 X-20.7073 Y-79.8601
G01 X-22.4444 Y-79.3893
G01 X-24.1709 Y-78.8808
G01 X-25.8859 Y-78.3347
G01 X-27.5885 Y-77.7514
G01 X-29.2780 Y-77.1310
G01 X-30.9536 Y-76.4739
G01 X-32.6144 Y-75.7805
G01 X-34.2597 Y-75.0509
G01 X-35.8887 Y-74.2857
G01 X-37.5007 Y-73.4851
G01 X-39.0948 Y-72.6495
G01 X-40.6702 Y-71.7794
G01 X-42.2263 Y-70.8750
G01 X-43.7624 Y-69.9370
G01 X-45.2775 Y-68.9657
G01 X-46.7712 Y-67.9615
G01 X-48.2426 Y-66.9250
G01 X-49.6910 Y-65.8567
G01 X-51.1157 Y-64.7570
G01 X-52.5162 Y-63.6265
G01 X-53.8916 Y-62.4657
G01 X-55.2414 Y-61.2752
G01 X-56.5649 Y-60.0555
G01 X-57.8615 Y-58.8072
G01 X-59.1305 Y-57.5310
G01 X-60.3714 Y-56.2273
G01 X-61.5836 Y-54.8969
G01 X-62.7664 Y-53.5404
G01 X-63.9194 Y-52.1584
G01 X-65.0420 Y-50.7516
G01 X-66.1336 Y-49.3206
G01 X-67.1937 Y-47.8662
G01 X-68.2218 Y-46.3890
G01 X-69.2175 Y-44.8897
G01 X-70.1802 Y-43.3690
G01 X-71.1095 Y-41.8277
G01 X-72.0050 Y-40.2665
G01 X-72.8662 Y-38.6861
G01 X-73.6928 Y-37.0873
G01 X-74.4842 Y-35.4708
G01 X-75.2402 Y-33.8375
G01 X-75.9604 Y-32.1881
G01 X-76.6444 Y-30.5234
G01 X-77.2920 Y-28.8441
G01 X-77.9028 Y-27.1511
G01 X-78.4765 Y-25.4452
G01 X-79.0128 Y-23.7272
G01 X-79.5116 Y-21.9978
G01 X-79.9724 Y-20.2581
G01 X-80.3953 Y-18.5086
G01 X-80.7798 Y-16.7504
G01 X-81.1260 Y-14.9842
G01 X-81.4335 Y-13.2109
G01 X-81.7022 Y-11.4312
G01 X-81.9321 Y-9.6462
G01 X-82.1229 Y-7.8565
G01 X-82.2747 Y-6.0631
G01 X-82.3874 Y-4.2669
G01 X-82.4608 Y-2.4686
G01 X-82.4949 Y-0.6691
G01 X-82.4898 Y1.1307
G01 X-82.4455 Y2.9300
G01 X-82.3619 Y4.7278
G01 X-82.2391 Y6.5234
G01 X-82.0771 Y8.3159
G01 X-81.8761 Y10.1045
G01 X-81.6361 Y11.8882
G01 X-81.3573 Y13.6663
G01 X-81.0397 Y15.4378
G01 X-80.6836 Y17.2020
G01 X-80.2891 Y18.9581
G01 X-79.8564 Y20.7051
G01 X-79.3856 Y22.4422
G01 X-78.8771 Y24.1687
G01 X-78.3310 Y25.8836
G01 X-77.7477 Y27.5863
G01 X-77.1273 Y29.2758
G01 X-76.4702 Y30.9513
G01 X-75.7768 Y32.6122
G01 X-75.0472 Y34.2575
G01 X-74.2820 Y35.8865
G01 X-73.4814 Y37.4984
G01 X-72.6458 Y39.0925
G01 X-71.7757 Y40.6680
G01 X-70.8713 Y42.2241
G01 X-69.9333 Y43.7601
G01 X-68.9620 Y45.2753
G01 X-67.9578 Y46.7689
G01 X-66.9213 Y48.2403
G01 X-65.8530 Y49.6887
G01 X-64.7533 Y51.1135
G01 X-63.6228 Y52.5139
G01 X-62.4620 Y53.8894
G01 X-61.2715 Y55.2392
G01 X-60.0518 Y56.5627
G01 X-58.8035 Y57.8592
G01 X-57.5273 Y59.1283
G01 X-56.2236 Y60.3692
G01 X-54.8932 Y61.5813
G01 X-53.5367 Y62.7642
G01 X-52.1547 Y63.9172
G01 X-50.7479 Y65.0397
G01 X-49.3169 Y66.1313
G01 X-47.8625 Y67.1914
G01 X-46.3853 Y68.2196
G01 X-44.8860 Y69.2153
G01 X-43.3653 Y70.1780
G01 X-41.8240 Y71.1073
G01 X-40.2628 Y72.0028
G01 X-38.6824 Y72.8640
G01 X-37.0836 Y73.6905
G01 X-35.4671 Y74.4820
G01 X-33.8338 Y75.2380
G01 X-32.1844 Y75.9582
G01 X-30.5197 Y76.6422
G01 X-28.8404 Y77.2898
G01 X-27.1474 Y77.9005
G01 X-25.4415 Y78.4742
G01 X-23.7235 Y79.0106
G01 X-21.9941 Y79.5093
G01 X-20.2544 Y79.9702
G01 Y79.6500
G00 Z1.0000 F500
G00 X-20.2955 Y-79.6500 F3000
G00 Z-0.5000 F500
G01 Z-2.0000 F120
G01 X20.2955 F300
G01 Y-76.9500
G01 X28.8915
G01 X-28.8915
G01 Y-74.2500
G01 X-35.2570
G01 X35.2570
G01 Y-71.5500
G01 X40.4554
G01 X-40.4554
G01 Y-68.8500
G01 X-44.8965
G01 X-16.4909
G01 X-25.2232
G01 Y-66.1500
G01 X-48.7918
G01 Y-63.4500
G01 X-52.2507
G01 X-31.4027
G01 X-36.3512
G01 Y-60.7500
G01 X-55.3707
G01 X-58.1966 Y-58.0500
G01 X-40.5238
G01 X-44.1411
G01 Y-55.3500
G01 X-60.7686
G01 X-63.1223 Y-52.6500
G01 X-47.3300
G01 X-50.1738 Y-49.9500
G01 X-65.2812
G01 X-67.2611 Y-47.2500
G01 X-52.7199
G01 X-55.0207 Y-44.5500
G01 X-69.0761
G01 X-70.7432 Y-41.8500
G01 X-57.1009
G01 X-58.9844 Y-39.1500
G01 X-72.2738
G01 X-73.6752 Y-36.4500
G01 X-60.6916
G01 X-62.2358 Y-33.7500
G01 X-74.9466
G01 X-76.1060 Y-31.0500
G01 X-63.6261
G01 X-64.8712 Y-28.3500
G01 X-77.1538
G01 X-78.0903 Y-25.6500
G01 X-65.9852
G01 X-66.9748 Y-22.9500
G01 X-78.9305
G01 X-79.6617 Y-20.2500
G01 X-67.8392
G01 X-68.5851 Y-17.5500
G01 X-80.3022
G01 X-80.8430 Y-14.8500
G01 X-69.2221
G01 X-69.7456 Y-12.1500
G01 X-81.2938
G01 X-81.6509 Y-9.4500
G01 X-70.1611
G01 X-70.4769 Y-6.7500
G01 X-81.9188
G01 X-82.0963 Y-4.0500
G01 X-70.6787
G01 X-70.7841 Y-1.3500
G01 X-82.1852
G01 Y1.3500
G01 X-70.7835
G01 X-70.6794 Y4.0500
G01 X-82.0963
G01 X-81.9188 Y6.7500
G01 X-70.4774
G01 X-70.1619 Y9.4500
G01 X-81.6509
G01 X-81.2938 Y12.1500
G01 X-69.7459
G01 X-69.2231 Y14.8500
G01 X-80.8430
G01 X-80.3022 Y17.5500
G01 X-68.5851
G01 X-67.8383 Y20.2500
G01 X-79.6617
G01 X-78.9305 Y22.9500
G01 X-66.9744
G01 X-65.9849 Y25.6500
G01 X-78.0903
G01 X-77.1538 Y28.3500
G01 X-64.8707
G01 X-63.6267 Y31.0500
G01 X-76.1060
G01 X-74.9466 Y33.7500
G01 X-62.2353
G01 X-60.6910 Y36.4500
G01 X-73.6752
G01 X-72.2738 Y39.1500
G01 X-58.9853
G01 X-57.1008 Y41.8500
G01 X-70.7432
G01 X-69.0761 Y44.5500
G01 X-55.0198
G01 X-52.7210 Y47.2500
G01 X-67.2611
G01 X-65.2812 Y49.9500
G01 X-50.1732
G01 X-47.3298 Y52.6500
G01 X-63.1223
G01 X-60.7686 Y55.3500
G01 X-44.1403
G01 Y58.0500
G01 X-40.5224
G01 X-58.1966
G01 X-55.3707 Y60.7500
G01 X-36.3502
G01 Y63.4500
G01 X-31.4015
G01 X-52.2507
G01 X-48.7918
G01 Y66.1500
G01 X-25.2227
G01 Y68.8500
G01 X-16.4932
G01 X-44.8965
G01 X-40.4554
G01 Y71.5500
G01 X40.4554
G01 Y68.8500
G01 X44.8965
G01 X16.4915
G01 X25.2232
G01 Y66.1500
G01 X48.7918
G01 Y63.4500
G01 X52.2507
G01 X31.4027
G01 X36.3512
G01 Y60.7500
G01 X55.3707
G01 X58.1966 Y58.0500
G01 X40.5226
G01 X44.1413
G01 Y55.3500
G01 X60.7686
G01 X63.1223 Y52.6500
G01 X47.3294
G01 X50.1738 Y49.9500
G01 X65.2812
G01 X67.2611 Y47.2500
G01 X52.7208
G01 X55.0204 Y44.5500
G01 X69.0761
G01 X70.7432 Y41.8500
G01 X57.1002
G01 X58.9851 Y39.1500
G01 X72.2738
G01 X73.6752 Y36.4500
G01 X60.6918
G01 X62.2357 Y33.7500
G01 X74.9466
G01 X76.1060 Y31.0500
G01 X63.6262
G01 X64.8709 Y28.3500
G01 X77.1538
G01 X78.0903 Y25.6500
G01 X65.9849
G01 X66.9739 Y22.9500
G01 X78.9305
G01 X79.6617 Y20.2500
G01 X67.8388
G01 X68.5853 Y17.5500
G01 X80.3022
G01 X80.8430 Y14.8500
G01 X69.2230
G01 X69.7456 Y12.1500
G01 X81.2938
G01 X81.6509 Y9.4500
G01 X70.1611
G01 X70.4769 Y6.7500
G01 X81.9188
G01 X82.0963 Y4.0500
G01 X70.6791
G01 X70.7832 Y1.3500
G01 X82.1852
G01 Y-1.3500
G01 X70.7837
G01 X70.6792 Y-4.0500
G01 X82.0963
G01 X81.9188 Y-6.7500
G01 X70.4764
G01 X70.1616 Y-9.4500
G01 X81.6509
G01 X81.2938 Y-12.1500
G01 X69.7459
G01 X69.2231 Y-14.8500
G01 X80.8430
G01 X80.3022 Y-17.5500
G01 X68.5851
G01 X67.8392 Y-20.2500
G01 X79.6617
G01 X78.9305 Y-22.9500
G01 X66.9743
G01 X65.9849 Y-25.6500
G01 X78.0903
G01 X77.1538 Y-28.3500
G01 X64.8707
G01 X63.6267 Y-31.0500
G01 X76.1060
G01 X74.9466 Y-33.7500
G01 X62.2358
G01 X60.6913 Y-36.4500
G01 X73.6752
G01 X72.2738 Y-39.1500
G01 X58.9853
G01 X57.1008 Y-41.8500
G01 X70.7432
G01 X69.0761 Y-44.5500
G01 X55.0203
G01 X52.7201 Y-47.2500
G01 X67.2611
G01 X65.2812 Y-49.9500
G01 X50.1732
G01 X47.3287 Y-52.6500
G01 X63.1223
G01 X60.7686 Y-55.3500
G01 X44.1407
G01 Y-58.0500
G01 X40.5224
G01 X58.1966
G01 X55.3707 Y-60.7500
G01 X36.3518
G01 Y-63.4500
G01 X31.4022
G01 X52.2507
G01 X48.7918
G01 Y-66.1500
G01 X25.2227
G01 Y-68.8500
G01 X16.4894
G01 X44.8965
G00 Z1.0000 F500
G00 X35.2570 Y71.5500 F3000
G00 Z-0.5000 F500
G01 Z-2.0000 F120
G01 Y74.2500 F300
G01 X-35.2570
G01 X-28.8915
G01 Y76.9500
G01 X28.8915
G01 X20.2955
G01 Y79.6500
G01 X-20.2955
G00 Z1.0000 F500
G00 X-17.4049 Y68.8500 F3000
G00 Z-0.5000 F500
G01 Z-2.0000 F120
G01 Y68.3125 F300
G01 X-18.9782 Y67.8923
G01 X-20.5414 Y67.4358
G01 X-22.0936 Y66.9433
G01 X-23.6340 Y66.4151
G01 X-25.1618 Y65.8515
G01 X-26.6762 Y65.2527
G01 X-28.1764 Y64.6191
G01 X-29.6615 Y63.9510
G01 X-31.1308 Y63.2488
G01 X-32.5835 Y62.5129
G01 X-34.0188 Y61.7436
G01 X-35.4359 Y60.9413
G01 X-36.8341 Y60.1065
G01 X-38.2127 Y59.2397
G01 X-39.5709 Y58.3412
G01 X-40.9080 Y57.4117
G01 X-42.2232 Y56.4514
G01 X-43.5160 Y55.4611
G01 X-44.7855 Y54.4411
G01 X-46.0311 Y53.3921
G01 X-47.2521 Y52.3147
G01 X-48.4479 Y51.2092
G01 X-49.6179 Y50.0765
G01 X-50.7614 Y48.9171
G01 X-51.8778 Y47.7315
G01 X-52.9665 Y46.5205
G01 X-54.0270 Y45.2846
G01 X-55.0586 Y44.0246
G01 X-56.0609 Y42.7411
G01 X-57.0333 Y41.4348
G01 X-57.9752 Y40.1064
G01 X-58.8861 Y38.7566
G01 X-59.7657 Y37.3861
G01 X-60.6134 Y35.9956
G01 X-61.4287 Y34.5859
G01 X-62.2112 Y33.1578
G01 X-62.9606 Y31.7120
G01 X-63.6764 Y30.2493
G01 X-64.3581 Y28.7704
G01 X-65.0056 Y27.2762
G01 X-65.6183 Y25.7674
G01 X-66.1961 Y24.2448
G01 X-66.7385 Y22.7093
G01 X-67.2453 Y21.1617
G01 X-67.7162 Y19.6029
G01 X-68.1510 Y18.0335
G01 X-68.5494 Y16.4545
G01 X-68.9113 Y14.8668
G01 X-69.2364 Y13.2711
G01 X-69.5245 Y11.6683
G01 X-69.7755 Y10.0593
G01 X-69.9894 Y8.4449
G01 X-70.1658 Y6.8260
G01 X-70.3048 Y5.2035
G01 X-70.4063 Y3.5782
G01 X-70.4703 Y1.9510
G01 X-70.4966 Y0.3227
G01 X-70.4853 Y-1.3057
G01 X-70.4365 Y-2.9334
G01 X-70.3500 Y-4.5596
G01 X-70.2260 Y-6.1833
G01 X-70.0645 Y-7.8038
G01 X-69.8656 Y-9.4201
G01 X-69.6295 Y-11.0313
G01 X-69.3562 Y-12.6367
G01 X-69.0459 Y-14.2353
G01 X-68.6987 Y-15.8263
G01 X-68.3149 Y-17.4089
G01 X-67.8946 Y-18.9822
G01 X-67.4381 Y-20.5454
G01 X-66.9457 Y-22.0976
G01 X-66.4175 Y-23.6381
G01 X-65.8538 Y-25.1659
G01 X-65.2551 Y-26.6803
G01 X-64.6215 Y-28.1804
G01 X-63.9534 Y-29.6656
G01 X-63.2512 Y-31.1349
G01 X-62.5152 Y-32.5875
G01 X-61.7459 Y-34.0228
G01 X-60.9437 Y-35.4400
G01 X-60.1089 Y-36.8382
G01 X-59.2421 Y-38.2168
G01 X-58.3436 Y-39.5750
G01 X-57.4140 Y-40.9121
G01 X-56.4538 Y-42.2273
G01 X-55.4634 Y-43.5200
G01 X-54.4435 Y-44.7895
G01 X-53.3945 Y-46.0351
G01 X-52.3170 Y-47.2562
G01 X-51.2116 Y-48.4520
G01 X-50.0789 Y-49.6220
G01 X-48.9194 Y-50.7655
G01 X-47.7339 Y-51.8819
G01 X-46.5229 Y-52.9706
G01 X-45.2870 Y-54.0311
G01 X-44.0270 Y-55.0627
G01 X-42.7435 Y-56.0650
G01 X-41.4372 Y-57.0373
G01 X-40.1088 Y-57.9792
G01 X-38.7589 Y-58.8902
G01 X-37.3884 Y-59.7698
G01 X-35.9980 Y-60.6174
G01 X-34.5883 Y-61.4328
G01 X-33.1602 Y-62.2153
G01 X-31.7144 Y-62.9647
G01 X-30.2516 Y-63.6804
G01 X-28.7727 Y-64.3622
G01 X-27.2785 Y-65.0097
G01 X-25.7697 Y-65.6224
G01 X-24.2472 Y-66.2001
G01 X-22.7117 Y-66.7426
G01 X-21.1641 Y-67.2494
G01 X-19.6052 Y-67.7203
G01 X-18.0359 Y-68.1551
G01 X-16.4569 Y-68.5535
G01 X-14.8691 Y-68.9154
G01 X-13.2734 Y-69.2404
G01 X-11.6707 Y-69.5286
G01 X-10.0617 Y-69.7796
G01 X-8.4473 Y-69.9934
G01 X-6.8284 Y-70.1699
G01 X-5.2059 Y-70.3089
G01 X-3.5806 Y-70.4104
G01 X-1.9534 Y-70.4744
G01 X-0.3251 Y-70.5007
G01 X1.3033 Y-70.4894
G01 X2.9311 Y-70.4405
G01 X4.5572 Y-70.3541
G01 X6.1810 Y-70.2300
G01 X7.8014 Y-70.0686
G01 X9.4177 Y-69.8697
G01 X11.0290 Y-69.6335
G01 X12.6343 Y-69.3602
G01 X14.2330 Y-69.0499
G01 X15.8240 Y-68.7028
G01 X17.4066 Y-68.3190
G01 X18.9799 Y-67.8987
G01 X20.5431 Y-67.4422
G01 X22.0953 Y-66.9497
G01 X23.6357 Y-66.4215
G01 X25.1635 Y-65.8579
G01 X26.6779 Y-65.2591
G01 X28.1781 Y-64.6255
G01 X29.6632 Y-63.9575
G01 X31.1325 Y-63.2553
G01 X32.5852 Y-62.5193
G01 X34.0205 Y-61.7500
G01 X35.4376 Y-60.9478
G01 X36.8359 Y-60.1130
G01 X38.2144 Y-59.2461
G01 X39.5726 Y-58.3477
G01 X40.9097 Y-57.4181
G01 X42.2250 Y-56.4579
G01 X43.5177 Y-55.4675
G01 X44.7872 Y-54.4476
G01 X46.0328 Y-53.3986
G01 X47.2538 Y-52.3211
G01 X48.4496 Y-51.2157
G01 X49.6196 Y-50.0829
G01 X50.7631 Y-48.9235
G01 X51.8795 Y-47.7379
G01 X52.9683 Y-46.5269
G01 X54.0287 Y-45.2911
G01 X55.0604 Y-44.0311
G01 X56.0626 Y-42.7476
G01 X57.0350 Y-41.4412
G01 X57.9769 Y-40.1128
G01 X58.8879 Y-38.7630
G01 X59.7674 Y-37.3925
G01 X60.6151 Y-36.0020
G01 X61.4304 Y-34.5924
G01 X62.2130 Y-33.1642
G01 X62.9623 Y-31.7184
G01 X63.6781 Y-30.2557
G01 X64.3599 Y-28.7768
G01 X65.0073 Y-27.2826
G01 X65.6201 Y-25.7738
G01 X66.1978 Y-24.2513
G01 X66.7402 Y-22.7158
G01 X67.2470 Y-21.1682
G01 X67.7179 Y-19.6093
G01 X68.1527 Y-18.0399
G01 X68.5512 Y-16.4610
G01 X68.9130 Y-14.8732
G01 X69.2381 Y-13.2775
G01 X69.5262 Y-11.6747
G01 X69.7773 Y-10.0657
G01 X69.9911 Y-8.4514
G01 X70.1675 Y-6.8325
G01 X70.3066 Y-5.2099
G01 X70.4081 Y-3.5846
G01 X70.4720 Y-1.9574
G01 X70.4983 Y-0.3292
G01 X70.4871 Y1.2993
G01 X70.4382 Y2.9270
G01 X70.3517 Y4.5532
G01 X70.2277 Y6.1769
G01 X70.0662 Y7.7973
G01 X69.8673 Y9.4136
G01 X69.6312 Y11.0249
G01 X69.3579 Y12.6303
G01 X69.0476 Y14.2289
G01 X68.7004 Y15.8199
G01 X68.3166 Y17.4025
G01 X67.8963 Y18.9758
G01 X67.4399 Y20.5390
G01 X66.9474 Y22.0912
G01 X66.4192 Y23.6316
G01 X65.8556 Y25.1595
G01 X65.2568 Y26.6739
G01 X64.6232 Y28.1740
G01 X63.9551 Y29.6591
G01 X63.2529 Y31.1284
G01 X62.5170 Y32.5811
G01 X61.7477 Y34.0164
G01 X60.9454 Y35.4336
G01 X60.1106 Y36.8318
G01 X59.2438 Y38.2104
G01 X58.3453 Y39.5686
G01 X57.4157 Y40.9056
G01 X56.4555 Y42.2209
G01 X55.4652 Y43.5136
G01 X54.4452 Y44.7831
G01 X53.3962 Y46.0287
G01 X52.3187 Y47.2497
G01 X51.2133 Y48.4456
G01 X50.0806 Y49.6155
G01 X48.9211 Y50.7590
G01 X47.7356 Y51.8755
G01 X46.5246 Y52.9642
G01 X45.2887 Y54.0247
G01 X44.0287 Y55.0563
G01 X42.7452 Y56.0586
G01 X41.4389 Y57.0309
G01 X40.1105 Y57.9728
G01 X38.7606 Y58.8838
G01 X37.3901 Y59.7634
G01 X35.9997 Y60.6110
G01 X34.5900 Y61.4263
G01 X33.1619 Y62.2089
G01 X31.7161 Y62.9582
G01 X30.2533 Y63.6740
G01 X28.7745 Y64.3558
G01 X27.2802 Y65.0032
G01 X25.7714 Y65.6160
G01 X24.2489 Y66.1937
G01 X22.7134 Y66.7361
G01 X21.1658 Y67.2429
G01 X19.6069 Y67.7139
G01 X18.0376 Y68.1487
G01 X16.4586 Y68.5471
G01 X14.8708 Y68.9089
G01 X13.2752 Y69.2340
G01 X11.6724 Y69.5222
G01 X10.0634 Y69.7732
G01 X8.4490 Y69.9870
G01 X6.8301 Y70.1635
G01 X5.2076 Y70.3025
G01 X3.5823 Y70.4040
G01 X1.9551 Y70.4679
G01 X0.3268 Y70.4943
G01 X-1.3016 Y70.4830
G01 X-2.9293 Y70.4341
G01 X-4.5555 Y70.3476
G01 X-6.1793 Y70.2236
G01 X-7.7997 Y70.0621
G01 X-9.4160 Y69.8633
G01 X-11.0272 Y69.6271
G01 X-12.6326 Y69.3538
G01 X-14.2312 Y69.0435
G01 X-15.8223 Y68.6963
G01 X-17.4049 Y68.3125
G01 Y68.8500
G00 Z1.0000 F500
G00 X-20.2544 Y79.6500 F3000
G00 Z-0.5000 F500
G01 Z-2.0000 F120
G01 Y79.9702 F300
G01 X-18.5049 Y80.3930
G01 X-16.7467 Y80.7776
G01 X-14.9805 Y81.1237
G01 X-13.2072 Y81.4312
G01 X-11.4275 Y81.7000
G01 X-9.6425 Y81.9298
G01 X-7.8528 Y82.1207
G01 X-6.0594 Y82.2725
G01 X-4.2632 Y82.3851
G01 X-2.4649 Y82.4585
G01 X-0.6654 Y82.4927
G01 X1.1344 Y82.4876
G01 X2.9337 Y82.4432
G01 X4.7315 Y82.3596
G01 X6.5271 Y82.2368
G01 X8.3196 Y82.0749
G01 X10.1082 Y81.8739
G01 X11.8919 Y81.6339
G01 X13.6699 Y81.3551
G01 X15.4415 Y81.0375
G01 X17.2057 Y80.6814
G01 X18.9618 Y80.2869
G01 X20.7088 Y79.8541
G01 X22.4459 Y79.3834
G01 X24.1724 Y78.8748
G01 X25.8873 Y78.3288
G01 X27.5900 Y77.7454
G01 X29.2795 Y77.1251
G01 X30.9550 Y76.4680
G01 X32.6159 Y75.7745
G01 X34.2612 Y75.0450
G01 X35.8902 Y74.2797
G01 X37.5021 Y73.4791
G01 X39.0962 Y72.6436
G01 X40.6717 Y71.7734
G01 X42.2278 Y70.8691
G01 X43.7638 Y69.9311
G01 X45.2790 Y68.9597
G01 X46.7726 Y67.9556
G01 X48.2440 Y66.9191
G01 X49.6924 Y65.8507
G01 X51.1172 Y64.7510
G01 X52.5176 Y63.6205
G01 X53.8931 Y62.4597
G01 X55.2429 Y61.2692
G01 X56.5664 Y60.0495
G01 X57.8629 Y58.8013
G01 X59.1320 Y57.5250
G01 X60.3729 Y56.2214
G01 X61.5850 Y54.8910
G01 X62.7679 Y53.5345
G01 X63.9209 Y52.1525
G01 X65.0434 Y50.7457
G01 X66.1350 Y49.3147
G01 X67.1951 Y47.8602
G01 X68.2233 Y46.3830
G01 X69.2190 Y44.8837
G01 X70.1817 Y43.3630
G01 X71.1110 Y41.8217
G01 X72.0065 Y40.2605
G01 X72.8677 Y38.6801
G01 X73.6942 Y37.0813
G01 X74.4857 Y35.4649
G01 X75.2417 Y33.8316
G01 X75.9619 Y32.1822
G01 X76.6459 Y30.5174
G01 X77.2935 Y28.8381
G01 X77.9042 Y27.1452
G01 X78.4779 Y25.4392
G01 X79.0143 Y23.7212
G01 X79.5130 Y21.9919
G01 X79.9739 Y20.2521
G01 X80.3967 Y18.5027
G01 X80.7813 Y16.7445
G01 X81.1274 Y14.9782
G01 X81.4349 Y13.2049
G01 X81.7037 Y11.4253
G01 X81.9335 Y9.6402
G01 X82.1244 Y7.8506
G01 X82.2762 Y6.0572
G01 X82.3888 Y4.2609
G01 X82.4622 Y2.4626
G01 X82.4964 Y0.6631
G01 X82.4913 Y-1.1366
G01 X82.4469 Y-2.9359
G01 X82.3633 Y-4.7338
G01 X82.2405 Y-6.5294
G01 X82.0786 Y-8.3219
G01 X81.8776 Y-10.1104
G01 X81.6376 Y-11.8941
G01 X81.3588 Y-13.6722
G01 X81.0412 Y-15.4438
G01 X80.6851 Y-17.2080
G01 X80.2906 Y-18.9640
G01 X79.8578 Y-20.7110
G01 X79.3871 Y-22.4481
G01 X78.8785 Y-24.1746
G01 X78.3325 Y-25.8896
G01 X77.7491 Y-27.5922
G01 X77.1288 Y-29.2817
G01 X76.4717 Y-30.9573
G01 X75.7782 Y-32.6181
G01 X75.0487 Y-34.2634
G01 X74.2834 Y-35.8924
G01 X73.4828 Y-37.5044
G01 X72.6473 Y-39.0985
G01 X71.7771 Y-40.6739
G01 X70.8728 Y-42.2300
G01 X69.9348 Y-43.7661
G01 X68.9634 Y-45.2812
G01 X67.9593 Y-46.7749
G01 X66.9228 Y-48.2463
G01 X65.8544 Y-49.6947
G01 X64.7547 Y-51.1194
G01 X63.6242 Y-52.5199
G01 X62.4634 Y-53.8953
G01 X61.2729 Y-55.2451
G01 X60.0532 Y-56.5686
G01 X58.8050 Y-57.8652
G01 X57.5287 Y-59.1342
G01 X56.2251 Y-60.3751
G01 X54.8947 Y-61.5873
G01 X53.5382 Y-62.7701
G01 X52.1562 Y-63.9231
G01 X50.7494 Y-65.0457
G01 X49.3184 Y-66.1373
G01 X47.8639 Y-67.1974
G01 X46.3867 Y-68.2255
G01 X44.8874 Y-69.2212
G01 X43.3667 Y-70.1839
G01 X41.8254 Y-71.1132
G01 X40.2642 Y-72.0087
G01 X38.6838 Y-72.8699
G01 X37.0850 Y-73.6965
G01 X35.4686 Y-74.4879
G01 X33.8353 Y-75.2439
G01 X32.1859 Y-75.9641
G01 X30.5211 Y-76.6481
G01 X28.8418 Y-77.2957
G01 X27.1489 Y-77.9065
G01 X25.4429 Y-78.4802
G01 X23.7249 Y-79.0165
G01 X21.9956 Y-79.5152
G01 X20.2558 Y-79.9761
G01 X18.5064 Y-80.3990
G01 X16.7481 Y-80.7835
G01 X14.9819 Y-81.1297
G01 X13.2086 Y-81.4372
G01 X11.4290 Y-81.7059
G01 X9.6439 Y-81.9358
G01 X7.8543 Y-82.1266
G01 X6.0609 Y-82.2784
G01 X4.2646 Y-82.3911
G01 X2.4663 Y-82.4645
G01 X0.6668 Y-82.4986
G01 X-1.1329 Y-82.4935
G01 X-2.9322 Y-82.4492
G01 X-4.7301 Y-82.3656
G01 X-6.5257 Y-82.2428
G01 X-8.3182 Y-82.0808
G01 X-10.1067 Y-81.8798
G01 X-11.8904 Y-81.6398
G01 X-13.6685 Y-81.3610
G01 X-15.4401 Y-81.0434
G01 X-17.2043 Y-80.6873
G01 X-18.9603 Y-80.2928
G01 X-20.7073 Y-79.8601
G01 X-22.4444 Y-79.3893
G01 X-24.1709 Y-78.8808
G01 X-25.8859 Y-78.3347
G01 X-27.5885 Y-77.7514
G01 X-29.2780 Y-77.1310
G01 X-30.9536 Y-76.4739
G01 X-32.6144 Y-75.7805
G01 X-34.2597 Y-75.0509
G01 X-35.8887 Y-74.2857
G01 X-37.5007 Y-73.4851
G01 X-39.0948 Y-72.6495
G01 X-40.6702 Y-71.7794
G01 X-42.2263 Y-70.8750
G01 X-43.7624 Y-69.9370
G01 X-45.2775 Y-68.9657
G01 X-46.7712 Y-67.9615
G01 X-48.2426 Y-66.9250
G01 X-49.6910 Y-65.8567
G01 X-51.1157 Y-64.7570
G01 X-52.5162 Y-63.6265
G01 X-53.8916 Y-62.4657
G01 X-55.2414 Y-61.2752
G01 X-56.5649 Y-60.0555
G01 X-57.8615 Y-58.8072
G01 X-59.1305 Y-57.5310
G01 X-60.3714 Y-56.2273
G01 X-61.5836 Y-54.8969
G01 X-62.7664 Y-53.5404
G01 X-63.9194 Y-52.1584
G01 X-65.0420 Y-50.7516
G01 X-66.1336 Y-49.3206
G01 X-67.1937 Y-47.8662
G01 X-68.2218 Y-46.3890
G01 X-69.2175 Y-44.8897
G01 X-70.1802 Y-43.3690
G01 X-71.1095 Y-41.8277
G01 X-72.0050 Y-40.2665
G01 X-72.8662 Y-38.6861
G01 X-73.6928 Y-37.0873
G01 X-74.4842 Y-35.4708
G01 X-75.2402 Y-33.8375
G01 X-75.9604 Y-32.1881
G01 X-76.6444 Y-30.5234
G01 X-77.2920 Y-28.8441
G01 X-77.9028 Y-27.1511
G01 X-78.4765 Y-25.4452
G01 X-79.0128 Y-23.7272
G01 X-79.5116 Y-21.9978
G01 X-79.9724 Y-20.2581
G01 X-80.3953 Y-18.5086
G01 X-80.7798 Y-16.7504
G01 X-81.1260 Y-14.9842
G01 X-81.4335 Y-13.2109
G01 X-81.7022 Y-11.4312
G01 X-81.9321 Y-9.6462
G01 X-82.1229 Y-7.8565
G01 X-82.2747 Y-6.0631
G01 X-82.3874 Y-4.2669
G01 X-82.4608 Y-2.4686
G01 X-82.4949 Y-0.6691
G01 X-82.4898 Y1.1307
G01 X-82.4455 Y2.9300
G01 X-82.3619 Y4.7278
G01 X-82.2391 Y6.5234
G01 X-82.0771 Y8.3159
G01 X-81.8761 Y10.1045
G01 X-81.6361 Y11.8882
G01 X-81.3573 Y13.6663
G01 X-81.0397 Y15.4378
G01 X-80.6836 Y17.2020
G01 X-80.2891 Y18.9581
G01 X-79.8564 Y20.7051
G01 X-79.3856 Y22.4422
G01 X-78.8771 Y24.1687
G01 X-78.3310 Y25.8836
G01 X-77.7477 Y27.5863
G01 X-77.1273 Y29.2758
G01 X-76.4702 Y30.9513
G01 X-75.7768 Y32.6122
G01 X-75.0472 Y34.2575
G01 X-74.2820 Y35.8865
G01 X-73.4814 Y37.4984
G01 X-72.6458 Y39.0925
G01 X-71.7757 Y40.6680
G01 X-70.8713 Y42.2241
G01 X-69.9333 Y43.7601
G01 X-68.9620 Y45.2753
G01 X-67.9578 Y46.7689
G01 X-66.9213 Y48.2403
G01 X-65.8530 Y49.6887
G01 X-64.7533 Y51.1135
G01 X-63.6228 Y52.5139
G01 X-62.4620 Y53.8894
G01 X-61.2715 Y55.2392
G01 X-60.0518 Y56.5627
G01 X-58.8035 Y57.8592
G01 X-57.5273 Y59.1283
G01 X-56.2236 Y60.3692
G01 X-54.8932 Y61.5813
G01 X-53.5367 Y62.7642
G01 X-52.1547 Y63.9172
G01 X-50.7479 Y65.0397
G01 X-49.3169 Y66.1313
G01 X-47.8625 Y67.1914
G01 X-46.3853 Y68.2196
G01 X-44.8860 Y69.2153
G01 X-43.3653 Y70.1780
G01 X-41.8240 Y71.1073
G01 X-40.2628 Y72.0028
G01 X-38.6824 Y72.8640
G01 X-37.0836 Y73.6905
G01 X-35.4671 Y74.4820
G01 X-33.8338 Y75.2380
G01 X-32.1844 Y75.9582
G01 X-30.5197 Y76.6422
G01 X-28.8404 Y77.2898
G01 X-27.1474 Y77.9005
G01 X-25.4415 Y78.4742
G01 X-23.7235 Y79.0106
G01 X-21.9941 Y79.5093
G01 X-20.2544 Y79.9702
G01 Y79.6500
G00 Z1.0000 F500
G00 X-20.2955 Y-79.6500 F3000
G00 Z-1.5000 F500
G01 Z-3.0000 F120
G01 X20.2955 F300
G01 Y-76.9500
G01 X28.8915
G01 X-28.8915
G01 Y-74.2500
G01 X-35.2570
G01 X35.2570
G01 Y-71.5500
G01 X40.4554
G01 X-40.4554
G01 Y-68.8500
G01 X-44.8965
G01 X-16.4909
G01 X-25.2232
G01 Y-66.1500
G01 X-48.7918
G01 Y-63.4500
G01 X-52.2507
G01 X-31.4027
G01 X-36.3512
G01 Y-60.7500
G01 X-55.3707
G01 X-58.1966 Y-58.0500
G01 X-40.5238
G01 X-44.1411
G01 Y-55.3500
G01 X-60.7686
G01 X-63.1223 Y-52.6500
G01 X-47.3300
G01 X-50.1738 Y-49.9500
G01 X-65.2812
G01 X-67.2611 Y-47.2500
G01 X-52.7199
G01 X-55.0207 Y-44.5500
G01 X-69.0761
G01 X-70.7432 Y-41.8500
G01 X-57.1009
G01 X-58.9844 Y-39.1500
G01 X-72.2738
G01 X-73.6752 Y-36.4500
G01 X-60.6916
G01 X-62.2358 Y-33.7500
G01 X-74.9466
G01 X-76.1060 Y-31.0500
G01 X-63.6261
G01 X-64.8712 Y-28.3500
G01 X-77.1538
G01 X-78.0903 Y-25.6500
G01 X-65.9852
G01 X-66.9748 Y-22.9500
G01 X-78.9305
G01 X-79.6617 Y-20.2500
G01 X-67.8392
G01 X-68.5851 Y-17.5500
G01 X-80.3022
G01 X-80.8430 Y-14.8500
G01 X-69.2221
G01 X-69.7456 Y-12.1500
G01 X-81.2938
G01 X-81.6509 Y-9.4500
G01 X-70.1611
G01 X-70.4769 Y-6.7500
G01 X-81.9188
G01 X-82.0963 Y-4.0500
G01 X-70.6787
G01 X-70.7841 Y-1.3500
G01 X-82.1852
G01 Y1.3500
G01 X-70.7835
G01 X-70.6794 Y4.0500
G01 X-82.0963
G01 X-81.9188 Y6.7500
G01 X-70.4774
G01 X-70.1619 Y9.4500
G01 X-81.6509
G01 X-81.2938 Y12.1500
G01 X-69.7459
G01 X-69.2231 Y14.8500
G01 X-80.8430
G01 X-80.3022 Y17.5500
G01 X-68.5851
G01 X-67.8383 Y20.2500
G01 X-79.6617
G01 X-78.9305 Y22.9500
G01 X-66.9744
G01 X-65.9849 Y25.6500
G01 X-78.0903
G01 X-77.1538 Y28.3500
G01 X-64.8707
G01 X-63.6267 Y31.0500
G01 X-76.1060
G01 X-74.9466 Y33.7500
G01 X-62.2353
G01 X-60.6910 Y36.4500
G01 X-73.6752
G01 X-72.2738 Y39.1500
G01 X-58.9853
G01 X-57.1008 Y41.8500
G01 X-70.7432
G01 X-69.0761 Y44.5500
G01 X-55.0198
G01 X-52.7210 Y47.2500
G01 X-67.2611
G01 X-65.2812 Y49.9500
G01 X-50.1732
G01 X-47.3298 Y52.6500
G01 X-63.1223
G01 X-60.7686 Y55.3500
G01 X-44.1403
G01 Y58.0500
G01 X-40.5224
G01 X-58.1966
G01 X-55.3707 Y60.7500
G01 X-36.3502
G01 Y63.4500
G01 X-31.4015
G01 X-52.2507
G01 X-48.7918
G01 Y66.1500
G01 X-25.2227
G01 Y68.8500
G01 X-16.4932
G01 X-44.8965
G01 X-40.4554
G01 Y71.5500
G01 X40.4554
G01 Y68.8500
G01 X44.8965
G01 X16.4915
G01 X25.2232
G01 Y66.1500
G01 X48.7918
G01 Y63.4500
G01 X52.2507
G01 X31.4027
G01 X36.3512
G01 Y60.7500
G01 X55.3707
G01 X58.1966 Y58.0500
G01 X40.5226
G01 X44.1413
G01 Y55.3500
G01 X60.7686
G01 X63.1223 Y52.6500
G01 X47.3294
G01 X50.1738 Y49.9500
G01 X65.2812
G01 X67.2611 Y47.2500
G01 X52.7208
G01 X55.0204 Y44.5500
G01 X69.0761
G01 X70.7432 Y41.8500
G01 X57.1002
G01 X58.9851 Y39.1500
G01 X72.2738
G01 X73.6752 Y36.4500
G01 X60.6918
G01 X62.2357 Y33.7500
G01 X74.9466
G01 X76.1060 Y31.0500
G01 X63.6262
G01 X64.8709 Y28.3500
G01 X77.1538
G01 X78.0903 Y25.6500
G01 X65.9849
G01 X66.9739 Y22.9500
G01 X78.9305
G01 X79.6617 Y20.2500
G01 X67.8388
G01 X68.5853 Y17.5500
G01 X80.3022
G01 X80.8430 Y14.8500
G01 X69.2230
G01 X69.7456 Y12.1500
G01 X81.2938
G01 X81.6509 Y9.4500
G01 X70.1611
G01 X70.4769 Y6.7500
G01 X81.9188
G01 X82.0963 Y4.0500
G01 X70.6791
G01 X70.7832 Y1.3500
G01 X82.1852
G01 Y-1.3500
G01 X70.7837
G01 X70.6792 Y-4.0500
G01 X82.0963
G01 X81.9188 Y-6.7500
G01 X70.4764
G01 X70.1616 Y-9.4500
G01 X81.6509
G01 X81.2938 Y-12.1500
G01 X69.7459
G01 X69.2231 Y-14.8500
G01 X80.8430
G01 X80.3022 Y-17.5500
G01 X68.5851
G01 X67.8392 Y-20.2500
G01 X79.6617
G01 X78.9305 Y-22.9500
G01 X66.9743
G01 X65.9849 Y-25.6500
G01 X78.0903
G01 X77.1538 Y-28.3500
G01 X64.8707
G01 X63.6267 Y-31.0500
G01 X76.1060
G01 X74.9466 Y-33.7500
G01 X62.2358
G01 X60.6913 Y-36.4500
G01 X73.6752
G01 X72.2738 Y-39.1500
G01 X58.9853
G01 X57.1008 Y-41.8500
G01 X70.7432
G01 X69.0761 Y-44.5500
G01 X55.0203
G01 X52.7201 Y-47.2500
G01 X67.2611
G01 X65.2812 Y-49.9500
G01 X50.1732
G01 X47.3287 Y-52.6500
G01 X63.1223
G01 X60.7686 Y-55.3500
G01 X44.1407
G01 Y-58.0500
G01 X40.5224
G01 X58.1966
G01 X55.3707 Y-60.7500
G01 X36.3518
G01 Y-63.4500
G01 X31.4022
G01 X52.2507
G01 X48.7918
G01 Y-66.1500
G01 X25.2227
G01 Y-68.8500
G01 X16.4894
G01 X44.8965
G00 Z1.0000 F500
G00 X35.2570 Y71.5500 F3000
G00 Z-1.5000 F500
G01 Z-3.0000 F120
G01 Y74.2500 F300
G01 X-35.2570
G01 X-28.8915
G01 Y76.9500
G01 X28.8915
G01 X20.2955
G01 Y79.6500
G01 X-20.2955
G00 Z1.0000 F500
G00 X-17.4049 Y68.8500 F3000
G00 Z-1.5000 F500
G01 Z-3.0000 F120
G01 Y68.3125 F300
G01 X-18.9782 Y67.8923
G01 X-20.5414 Y67.4358
G01 X-22.0936 Y66.9433
G01 X-23.6340 Y66.4151
G01 X-25.1618 Y65.8515
G01 X-26.6762 Y65.2527
G01 X-28.1764 Y64.6191
G01 X-29.6615 Y63.9510
G01 X-31.1308 Y63.2488
G01 X-32.5835 Y62.5129
G01 X-34.0188 Y61.7436
G01 X-35.4359 Y60.9413
G01 X-36.8341 Y60.1065
G01 X-38.2127 Y59.2397
G01 X-39.5709 Y58.3412
G01 X-40.9080 Y57.4117
G01 X-42.2232 Y56.4514
G01 X-43.5160 Y55.4611
G01 X-44.7855 Y54.4411
G01 X-46.0311 Y53.3921
G01 X-47.2521 Y52.3147
G01 X-48.4479 Y51.2092
G01 X-49.6179 Y50.0765
G01 X-50.7614 Y48.9171
G01 X-51.8778 Y47.7315
G01 X-52.9665 Y46.5205
G01 X-54.0270 Y45.2846
G01 X-55.0586 Y44.0246
G01 X-56.0609 Y42.7411
G01 X-57.0333 Y41.4348
G01 X-57.9752 Y40.1064
G01 X-58.8861 Y38.7566
G01 X-59.7657 Y37.3861
G01 X-60.6134 Y35.9956
G01 X-61.4287 Y34.5859
G01 X-62.2112 Y33.1578
G01 X-62.9606 Y31.7120
G01 X-63.6764 Y30.2493
G01 X-64.3581 Y28.7704
G01 X-65.0056 Y27.2762
G01 X-65.6183 Y25.7674
G01 X-66.1961 Y24.2448
G01 X-66.7385 Y22.7093
G01 X-67.2453 Y21.1617
G01 X-67.7162 Y19.6029
G01 X-68.1510 Y18.0335
G01 X-68.5494 Y16.4545
G01 X-68.9113 Y14.8668
G01 X-69.2364 Y13.2711
G01 X-69.5245 Y11.6683
G01 X-69.7755 Y10.0593
G01 X-69.9894 Y8.4449
G01 X-70.1658 Y6.8260
G01 X-70.3048 Y5.2035
G01 X-70.4063 Y3.5782
G01 X-70.4703 Y1.9510
G01 X-70.4966 Y0.3227
G01 X-70.4853 Y-1.3057
G01 X-70.4365 Y-2.9334
G01 X-70.3500 Y-4.5596
G01 X-70.2260 Y-6.1833
G01 X-70.0645 Y-7.8038
G01 X-69.8656 Y-9.4201
G01 X-69.6295 Y-11.0313
G01 X-69.3562 Y-12.6367
G01 X-69.0459 Y-14.2353
G01 X-68.6987 Y-15.8263
G01 X-68.3149 Y-17.4089
G01 X-67.8946 Y-18.9822
G01 X-67.4381 Y-20.5454
G01 X-66.9457 Y-22.0976
G01 X-66.4175 Y-23.6381
G01 X-65.8538 Y-25.1659
G01 X-65.2551 Y-26.6803
G01 X-64.6215 Y-28.1804
G01 X-63.9534 Y-29.6656
G01 X-63.2512 Y-31.1349
G01 X-62.5152 Y-32.5875
G01 X-61.7459 Y-34.0228
G01 X-60.9437 Y-35.4400
G01 X-60.1089 Y-36.8382
G01 X-59.2421 Y-38.2168
G01 X-58.3436 Y-39.5750
G01 X-57.4140 Y-40.9121
G01 X-56.4538 Y-42.2273
G01 X-55.4634 Y-43.5200
G01 X-54.4435 Y-44.7895
G01 X-53.3945 Y-46.0351
G01 X-52.3170 Y-47.2562
G01 X-51.2116 Y-48.4520
G01 X-50.0789 Y-49.6220
G01 X-48.9194 Y-50.7655
G01 X-47.7339 Y-51.8819
G01 X-46.5229 Y-52.9706
G01 X-45.2870 Y-54.0311
G01 X-44.0270 Y-55.0627
G01 X-42.7435 Y-56.0650
G01 X-41.4372 Y-57.0373
G01 X-40.1088 Y-57.9792
G01 X-38.7589 Y-58.8902
G01 X-37.3884 Y-59.7698
G01 X-35.9980 Y-60.6174
G01 X-34.5883 Y-61.4328
G01 X-33.1602 Y-62.2153
G01 X-31.7144 Y-62.9647
G01 X-30.2516 Y-63.6804
G01 X-28.7727 Y-64.3622
G01 X-27.2785 Y-65.0097
G01 X-25.7697 Y-65.6224
G01 X-24.2472 Y-66.2001
G01 X-22.7117 Y-66.7426
G01 X-21.1641 Y-67.2494
G01 X-19.6052 Y-67.7203
G01 X-18.0359 Y-68.1551
G01 X-16.4569 Y-68.5535
G01 X-14.8691 Y-68.9154
G01 X-13.2734 Y-69.2404
G01 X-11.6707 Y-69.5286
G01 X-10.0617 Y-69.7796
G01 X-8.4473 Y-69.9934
G01 X-6.8284 Y-70.1699
G01 X-5.2059 Y-70.3089
G01 X-3.5806 Y-70.4104
G01 X-1.9534 Y-70.4744
G01 X-0.3251 Y-70.5007
G01 X1.3033 Y-70.4894
G01 X2.9311 Y-70.4405
G01 X4.5572 Y-70.3541
G01 X6.1810 Y-70.2300
G01 X7.8014 Y-70.0686
G01 X9.4177 Y-69.8697
G01 X11.0290 Y-69.6335
G01 X12.6343 Y-69.3602
G01 X14.2330 Y-69.0499
G01 X15.8240 Y-68.7028
G01 X17.4066 Y-68.3190
G01 X18.9799 Y-67.8987
G01 X20.5431 Y-67.4422
G01 X22.0953 Y-66.9497
G01 X23.6357 Y-66.4215
G01 X25.1635 Y-65.8579
G01 X26.6779 Y-65.2591
G01 X28.1781 Y-64.6255
G01 X29.6632 Y-63.9575
G01 X31.1325 Y-63.2553
G01 X32.5852 Y-62.5193
G01 X34.0205 Y-61.7500
G01 X35.4376 Y-60.9478
G01 X36.8359 Y-60.1130
G01 X38.2144 Y-59.2461
G01 X39.5726 Y-58.3477
G01 X40.9097 Y-57.4181
G01 X42.2250 Y-56.4579
G01 X43.5177 Y-55.4675
G01 X44.7872 Y-54.4476
G01 X46.0328 Y-53.3986
G01 X47.2538 Y-52.3211
G01 X48.4496 Y-51.2157
G01 X49.6196 Y-50.0829
G01 X50.7631 Y-48.9235
G01 X51.8795 Y-47.7379
G01 X52.9683 Y-46.5269
G01 X54.0287 Y-45.2911
G01 X55.0604 Y-44.0311
G01 X56.0626 Y-42.7476
G01 X57.0350 Y-41.4412
G01 X57.9769 Y-40.1128
G01 X58.8879 Y-38.7630
G01 X59.7674 Y-37.3925
G01 X60.6151 Y-36.0020
G01 X61.4304 Y-34.5924
G01 X62.2130 Y-33.1642
G01 X62.9623 Y-31.7184
G01 X63.6781 Y-30.2557
G01 X64.3599 Y-28.7768
G01 X65.0073 Y-27.2826
G01 X65.6201 Y-25.7738
G01 X66.1978 Y-24.2513
G01 X66.7402 Y-22.7158
G01 X67.2470 Y-21.1682
G01 X67.7179 Y-19.6093
G01 X68.1527 Y-18.0399
G01 X68.5512 Y-16.4610
G01 X68.9130 Y-14.8732
G01 X69.2381 Y-13.2775
G01 X69.5262 Y-11.6747
G01 X69.7773 Y-10.0657
G01 X69.9911 Y-8.4514
G01 X70.1675 Y-6.8325
G01 X70.3066 Y-5.2099
G01 X70.4081 Y-3.5846
G01 X70.4720 Y-1.9574
G01 X70.4983 Y-0.3292
G01 X70.4871 Y1.2993
G01 X70.4382 Y2.9270
G01 X70.3517 Y4.5532
G01 X70.2277 Y6.1769
G01 X70.0662 Y7.7973
G01 X69.8673 Y9.4136
G01 X69.6312 Y11.0249
G01 X69.3579 Y12.6303
G01 X69.0476 Y14.2289
G01 X68.7004 Y15.8199
G01 X68.3166 Y17.4025
G01 X67.8963 Y18.9758
G01 X67.4399 Y20.5390
G01 X66.9474 Y22.0912
G01 X66.4192 Y23.6316
G01 X65.8556 Y25.1595
G01 X65.2568 Y26.6739
G01 X64.6232 Y28.1740
G01 X63.9551 Y29.6591
G01 X63.2529 Y31.1284
G01 X62.5170 Y32.5811
G01 X61.7477 Y34.0164
G01 X60.9454 Y35.4336
G01 X60.1106 Y36.8318
G01 X59.2438 Y38.2104
G01 X58.3453 Y39.5686
G01 X57.4157 Y40.9056
G01 X56.4555 Y42.2209
G01 X55.4652 Y43.5136
G01 X54.4452 Y44.7831
G01 X53.3962 Y46.0287
G01 X52.3187 Y47.2497
G01 X51.2133 Y48.4456
G01 X50.0806 Y49.6155
G01 X48.9211 Y50.7590
G01 X47.7356 Y51.8755
G01 X46.5246 Y52.9642
G01 X45.2887 Y54.0247
G01 X44.0287 Y55.0563
G01 X42.7452 Y56.0586
G01 X41.4389 Y57.0309
G01 X40.1105 Y57.9728
G01 X38.7606 Y58.8838
G01 X37.3901 Y59.7634
G01 X35.9997 Y60.6110
G01 X34.5900 Y61.4263
G01 X33.1619 Y62.2089
G01 X31.7161 Y62.9582
G01 X30.2533 Y63.6740
G01 X28.7745 Y64.3558
G01 X27.2802 Y65.0032
G01 X25.7714 Y65.6160
G01 X24.2489 Y66.1937
G01 X22.7134 Y66.7361
G01 X21.1658 Y67.2429
G01 X19.6069 Y67.7139
G01 X18.0376 Y68.1487
G01 X16.4586 Y68.5471
G01 X14.8708 Y68.9089
G01 X13.2752 Y69.2340
G01 X11.6724 Y69.5222
G01 X10.0634 Y69.7732
G01 X8.4490 Y69.9870
G01 X6.8301 Y70.1635
G01 X5.2076 Y70.3025
G01 X3.5823 Y70.4040
G01 X1.9551 Y70.4679
G01 X0.3268 Y70.4943
G01 X-1.3016 Y70.4830
G01 X-2.9293 Y70.4341
G01 X-4.5555 Y70.3476
G01 X-6.1793 Y70.2236
G01 X-7.7997 Y70.0621
G01 X-9.4160 Y69.8633
G01 X-11.0272 Y69.6271
G01 X-12.6326 Y69.3538
G01 X-14.2312 Y69.0435
G01 X-15.8223 Y68.6963
G01 X-17.4049 Y68.3125
G01 Y68.8500
G00 Z1.0000 F500
G00 X-20.2544 Y79.6500 F3000
G00 Z-1.5000 F500
G01 Z-3.0000 F120
G01 Y79.9702 F300
G01 X-18.5049 Y80.3930
G01 X-16.7467 Y80.7776
G01 X-14.9805 Y81.1237
G01 X-13.2072 Y81.4312
G01 X-11.4275 Y81.7000
G01 X-9.6425 Y81.9298
G01 X-7.8528 Y82.1207
G01 X-6.0594 Y82.2725
G01 X-4.2632 Y82.3851
G01 X-2.4649 Y82.4585
G01 X-0.6654 Y82.4927
G01 X1.1344 Y82.4876
G01 X2.9337 Y82.4432
G01 X4.7315 Y82.3596
G01 X6.5271 Y82.2368
G01 X8.3196 Y82.0749
G01 X10.1082 Y81.8739
G01 X11.8919 Y81.6339
G01 X13.6699 Y81.3551
G01 X15.4415 Y81.0375
G01 X17.2057 Y80.6814
G01 X18.9618 Y80.2869
G01 X20.7088 Y79.8541
G01 X22.4459 Y79.3834
G01 X24.1724 Y78.8748
G01 X25.8873 Y78.3288
G01 X27.5900 Y77.7454
G01 X29.2795 Y77.1251
G01 X30.9550 Y76.4680
G01 X32.6159 Y75.7745
G01 X34.2612 Y75.0450
G01 X35.8902 Y74.2797
G01 X37.5021 Y73.4791
G01 X39.0962 Y72.6436
G01 X40.6717 Y71.7734
G01 X42.2278 Y70.8691
G01 X43.7638 Y69.9311
G01 X45.2790 Y68.9597
G01 X46.7726 Y67.9556
G01 X48.2440 Y66.9191
G01 X49.6924 Y65.8507
G01 X51.1172 Y64.7510
G01 X52.5176 Y63.6205
G01 X53.8931 Y62.4597
G01 X55.2429 Y61.2692
G01 X56.5664 Y60.0495
G01 X57.8629 Y58.8013
G01 X59.1320 Y57.5250
G01 X60.3729 Y56.2214
G01 X61.5850 Y54.8910
G01 X62.7679 Y53.5345
G01 X63.9209 Y52.1525
G01 X65.0434 Y50.7457
G01 X66.1350 Y49.3147
G01 X67.1951 Y47.8602
G01 X68.2233 Y46.3830
G01 X69.2190 Y44.8837
G01 X70.1817 Y43.3630
G01 X71.1110 Y41.8217
G01 X72.0065 Y40.2605
G01 X72.8677 Y38.6801
G01 X73.6942 Y37.0813
G01 X74.4857 Y35.4649
G01 X75.2417 Y33.8316
G01 X75.9619 Y32.1822
G01 X76.6459 Y30.5174
G01 X77.2935 Y28.8381
G01 X77.9042 Y27.1452
G01 X78.4779 Y25.4392
G01 X79.0143 Y23.7212
G01 X79.5130 Y21.9919
G01 X79.9739 Y20.2521
G01 X80.3967 Y18.5027
G01 X80.7813 Y16.7445
G01 X81.1274 Y14.9782
G01 X81.4349 Y13.2049
G01 X81.7037 Y11.4253
G01 X81.9335 Y9.6402
G01 X82.1244 Y7.8506
G01 X82.2762 Y6.0572
G01 X82.3888 Y4.2609
G01 X82.4622 Y2.4626
G01 X82.4964 Y0.6631
G01 X82.4913 Y-1.1366
G01 X82.4469 Y-2.9359
G01 X82.3633 Y-4.7338
G01 X82.2405 Y-6.5294
G01 X82.0786 Y-8.3219
G01 X81.8776 Y-10.1104
G01 X81.6376 Y-11.8941
G01 X81.3588 Y-13.6722
G01 X81.0412 Y-15.4438
G01 X80.6851 Y-17.2080
G01 X80.2906 Y-18.9640
G01 X79.8578 Y-20.7110
G01 X79.3871 Y-22.4481
G01 X78.8785 Y-24.1746
G01 X78.3325 Y-25.8896
G01 X77.7491 Y-27.5922
G01 X77.1288 Y-29.2817
G01 X76.4717 Y-30.9573
G01 X75.7782 Y-32.6181
G01 X75.0487 Y-34.2634
G01 X74.2834 Y-35.8924
G01 X73.4828 Y-37.5044
G01 X72.6473 Y-39.0985
G01 X71.7771 Y-40.6739
G01 X70.8728 Y-42.2300
G01 X69.9348 Y-43.7661
G01 X68.9634 Y-45.2812
G01 X67.9593 Y-46.7749
G01 X66.9228 Y-48.2463
G01 X65.8544 Y-49.6947
G01 X64.7547 Y-51.1194
G01 X63.6242 Y-52.5199
G01 X62.4634 Y-53.8953
G01 X61.2729 Y-55.2451
G01 X60.0532 Y-56.5686
G01 X58.8050 Y-57.8652
G01 X57.5287 Y-59.1342
G01 X56.2251 Y-60.3751
G01 X54.8947 Y-61.5873
G01 X53.5382 Y-62.7701
G01 X52.1562 Y-63.9231
G01 X50.7494 Y-65.0457
G01 X49.3184 Y-66.1373
G01 X47.8639 Y-67.1974
G01 X46.3867 Y-68.2255
G01 X44.8874 Y-69.2212
G01 X43.3667 Y-70.1839
G01 X41.8254 Y-71.1132
G01 X40.2642 Y-72.0087
G01 X38.6838 Y-72.8699
G01 X37.0850 Y-73.6965
G01 X35.4686 Y-74.4879
G01 X33.8353 Y-75.2439
G01 X32.1859 Y-75.9641
G01 X30.5211 Y-76.6481
G01 X28.8418 Y-77.2957
G01 X27.1489 Y-77.9065
G01 X25.4429 Y-78.4802
G01 X23.7249 Y-79.0165
G01 X21.9956 Y-79.5152
G01 X20.2558 Y-79.9761
G01 X18.5064 Y-80.3990
G01 X16.7481 Y-80.7835
G01 X14.9819 Y-81.1297
G01 X13.2086 Y-81.4372
G01 X11.4290 Y-81.7059
G01 X9.6439 Y-81.9358
G01 X7.8543 Y-82.1266
G01 X6.0609 Y-82.2784
G01 X4.2646 Y-82.3911
G01 X2.4663 Y-82.4645
G01 X0.6668 Y-82.4986
G01 X-1.1329 Y-82.4935
G01 X-2.9322 Y-82.4492
G01 X-4.7301 Y-82.3656
G01 X-6.5257 Y-82.2428
G01 X-8.3182 Y-82.0808
G01 X-10.1067 Y-81.8798
G01 X-11.8904 Y-81.6398
G01 X-13.6685 Y-81.3610
G01 X-15.4401 Y-81.0434
G01 X-17.2043 Y-80.6873
G01 X-18.9603 Y-80.2928
G01 X-20.7073 Y-79.8601
G01 X-22.4444 Y-79.3893
G01 X-24.1709 Y-78.8808
G01 X-25.8859 Y-78.3347
G01 X-27.5885 Y-77.7514
G01 X-29.2780 Y-77.1310
G01 X-30.9536 Y-76.4739
G01 X-32.6144 Y-75.7805
G01 X-34.2597 Y-75.0509
G01 X-35.8887 Y-74.2857
G01 X-37.5007 Y-73.4851
G01 X-39.0948 Y-72.6495
G01 X-40.6702 Y-71.7794
G01 X-42.2263 Y-70.8750
G01 X-43.7624 Y-69.9370
G01 X-45.2775 Y-68.9657
G01 X-46.7712 Y-67.9615
G01 X-48.2426 Y-66.9250
G01 X-49.6910 Y-65.8567
G01 X-51.1157 Y-64.7570
G01 X-52.5162 Y-63.6265
G01 X-53.8916 Y-62.4657
G01 X-55.2414 Y-61.2752
G01 X-56.5649 Y-60.0555
G01 X-57.8615 Y-58.8072
G01 X-59.1305 Y-57.5310
G01 X-60.3714 Y-56.2273
G01 X-61.5836 Y-54.8969
G01 X-62.7664 Y-53.5404
G01 X-63.9194 Y-52.1584
G01 X-65.0420 Y-50.7516
G01 X-66.1336 Y-49.3206
G01 X-67.1937 Y-47.8662
G01 X-68.2218 Y-46.3890
G01 X-69.2175 Y-44.8897
G01 X-70.1802 Y-43.3690
G01 X-71.1095 Y-41.8277
G01 X-72.0050 Y-40.2665
G01 X-72.8662 Y-38.6861
G01 X-73.6928 Y-37.0873
G01 X-74.4842 Y-35.4708
G01 X-75.2402 Y-33.8375
G01 X-75.9604 Y-32.1881
G01 X-76.6444 Y-30.5234
G01 X-77.2920 Y-28.8441
G01 X-77.9028 Y-27.1511
G01 X-78.4765 Y-25.4452
G01 X-79.0128 Y-23.7272
G01 X-79.5116 Y-21.9978
G01 X-79.9724 Y-20.2581
G01 X-80.3953 Y-18.5086
G01 X-80.7798 Y-16.7504
G01 X-81.1260 Y-14.9842
G01 X-81.4335 Y-13.2109
G01 X-81.7022 Y-11.4312
G01 X-81.9321 Y-9.6462
G01 X-82.1229 Y-7.8565
G01 X-82.2747 Y-6.0631
G01 X-82.3874 Y-4.2669
G01 X-82.4608 Y-2.4686
G01 X-82.4949 Y-0.6691
G01 X-82.4898 Y1.1307
G01 X-82.4455 Y2.9300
G01 X-82.3619 Y4.7278
G01 X-82.2391 Y6.5234
G01 X-82.0771 Y8.3159
G01 X-81.8761 Y10.1045
G01 X-81.6361 Y11.8882
G01 X-81.3573 Y13.6663
G01 X-81.0397 Y15.4378
G01 X-80.6836 Y17.2020
G01 X-80.2891 Y18.9581
G01 X-79.8564 Y20.7051
G01 X-79.3856 Y22.4422
G01 X-78.8771 Y24.1687
G01 X-78.3310 Y25.8836
G01 X-77.7477 Y27.5863
G01 X-77.1273 Y29.2758
G01 X-76.4702 Y30.9513
G01 X-75.7768 Y32.6122
G01 X-75.0472 Y34.2575
G01 X-74.2820 Y35.8865
G01 X-73.4814 Y37.4984
G01 X-72.6458 Y39.0925
G01 X-71.7757 Y40.6680
G01 X-70.8713 Y42.2241
G01 X-69.9333 Y43.7601
G01 X-68.9620 Y45.2753
G01 X-67.9578 Y46.7689
G01 X-66.9213 Y48.2403
G01 X-65.8530 Y49.6887
G01 X-64.7533 Y51.1135
G01 X-63.6228 Y52.5139
G01 X-62.4620 Y53.8894
G01 X-61.2715 Y55.2392
G01 X-60.0518 Y56.5627
G01 X-58.8035 Y57.8592
G01 X-57.5273 Y59.1283
G01 X-56.2236 Y60.3692
G01 X-54.8932 Y61.5813
G01 X-53.5367 Y62.7642
G01 X-52.1547 Y63.9172
G01 X-50.7479 Y65.0397
G01 X-49.3169 Y66.1313
G01 X-47.8625 Y67.1914
G01 X-46.3853 Y68.2196
G01 X-44.8860 Y69.2153
G01 X-43.3653 Y70.1780
G01 X-41.8240 Y71.1073
G01 X-40.2628 Y72.0028
G01 X-38.6824 Y72.8640
G01 X-37.0836 Y73.6905
G01 X-35.4671 Y74.4820
G01 X-33.8338 Y75.2380
G01 X-32.1844 Y75.9582
G01 X-30.5197 Y76.6422
G01 X-28.8404 Y77.2898
G01 X-27.1474 Y77.9005
G01 X-25.4415 Y78.4742
G01 X-23.7235 Y79.0106
G01 X-21.9941 Y79.5093
G01 X-20.2544 Y79.9702
G01 Y79.6500
G00 Z1.0000 F500
G00 X-20.2955 Y-79.6500 F3000
G00 Z-2.5000 F500
G01 Z-4.0000 F120
G01 X20.2955 F300
G01 Y-76.9500
G01 X28.8915
G01 X-28.8915
G01 Y-74.2500
G01 X-35.2570
G01 X35.2570
G01 Y-71.5500
G01 X40.4554
G01 X-40.4554
G01 Y-68.8500
G01 X-44.8965
G01 X-16.4909
G01 X-25.2232
G01 Y-66.1500
G01 X-48.7918
G01 Y-63.4500
G01 X-52.2507
G01 X-31.4027
G01 X-36.3512
G01 Y-60.7500
G01 X-55.3707
G01 X-58.1966 Y-58.0500
G01 X-40.5238
G01 X-44.1411
G01 Y-55.3500
G01 X-60.7686
G01 X-63.1223 Y-52.6500
G01 X-47.3300
G01 X-50.1738 Y-49.9500
G01 X-65.2812
G01 X-67.2611 Y-47.2500
G01 X-52.7199
G01 X-55.0207 Y-44.5500
G01 X-69.0761
G01 X-70.7432 Y-41.8500
G01 X-57.1009
G01 X-58.9844 Y-39.1500
G01 X-72.2738
G01 X-73.6752 Y-36.4500
G01 X-60.6916
G01 X-62.2358 Y-33.7500
G01 X-74.9466
G01 X-76.1060 Y-31.0500
G01 X-63.6261
G01 X-64.8712 Y-28.3500
G01 X-77.1538
G01 X-78.0903 Y-25.6500
G01 X-65.9852
G01 X-66.9748 Y-22.9500
G01 X-78.9305
G01 X-79.6617 Y-20.2500
G01 X-67.8392
G01 X-68.5851 Y-17.5500
G01 X-80.3022
G01 X-80.8430 Y-14.8500
G01 X-69.2221
G01 X-69.7456 Y-12.1500
G01 X-81.2938
G01 X-81.6509 Y-9.4500
G01 X-70.1611
G01 X-70.4769 Y-6.7500
G01 X-81.9188
G01 X-82.0963 Y-4.0500
G01 X-70.6787
G01 X-70.7841 Y-1.3500
G01 X-82.1852
G01 Y1.3500
G01 X-70.7835
G01 X-70.6794 Y4.0500
G01 X-82.0963
G01 X-81.9188 Y6.7500
G01 X-70.4774
G01 X-70.1619 Y9.4500
G01 X-81.6509
G01 X-81.2938 Y12.1500
G01 X-69.7459
G01 X-69.2231 Y14.8500
G01 X-80.8430
G01 X-80.3022 Y17.5500
G01 X-68.5851
G01 X-67.8383 Y20.2500
G01 X-79.6617
G01 X-78.9305 Y22.9500
G01 X-66.9744
G01 X-65.9849 Y25.6500
G01 X-78.0903
G01 X-77.1538 Y28.3500
G01 X-64.8707
G01 X-63.6267 Y31.0500
G01 X-76.1060
G01 X-74.9466 Y33.7500
G01 X-62.2353
G01 X-60.6910 Y36.4500
G01 X-73.6752
G01 X-72.2738 Y39.1500
G01 X-58.9853
G01 X-57.1008 Y41.8500
G01 X-70.7432
G01 X-69.0761 Y44.5500
G01 X-55.0198
G01 X-52.7210 Y47.2500
G01 X-67.2611
G01 X-65.2812 Y49.9500
G01 X-50.1732
G01 X-47.3298 Y52.6500
G01 X-63.1223
G01 X-60.7686 Y55.3500
G01 X-44.1403
G01 Y58.0500
G01 X-40.5224
G01 X-58.1966
G01 X-55.3707 Y60.7500
G01 X-36.3502
G01 Y63.4500
G01 X-31.4015
G01 X-52.2507
G01 X-48.7918
G01 Y66.1500
G01 X-25.2227
G01 Y68.8500
G01 X-16.4932
G01 X-44.8965
G01 X-40.4554
G01 Y71.5500
G01 X40.4554
G01 Y68.8500
G01 X44.8965
G01 X16.4915
G01 X25.2232
G01 Y66.1500
G01 X48.7918
G01 Y63.4500
G01 X52.2507
G01 X31.4027
G01 X36.3512
G01 Y60.7500
G01 X55.3707
G01 X58.1966 Y58.0500
G01 X40.5226
G01 X44.1413
G01 Y55.3500
G01 X60.7686
G01 X63.1223 Y52.6500
G01 X47.3294
G01 X50.1738 Y49.9500
G01 X65.2812
G01 X67.2611 Y47.2500
G01 X52.7208
G01 X55.0204 Y44.5500
G01 X69.0761
G01 X70.7432 Y41.8500
G01 X57.1002
G01 X58.9851 Y39.1500
G01 X72.2738
G01 X73.6752 Y36.4500
G01 X60.6918
G01 X62.2357 Y33.7500
G01 X74.9466
G01 X76.1060 Y31.0500
G01 X63.6262
G01 X64.8709 Y28.3500
G01 X77.1538
G01 X78.0903 Y25.6500
G01 X65.9849
G01 X66.9739 Y22.9500
G01 X78.9305
G01 X79.6617 Y20.2500
G01 X67.8388
G01 X68.5853 Y17.5500
G01 X80.3022
G01 X80.8430 Y14.8500
G01 X69.2230
G01 X69.7456 Y12.1500
G01 X81.2938
G01 X81.6509 Y9.4500
G01 X70.1611
G01 X70.4769 Y6.7500
G01 X81.9188
G01 X82.0963 Y4.0500
G01 X70.6791
G01 X70.7832 Y1.3500
G01 X82.1852
G01 Y-1.3500
G01 X70.7837
G01 X70.6792 Y-4.0500
G01 X82.0963
G01 X81.9188 Y-6.7500
G01 X70.4764
G01 X70.1616 Y-9.4500
G01 X81.6509
G01 X81.2938 Y-12.1500
G01 X69.7459
G01 X69.2231 Y-14.8500
G01 X80.8430
G01 X80.3022 Y-17.5500
G01 X68.5851
G01 X67.8392 Y-20.2500
G01 X79.6617
G01 X78.9305 Y-22.9500
G01 X66.9743
G01 X65.9849 Y-25.6500
G01 X78.0903
G01 X77.1538 Y-28.3500
G01 X64.8707
G01 X63.6267 Y-31.0500
G01 X76.1060
G01 X74.9466 Y-33.7500
G01 X62.2358
G01 X60.6913 Y-36.4500
G01 X73.6752
G01 X72.2738 Y-39.1500
G01 X58.9853
G01 X57.1008 Y-41.8500
G01 X70.7432
G01 X69.0761 Y-44.5500
G01 X55.0203
G01 X52.7201 Y-47.2500
G01 X67.2611
G01 X65.2812 Y-49.9500
G01 X50.1732
G01 X47.3287 Y-52.6500
G01 X63.1223
G01 X60.7686 Y-55.3500
G01 X44.1407
G01 Y-58.0500
G01 X40.5224
G01 X58.1966
G01 X55.3707 Y-60.7500
G01 X36.3518
G01 Y-63.4500
G01 X31.4022
G01 X52.2507
G01 X48.7918
G01 Y-66.1500
G01 X25.2227
G01 Y-68.8500
G01 X16.4894
G01 X44.8965
G00 Z1.0000 F500
G00 X35.2570 Y71.5500 F3000
G00 Z-2.5000 F500
G01 Z-4.0000 F120
G01 Y74.2500 F300
G01 X-35.2570
G01 X-28.8915
G01 Y76.9500
G01 X28.8915
G01 X20.2955
G01 Y79.6500
G01 X-20.2955
G00 Z1.0000 F500
G00 X-17.4049 Y68.8500 F3000
G00 Z-2.5000 F500
G01 Z-4.0000 F120
G01 Y68.3125 F300
G01 X-18.9782 Y67.8923
G01 X-20.5414 Y67.4358
G01 X-22.0936 Y66.9433
G01 X-23.6340 Y66.4151
G01 X-25.1618 Y65.8515
G01 X-26.6762 Y65.2527
G01 X-28.1764 Y64.6191
G01 X-29.6615 Y63.9510
G01 X-31.1308 Y63.2488
G01 X-32.5835 Y62.5129
G01 X-34.0188 Y61.7436
G01 X-35.4359 Y60.9413
G01 X-36.8341 Y60.1065
G01 X-38.2127 Y59.2397
G01 X-39.5709 Y58.3412
G01 X-40.9080 Y57.4117
G01 X-42.2232 Y56.4514
G01 X-43.5160 Y55.4611
G01 X-44.7855 Y54.4411
G01 X-46.0311 Y53.3921
G01 X-47.2521 Y52.3147
G01 X-48.4479 Y51.2092
G01 X-49.6179 Y50.0765
G01 X-50.7614 Y48.9171
G01 X-51.8778 Y47.7315
G01 X-52.9665 Y46.5205
G01 X-54.0270 Y45.2846
G01 X-55.0586 Y44.0246
G01 X-56.0609 Y42.7411
G01 X-57.0333 Y41.4348
G01 X-57.9752 Y40.1064
G01 X-58.8861 Y38.7566
G01 X-59.7657 Y37.3861
G01 X-60.6134 Y35.9956
G01 X-61.4287 Y34.5859
G01 X-62.2112 Y33.1578
G01 X-62.9606 Y31.7120
G01 X-63.6764 Y30.2493
G01 X-64.3581 Y28.7704
G01 X-65.0056 Y27.2762
G01 X-65.6183 Y25.7674
G01 X-66.1961 Y24.2448
G01 X-66.7385 Y22.7093
G01 X-67.2453 Y21.1617
G01 X-67.7162 Y19.6029
G01 X-68.1510 Y18.0335
G01 X-68.5494 Y16.4545
G01 X-68.9113 Y14.8668
G01 X-69.2364 Y13.2711
G01 X-69.5245 Y11.6683
G01 X-69.7755 Y10.0593
G01 X-69.9894 Y8.4449
G01 X-70.1658 Y6.8260
G01 X-70.3048 Y5.2035
G01 X-70.4063 Y3.5782
G01 X-70.4703 Y1.9510
G01 X-70.4966 Y0.3227
G01 X-70.4853 Y-1.3057
G01 X-70.4365 Y-2.9334
G01 X-70.3500 Y-4.5596
G01 X-70.2260 Y-6.1833
G01 X-70.0645 Y-7.8038
G01 X-69.8656 Y-9.4201
G01 X-69.6295 Y-11.0313
G01 X-69.3562 Y-12.6367
G01 X-69.0459 Y-14.2353
G01 X-68.6987 Y-15.8263
G01 X-68.3149 Y-17.4089
G01 X-67.8946 Y-18.9822
G01 X-67.4381 Y-20.5454
G01 X-66.9457 Y-22.0976
G01 X-66.4175 Y-23.6381
G01 X-65.8538 Y-25.1659
G01 X-65.2551 Y-26.6803
G01 X-64.6215 Y-28.1804
G01 X-63.9534 Y-29.6656
G01 X-63.2512 Y-31.1349
G01 X-62.5152 Y-32.5875
G01 X-61.7459 Y-34.0228
G01 X-60.9437 Y-35.4400
G01 X-60.1089 Y-36.8382
G01 X-59.2421 Y-38.2168
G01 X-58.3436 Y-39.5750
G01 X-57.4140 Y-40.9121
G01 X-56.4538 Y-42.2273
G01 X-55.4634 Y-43.5200
G01 X-54.4435 Y-44.7895
G01 X-53.3945 Y-46.0351
G01 X-52.3170 Y-47.2562
G01 X-51.2116 Y-48.4520
G01 X-50.0789 Y-49.6220
G01 X-48.9194 Y-50.7655
G01 X-47.7339 Y-51.8819
G01 X-46.5229 Y-52.9706
G01 X-45.2870 Y-54.0311
G01 X-44.0270 Y-55.0627
G01 X-42.7435 Y-56.0650
G01 X-41.4372 Y-57.0373
G01 X-40.1088 Y-57.9792
G01 X-38.7589 Y-58.8902
G01 X-37.3884 Y-59.7698
G01 X-35.9980 Y-60.6174
G01 X-34.5883 Y-61.4328
G01 X-33.1602 Y-62.2153
G01 X-31.7144 Y-62.9647
G01 X-30.2516 Y-63.6804
G01 X-28.7727 Y-64.3622
G01 X-27.2785 Y-65.0097
G01 X-25.7697 Y-65.6224
G01 X-24.2472 Y-66.2001
G01 X-22.7117 Y-66.7426
G01 X-21.1641 Y-67.2494
G01 X-19.6052 Y-67.7203
G01 X-18.0359 Y-68.1551
G01 X-16.4569 Y-68.5535
G01 X-14.8691 Y-68.9154
G01 X-13.2734 Y-69.2404
G01 X-11.6707 Y-69.5286
G01 X-10.0617 Y-69.7796
G01 X-8.4473 Y-69.9934
G01 X-6.8284 Y-70.1699
G01 X-5.2059 Y-70.3089
G01 X-3.5806 Y-70.4104
G01 X-1.9534 Y-70.4744
G01 X-0.3251 Y-70.5007
G01 X1.3033 Y-70.4894
G01 X2.9311 Y-70.4405
G01 X4.5572 Y-70.3541
G01 X6.1810 Y-70.2300
G01 X7.8014 Y-70.0686
G01 X9.4177 Y-69.8697
G01 X11.0290 Y-69.6335
G01 X12.6343 Y-69.3602
G01 X14.2330 Y-69.0499
G01 X15.8240 Y-68.7028
G01 X17.4066 Y-68.3190
G01 X18.9799 Y-67.8987
G01 X20.5431 Y-67.4422
G01 X22.0953 Y-66.9497
G01 X23.6357 Y-66.4215
G01 X25.1635 Y-65.8579
G01 X26.6779 Y-65.2591
G01 X28.1781 Y-64.6255
G01 X29.6632 Y-63.9575
G01 X31.1325 Y-63.2553
G01 X32.5852 Y-62.5193
G01 X34.0205 Y-61.7500
G01 X35.4376 Y-60.9478
G01 X36.8359 Y-60.1130
G01 X38.2144 Y-59.2461
G01 X39.5726 Y-58.3477
G01 X40.9097 Y-57.4181
G01 X42.2250 Y-56.4579
G01 X43.5177 Y-55.4675
G01 X44.7872 Y-54.4476
G01 X46.0328 Y-53.3986
G01 X47.2538 Y-52.3211
G01 X48.4496 Y-51.2157
G01 X49.6196 Y-50.0829
G01 X50.7631 Y-48.9235
G01 X51.8795 Y-47.7379
G01 X52.9683 Y-46.5269
G01 X54.0287 Y-45.2911
G01 X55.0604 Y-44.0311
G01 X56.0626 Y-42.7476
G01 X57.0350 Y-41.4412
G01 X57.9769 Y-40.1128
G01 X58.8879 Y-38.7630
G01 X59.7674 Y-37.3925
G01 X60.6151 Y-36.0020
G01 X61.4304 Y-34.5924
G01 X62.2130 Y-33.1642
G01 X62.9623 Y-31.7184
G01 X63.6781 Y-30.2557
G01 X64.3599 Y-28.7768
G01 X65.0073 Y-27.2826
G01 X65.6201 Y-25.7738
G01 X66.1978 Y-24.2513
G01 X66.7402 Y-22.7158
G01 X67.2470 Y-21.1682
G01 X67.7179 Y-19.6093
G01 X68.1527 Y-18.0399
G01 X68.5512 Y-16.4610
G01 X68.9130 Y-14.8732
G01 X69.2381 Y-13.2775
G01 X69.5262 Y-11.6747
G01 X69.7773 Y-10.0657
G01 X69.9911 Y-8.4514
G01 X70.1675 Y-6.8325
G01 X70.3066 Y-5.2099
G01 X70.4081 Y-3.5846
G01 X70.4720 Y-1.9574
G01 X70.4983 Y-0.3292
G01 X70.4871 Y1.2993
G01 X70.4382 Y2.9270
G01 X70.3517 Y4.5532
G01 X70.2277 Y6.1769
G01 X70.0662 Y7.7973
G01 X69.8673 Y9.4136
G01 X69.6312 Y11.0249
G01 X69.3579 Y12.6303
G01 X69.0476 Y14.2289
G01 X68.7004 Y15.8199
G01 X68.3166 Y17.4025
G01 X67.8963 Y18.9758
G01 X67.4399 Y20.5390
G01 X66.9474 Y22.0912
G01 X66.4192 Y23.6316
G01 X65.8556 Y25.1595
G01 X65.2568 Y26.6739
G01 X64.6232 Y28.1740
G01 X63.9551 Y29.6591
G01 X63.2529 Y31.1284
G01 X62.5170 Y32.5811
G01 X61.7477 Y34.0164
G01 X60.9454 Y35.4336
G01 X60.1106 Y36.8318
G01 X59.2438 Y38.2104
G01 X58.3453 Y39.5686
G01 X57.4157 Y40.9056
G01 X56.4555 Y42.2209
G01 X55.4652 Y43.5136
G01 X54.4452 Y44.7831
G01 X53.3962 Y46.0287
G01 X52.3187 Y47.2497
G01 X51.2133 Y48.4456
G01 X50.0806 Y49.6155
G01 X48.9211 Y50.7590
G01 X47.7356 Y51.8755
G01 X46.5246 Y52.9642
G01 X45.2887 Y54.0247
G01 X44.0287 Y55.0563
G01 X42.7452 Y56.0586
G01 X41.4389 Y57.0309
G01 X40.1105 Y57.9728
G01 X38.7606 Y58.8838
G01 X37.3901 Y59.7634
G01 X35.9997 Y60.6110
G01 X34.5900 Y61.4263
G01 X33.1619 Y62.2089
G01 X31.7161 Y62.9582
G01 X30.2533 Y63.6740
G01 X28.7745 Y64.3558
G01 X27.2802 Y65.0032
G01 X25.7714 Y65.6160
G01 X24.2489 Y66.1937
G01 X22.7134 Y66.7361
G01 X21.1658 Y67.2429
G01 X19.6069 Y67.7139
G01 X18.0376 Y68.1487
G01 X16.4586 Y68.5471
G01 X14.8708 Y68.9089
G01 X13.2752 Y69.2340
G01 X11.6724 Y69.5222
G01 X10.0634 Y69.7732
G01 X8.4490 Y69.9870
G01 X6.8301 Y70.1635
G01 X5.2076 Y70.3025
G01 X3.5823 Y70.4040
G01 X1.9551 Y70.4679
G01 X0.3268 Y70.4943
G01 X-1.3016 Y70.4830
G01 X-2.9293 Y70.4341
G01 X-4.5555 Y70.3476
G01 X-6.1793 Y70.2236
G01 X-7.7997 Y70.0621
G01 X-9.4160 Y69.8633
G01 X-11.0272 Y69.6271
G01 X-12.6326 Y69.3538
G01 X-14.2312 Y69.0435
G01 X-15.8223 Y68.6963
G01 X-17.4049 Y68.3125
G01 Y68.8500
G00 Z1.0000 F500
G00 X-20.2544 Y79.6500 F3000
G00 Z-2.5000 F500
G01 Z-4.0000 F120
G01 Y79.9702 F300
G01 X-18.5049 Y80.3930
G01 X-16.7467 Y80.7776
G01 X-14.9805 Y81.1237
G01 X-13.2072 Y81.4312
G01 X-11.4275 Y81.7000
G01 X-9.6425 Y81.9298
G01 X-7.8528 Y82.1207
G01 X-6.0594 Y82.2725
G01 X-4.2632 Y82.3851
G01 X-2.4649 Y82.4585
G01 X-0.6654 Y82.4927
G01 X1.1344 Y82.4876
G01 X2.9337 Y82.4432
G01 X4.7315 Y82.3596
G01 X6.5271 Y82.2368
G01 X8.3196 Y82.0749
G01 X10.1082 Y81.8739
G01 X11.8919 Y81.6339
G01 X13.6699 Y81.3551
G01 X15.4415 Y81.0375
G01 X17.2057 Y80.6814
G01 X18.9618 Y80.2869
G01 X20.7088 Y79.8541
G01 X22.4459 Y79.3834
G01 X24.1724 Y78.8748
G01 X25.8873 Y78.3288
G01 X27.5900 Y77.7454
G01 X29.2795 Y77.1251
G01 X30.9550 Y76.4680
G01 X32.6159 Y75.7745
G01 X34.2612 Y75.0450
G01 X35.8902 Y74.2797
G01 X37.5021 Y73.4791
G01 X39.0962 Y72.6436
G01 X40.6717 Y71.7734
G01 X42.2278 Y70.8691
G01 X43.7638 Y69.9311
G01 X45.2790 Y68.9597
G01 X46.7726 Y67.9556
G01 X48.2440 Y66.9191
G01 X49.6924 Y65.8507
G01 X51.1172 Y64.7510
G01 X52.5176 Y63.6205
G01 X53.8931 Y62.4597
G01 X55.2429 Y61.2692
G01 X56.5664 Y60.0495
G01 X57.8629 Y58.8013
G01 X59.1320 Y57.5250
G01 X60.3729 Y56.2214
G01 X61.5850 Y54.8910
G01 X62.7679 Y53.5345
G01 X63.9209 Y52.1525
G01 X65.0434 Y50.7457
G01 X66.1350 Y49.3147
G01 X67.1951 Y47.8602
G01 X68.2233 Y46.3830
G01 X69.2190 Y44.8837
G01 X70.1817 Y43.3630
G01 X71.1110 Y41.8217
G01 X72.0065 Y40.2605
G01 X72.8677 Y38.6801
G01 X73.6942 Y37.0813
G01 X74.4857 Y35.4649
G01 X75.2417 Y33.8316
G01 X75.9619 Y32.1822
G01 X76.6459 Y30.5174
G01 X77.2935 Y28.8381
G01 X77.9042 Y27.1452
G01 X78.4779 Y25.4392
G01 X79.0143 Y23.7212
G01 X79.5130 Y21.9919
G01 X79.9739 Y20.2521
G01 X80.3967 Y18.5027
G01 X80.7813 Y16.7445
G01 X81.1274 Y14.9782
G01 X81.4349 Y13.2049
G01 X81.7037 Y11.4253
G01 X81.9335 Y9.6402
G01 X82.1244 Y7.8506
G01 X82.2762 Y6.0572
G01 X82.3888 Y4.2609
G01 X82.4622 Y2.4626
G01 X82.4964 Y0.6631
G01 X82.4913 Y-1.1366
G01 X82.4469 Y-2.9359
G01 X82.3633 Y-4.7338
G01 X82.2405 Y-6.5294
G01 X82.0786 Y-8.3219
G01 X81.8776 Y-10.1104
G01 X81.6376 Y-11.8941
G01 X81.3588 Y-13.6722
G01 X81.0412 Y-15.4438
G01 X80.6851 Y-17.2080
G01 X80.2906 Y-18.9640
G01 X79.8578 Y-20.7110
G01 X79.3871 Y-22.4481
G01 X78.8785 Y-24.1746
G01 X78.3325 Y-25.8896
G01 X77.7491 Y-27.5922
G01 X77.1288 Y-29.2817
G01 X76.4717 Y-30.9573
G01 X75.7782 Y-32.6181
G01 X75.0487 Y-34.2634
G01 X74.2834 Y-35.8924
G01 X73.4828 Y-37.5044
G01 X72.6473 Y-39.0985
G01 X71.7771 Y-40.6739
G01 X70.8728 Y-42.2300
G01 X69.9348 Y-43.7661
G01 X68.9634 Y-45.2812
G01 X67.9593 Y-46.7749
G01 X66.9228 Y-48.2463
G01 X65.8544 Y-49.6947
G01 X64.7547 Y-51.1194
G01 X63.6242 Y-52.5199
G01 X62.4634 Y-53.8953
G01 X61.2729 Y-55.2451
G01 X60.0532 Y-56.5686
G01 X58.8050 Y-57.8652
G01 X57.5287 Y-59.1342
G01 X56.2251 Y-60.3751
G01 X54.8947 Y-61.5873
G01 X53.5382 Y-62.7701
G01 X52.1562 Y-63.9231
G01 X50.7494 Y-65.0457
G01 X49.3184 Y-66.1373
G01 X47.8639 Y-67.1974
G01 X46.3867 Y-68.2255
G01 X44.8874 Y-69.2212
G01 X43.3667 Y-70.1839
G01 X41.8254 Y-71.1132
G01 X40.2642 Y-72.0087
G01 X38.6838 Y-72.8699
G01 X37.0850 Y-73.6965
G01 X35.4686 Y-74.4879
G01 X33.8353 Y-75.2439
G01 X32.1859 Y-75.9641
G01 X30.5211 Y-76.6481
G01 X28.8418 Y-77.2957
G01 X27.1489 Y-77.9065
G01 X25.4429 Y-78.4802
G01 X23.7249 Y-79.0165
G01 X21.9956 Y-79.5152
G01 X20.2558 Y-79.9761
G01 X18.5064 Y-80.3990
G01 X16.7481 Y-80.7835
G01 X14.9819 Y-81.1297
G01 X13.2086 Y-81.4372
G01 X11.4290 Y-81.7059
G01 X9.6439 Y-81.9358
G01 X7.8543 Y-82.1266
G01 X6.0609 Y-82.2784
G01 X4.2646 Y-82.3911
G01 X2.4663 Y-82.4645
G01 X0.6668 Y-82.4986
G01 X-1.1329 Y-82.4935
G01 X-2.9322 Y-82.4492
G01 X-4.7301 Y-82.3656
G01 X-6.5257 Y-82.2428
G01 X-8.3182 Y-82.0808
G01 X-10.1067 Y-81.8798
G01 X-11.8904 Y-81.6398
G01 X-13.6685 Y-81.3610
G01 X-15.4401 Y-81.0434
G01 X-17.2043 Y-80.6873
G01 X-18.9603 Y-80.2928
G01 X-20.7073 Y-79.8601
G01 X-22.4444 Y-79.3893
G01 X-24.1709 Y-78.8808
G01 X-25.8859 Y-78.3347
G01 X-27.5885 Y-77.7514
G01 X-29.2780 Y-77.1310
G01 X-30.9536 Y-76.4739
G01 X-32.6144 Y-75.7805
G01 X-34.2597 Y-75.0509
G01 X-35.8887 Y-74.2857
G01 X-37.5007 Y-73.4851
G01 X-39.0948 Y-72.6495
G01 X-40.6702 Y-71.7794
G01 X-42.2263 Y-70.8750
G01 X-43.7624 Y-69.9370
G01 X-45.2775 Y-68.9657
G01 X-46.7712 Y-67.9615
G01 X-48.2426 Y-66.9250
G01 X-49.6910 Y-65.8567
G01 X-51.1157 Y-64.7570
G01 X-52.5162 Y-63.6265
G01 X-53.8916 Y-62.4657
G01 X-55.2414 Y-61.2752
G01 X-56.5649 Y-60.0555
G01 X-57.8615 Y-58.8072
G01 X-59.1305 Y-57.5310
G01 X-60.3714 Y-56.2273
G01 X-61.5836 Y-54.8969
G01 X-62.7664 Y-53.5404
G01 X-63.9194 Y-52.1584
G01 X-65.0420 Y-50.7516
G01 X-66.1336 Y-49.3206
G01 X-67.1937 Y-47.8662
G01 X-68.2218 Y-46.3890
G01 X-69.2175 Y-44.8897
G01 X-70.1802 Y-43.3690
G01 X-71.1095 Y-41.8277
G01 X-72.0050 Y-40.2665
G01 X-72.8662 Y-38.6861
G01 X-73.6928 Y-37.0873
G01 X-74.4842 Y-35.4708
G01 X-75.2402 Y-33.8375
G01 X-75.9604 Y-32.1881
G01 X-76.6444 Y-30.5234
G01 X-77.2920 Y-28.8441
G01 X-77.9028 Y-27.1511
G01 X-78.4765 Y-25.4452
G01 X-79.0128 Y-23.7272
G01 X-79.5116 Y-21.9978
G01 X-79.9724 Y-20.2581
G01 X-80.3953 Y-18.5086
G01 X-80.7798 Y-16.7504
G01 X-81.1260 Y-14.9842
G01 X-81.4335 Y-13.2109
G01 X-81.7022 Y-11.4312
G01 X-81.9321 Y-9.6462
G01 X-82.1229 Y-7.8565
G01 X-82.2747 Y-6.0631
G01 X-82.3874 Y-4.2669
G01 X-82.4608 Y-2.4686
G01 X-82.4949 Y-0.6691
G01 X-82.4898 Y1.1307
G01 X-82.4455 Y2.9300
G01 X-82.3619 Y4.7278
G01 X-82.2391 Y6.5234
G01 X-82.0771 Y8.3159
G01 X-81.8761 Y10.1045
G01 X-81.6361 Y11.8882
G01 X-81.3573 Y13.6663
G01 X-81.0397 Y15.4378
G01 X-80.6836 Y17.2020
G01 X-80.2891 Y18.9581
G01 X-79.8564 Y20.7051
G01 X-79.3856 Y22.4422
G01 X-78.8771 Y24.1687
G01 X-78.3310 Y25.8836
G01 X-77.7477 Y27.5863
G01 X-77.1273 Y29.2758
G01 X-76.4702 Y30.9513
G01 X-75.7768 Y32.6122
G01 X-75.0472 Y34.2575
G01 X-74.2820 Y35.8865
G01 X-73.4814 Y37.4984
G01 X-72.6458 Y39.0925
G01 X-71.7757 Y40.6680
G01 X-70.8713 Y42.2241
G01 X-69.9333 Y43.7601
G01 X-68.9620 Y45.2753
G01 X-67.9578 Y46.7689
G01 X-66.9213 Y48.2403
G01 X-65.8530 Y49.6887
G01 X-64.7533 Y51.1135
G01 X-63.6228 Y52.5139
G01 X-62.4620 Y53.8894
G01 X-61.2715 Y55.2392
G01 X-60.0518 Y56.5627
G01 X-58.8035 Y57.8592
G01 X-57.5273 Y59.1283
G01 X-56.2236 Y60.3692
G01 X-54.8932 Y61.5813
G01 X-53.5367 Y62.7642
G01 X-52.1547 Y63.9172
G01 X-50.7479 Y65.0397
G01 X-49.3169 Y66.1313
G01 X-47.8625 Y67.1914
G01 X-46.3853 Y68.2196
G01 X-44.8860 Y69.2153
G01 X-43.3653 Y70.1780
G01 X-41.8240 Y71.1073
G01 X-40.2628 Y72.0028
G01 X-38.6824 Y72.8640
G01 X-37.0836 Y73.6905
G01 X-35.4671 Y74.4820
G01 X-33.8338 Y75.2380
G01 X-32.1844 Y75.9582
G01 X-30.5197 Y76.6422
G01 X-28.8404 Y77.2898
G01 X-27.1474 Y77.9005
G01 X-25.4415 Y78.4742
G01 X-23.7235 Y79.0106
G01 X-21.9941 Y79.5093
G01 X-20.2544 Y79.9702
G01 Y79.6500
G00 Z1.0000 F500
G00 X-20.2955 Y-79.6500 F3000
G00 Z-3.5000 F500
G01 Z-5.0000 F120
G01 X20.2955 F300
G01 Y-76.9500
G01 X28.8915
G01 X-28.8915
G01 Y-74.2500
G01 X-35.2570
G01 X35.2570
G01 Y-71.5500
G01 X40.4554
G01 X-40.4554
G01 Y-68.8500
G01 X-44.8965
G01 X-16.4909
G01 X-25.2232
G01 Y-66.1500
G01 X-48.7918
G01 Y-63.4500
G01 X-52.2507
G01 X-31.4027
G01 X-36.3512
G01 Y-60.7500
G01 X-55.3707
G01 X-58.1966 Y-58.0500
G01 X-40.5238
G01 X-44.1411
G01 Y-55.3500
G01 X-60.7686
G01 X-63.1223 Y-52.6500
G01 X-47.3300
G01 X-50.1738 Y-49.9500
G01 X-65.2812
G01 X-67.2611 Y-47.2500
G01 X-52.7199
G01 X-55.0207 Y-44.5500
G01 X-69.0761
G01 X-70.7432 Y-41.8500
G01 X-57.1009
G01 X-58.9844 Y-39.1500
G01 X-72.2738
G01 X-73.6752 Y-36.4500
G01 X-60.6916
G01 X-62.2358 Y-33.7500
G01 X-74.9466
G01 X-76.1060 Y-31.0500
G01 X-63.6261
G01 X-64.8712 Y-28.3500
G01 X-77.1538
G01 X-78.0903 Y-25.6500
G01 X-65.9852
G01 X-66.9748 Y-22.9500
G01 X-78.9305
G01 X-79.6617 Y-20.2500
G01 X-67.8392
G01 X-68.5851 Y-17.5500
G01 X-80.3022
G01 X-80.8430 Y-14.8500
G01 X-69.2221
G01 X-69.7456 Y-12.1500
G01 X-81.2938
G01 X-81.6509 Y-9.4500
G01 X-70.1611
G01 X-70.4769 Y-6.7500
G01 X-81.9188
G01 X-82.0963 Y-4.0500
G01 X-70.6787
G01 X-70.7841 Y-1.3500
G01 X-82.1852
G01 Y1.3500
G01 X-70.7835
G01 X-70.6794 Y4.0500
G01 X-82.0963
G01 X-81.9188 Y6.7500
G01 X-70.4774
G01 X-70.1619 Y9.4500
G01 X-81.6509
G01 X-81.2938 Y12.1500
G01 X-69.7459
G01 X-69.2231 Y14.8500
G01 X-80.8430
G01 X-80.3022 Y17.5500
G01 X-68.5851
G01 X-67.8383 Y20.2500
G01 X-79.6617
G01 X-78.9305 Y22.9500
G01 X-66.9744
G01 X-65.9849 Y25.6500
G01 X-78.0903
G01 X-77.1538 Y28.3500
G01 X-64.8707
G01 X-63.6267 Y31.0500
G01 X-76.1060
G01 X-74.9466 Y33.7500
G01 X-62.2353
G01 X-60.6910 Y36.4500
G01 X-73.6752
G01 X-72.2738 Y39.1500
G01 X-58.9853
G01 X-57.1008 Y41.8500
G01 X-70.7432
G01 X-69.0761 Y44.5500
G01 X-55.0198
G01 X-52.7210 Y47.2500
G01 X-67.2611
G01 X-65.2812 Y49.9500
G01 X-50.1732
G01 X-47.3298 Y52.6500
G01 X-63.1223
G01 X-60.7686 Y55.3500
G01 X-44.1403
G01 Y58.0500
G01 X-40.5224
G01 X-58.1966
G01 X-55.3707 Y60.7500
G01 X-36.3502
G01 Y63.4500
G01 X-31.4015
G01 X-52.2507
G01 X-48.7918
G01 Y66.1500
G01 X-25.2227
G01 Y68.8500
G01 X-16.4932
G01 X-44.8965
G01 X-40.4554
G01 Y71.5500
G01 X40.4554
G01 Y68.8500
G01 X44.8965
G01 X16.4915
G01 X25.2232
G01 Y66.1500
G01 X48.7918
G01 Y63.4500
G01 X52.2507
G01 X31.4027
G01 X36.3512
G01 Y60.7500
G01 X55.3707
G01 X58.1966 Y58.0500
G01 X40.5226
G01 X44.1413
G01 Y55.3500
G01 X60.7686
G01 X63.1223 Y52.6500
G01 X47.3294
G01 X50.1738 Y49.9500
G01 X65.2812
G01 X67.2611 Y47.2500
G01 X52.7208
G01 X55.0204 Y44.5500
G01 X69.0761
G01 X70.7432 Y41.8500
G01 X57.1002
G01 X58.9851 Y39.1500
G01 X72.2738
G01 X73.6752 Y36.4500
G01 X60.6918
G01 X62.2357 Y33.7500
G01 X74.9466
G01 X76.1060 Y31.0500
G01 X63.6262
G01 X64.8709 Y28.3500
G01 X77.1538
G01 X78.0903 Y25.6500
G01 X65.9849
G01 X66.9739 Y22.9500
G01 X78.9305
G01 X79.6617 Y20.2500
G01 X67.8388
G01 X68.5853 Y17.5500
G01 X80.3022
G01 X80.8430 Y14.8500
G01 X69.2230
G01 X69.7456 Y12.1500
G01 X81.2938
G01 X81.6509 Y9.4500
G01 X70.1611
G01 X70.4769 Y6.7500
G01 X81.9188
G01 X82.0963 Y4.0500
G01 X70.6791
G01 X70.7832 Y1.3500
G01 X82.1852
G01 Y-1.3500
G01 X70.7837
G01 X70.6792 Y-4.0500
G01 X82.0963
G01 X81.9188 Y-6.7500
G01 X70.4764
G01 X70.1616 Y-9.4500
G01 X81.6509
G01 X81.2938 Y-12.1500
G01 X69.7459
G01 X69.2231 Y-14.8500
G01 X80.8430
G01 X80.3022 Y-17.5500
G01 X68.5851
G01 X67.8392 Y-20.2500
G01 X79.6617
G01 X78.9305 Y-22.9500
G01 X66.9743
G01 X65.9849 Y-25.6500
G01 X78.0903
G01 X77.1538 Y-28.3500
G01 X64.8707
G01 X63.6267 Y-31.0500
G01 X76.1060
G01 X74.9466 Y-33.7500
G01 X62.2358
G01 X60.6913 Y-36.4500
G01 X73.6752
G01 X72.2738 Y-39.1500
G01 X58.9853
G01 X57.1008 Y-41.8500
G01 X70.7432
G01 X69.0761 Y-44.5500
G01 X55.0203
G01 X52.7201 Y-47.2500
G01 X67.2611
G01 X65.2812 Y-49.9500
G01 X50.1732
G01 X47.3287 Y-52.6500
G01 X63.1223
G01 X60.7686 Y-55.3500
G01 X44.1407
G01 Y-58.0500
G01 X40.5224
G01 X58.1966
G01 X55.3707 Y-60.7500
G01 X36.3518
G01 Y-63.4500
G01 X31.4022
G01 X52.2507
G01 X48.7918
G01 Y-66.1500
G01 X25.2227
G01 Y-68.8500
G01 X16.4894
G01 X44.8965
G00 Z1.0000 F500
G00 X35.2570 Y71.5500 F3000
G00 Z-3.5000 F500
G01 Z-5.0000 F120
G01 Y74.2500 F300
G01 X-35.2570
G01 X-28.8915
G01 Y76.9500
G01 X28.8915
G01 X20.2955
G01 Y79.6500
G01 X-20.2955
G00 Z1.0000 F500
G00 X-17.4049 Y68.8500 F3000
G00 Z-3.5000 F500
G01 Z-5.0000 F120
G01 Y68.3125 F300
G01 X-18.9782 Y67.8923
G01 X-20.5414 Y67.4358
G01 X-22.0936 Y66.9433
G01 X-23.6340 Y66.4151
G01 X-25.1618 Y65.8515
G01 X-26.6762 Y65.2527
G01 X-28.1764 Y64.6191
G01 X-29.6615 Y63.9510
G01 X-31.1308 Y63.2488
G01 X-32.5835 Y62.5129
G01 X-34.0188 Y61.7436
G01 X-35.4359 Y60.9413
G01 X-36.8341 Y60.1065
G01 X-38.2127 Y59.2397
G01 X-39.5709 Y58.3412
G01 X-40.9080 Y57.4117
G01 X-42.2232 Y56.4514
G01 X-43.5160 Y55.4611
G01 X-44.7855 Y54.4411
G01 X-46.0311 Y53.3921
G01 X-47.2521 Y52.3147
G01 X-48.4479 Y51.2092
G01 X-49.6179 Y50.0765
G01 X-50.7614 Y48.9171
G01 X-51.8778 Y47.7315
G01 X-52.9665 Y46.5205
G01 X-54.0270 Y45.2846
G01 X-55.0586 Y44.0246
G01 X-56.0609 Y42.7411
G01 X-57.0333 Y41.4348
G01 X-57.9752 Y40.1064
G01 X-58.8861 Y38.7566
G01 X-59.7657 Y37.3861
G01 X-60.6134 Y35.9956
G01 X-61.4287 Y34.5859
G01 X-62.2112 Y33.1578
G01 X-62.9606 Y31.7120
G01 X-63.6764 Y30.2493
G01 X-64.3581 Y28.7704
G01 X-65.0056 Y27.2762
G01 X-65.6183 Y25.7674
G01 X-66.1961 Y24.2448
G01 X-66.7385 Y22.7093
G01 X-67.2453 Y21.1617
G01 X-67.7162 Y19.6029
G01 X-68.1510 Y18.0335
G01 X-68.5494 Y16.4545
G01 X-68.9113 Y14.8668
G01 X-69.2364 Y13.2711
G01 X-69.5245 Y11.6683
G01 X-69.7755 Y10.0593
G01 X-69.9894 Y8.4449
G01 X-70.1658 Y6.8260
G01 X-70.3048 Y5.2035
G01 X-70.4063 Y3.5782
G01 X-70.4703 Y1.9510
G01 X-70.4966 Y0.3227
G01 X-70.4853 Y-1.3057
G01 X-70.4365 Y-2.9334
G01 X-70.3500 Y-4.5596
G01 X-70.2260 Y-6.1833
G01 X-70.0645 Y-7.8038
G01 X-69.8656 Y-9.4201
G01 X-69.6295 Y-11.0313
G01 X-69.3562 Y-12.6367
G01 X-69.0459 Y-14.2353
G01 X-68.6987 Y-15.8263
G01 X-68.3149 Y-17.4089
G01 X-67.8946 Y-18.9822
G01 X-67.4381 Y-20.5454
G01 X-66.9457 Y-22.0976
G01 X-66.4175 Y-23.6381
G01 X-65.8538 Y-25.1659
G01 X-65.2551 Y-26.6803
G01 X-64.6215 Y-28.1804
G01 X-63.9534 Y-29.6656
G01 X-63.2512 Y-31.1349
G01 X-62.5152 Y-32.5875
G01 X-61.7459 Y-34.0228
G01 X-60.9437 Y-35.4400
G01 X-60.1089 Y-36.8382
G01 X-59.2421 Y-38.2168
G01 X-58.3436 Y-39.5750
G01 X-57.4140 Y-40.9121
G01 X-56.4538 Y-42.2273
G01 X-55.4634 Y-43.5200
G01 X-54.4435 Y-44.7895
G01 X-53.3945 Y-46.0351
G01 X-52.3170 Y-47.2562
G01 X-51.2116 Y-48.4520
G01 X-50.0789 Y-49.6220
G01 X-48.9194 Y-50.7655
G01 X-47.7339 Y-51.8819
G01 X-46.5229 Y-52.9706
G01 X-45.2870 Y-54.0311
G01 X-44.0270 Y-55.0627
G01 X-42.7435 Y-56.0650
G01 X-41.4372 Y-57.0373
G01 X-40.1088 Y-57.9792
G01 X-38.7589 Y-58.8902
G01 X-37.3884 Y-59.7698
G01 X-35.9980 Y-60.6174
G01 X-34.5883 Y-61.4328
G01 X-33.1602 Y-62.2153
G01 X-31.7144 Y-62.9647
G01 X-30.2516 Y-63.6804
G01 X-28.7727 Y-64.3622
G01 X-27.2785 Y-65.0097
G01 X-25.7697 Y-65.6224
G01 X-24.2472 Y-66.2001
G01 X-22.7117 Y-66.7426
G01 X-21.1641 Y-67.2494
G01 X-19.6052 Y-67.7203
G01 X-18.0359 Y-68.1551
G01 X-16.4569 Y-68.5535
G01 X-14.8691 Y-68.9154
G01 X-13.2734 Y-69.2404
G01 X-11.6707 Y-69.5286
G01 X-10.0617 Y-69.7796
G01 X-8.4473 Y-69.9934
G01 X-6.8284 Y-70.1699
G01 X-5.2059 Y-70.3089
G01 X-3.5806 Y-70.4104
G01 X-1.9534 Y-70.4744
G01 X-0.3251 Y-70.5007
G01 X1.3033 Y-70.4894
G01 X2.9311 Y-70.4405
G01 X4.5572 Y-70.3541
G01 X6.1810 Y-70.2300
G01 X7.8014 Y-70.0686
G01 X9.4177 Y-69.8697
G01 X11.0290 Y-69.6335
G01 X12.6343 Y-69.3602
G01 X14.2330 Y-69.0499
G01 X15.8240 Y-68.7028
G01 X17.4066 Y-68.3190
G01 X18.9799 Y-67.8987
G01 X20.5431 Y-67.4422
G01 X22.0953 Y-66.9497
G01 X23.6357 Y-66.4215
G01 X25.1635 Y-65.8579
G01 X26.6779 Y-65.2591
G01 X28.1781 Y-64.6255
G01 X29.6632 Y-63.9575
G01 X31.1325 Y-63.2553
G01 X32.5852 Y-62.5193
G01 X34.0205 Y-61.7500
G01 X35.4376 Y-60.9478
G01 X36.8359 Y-60.1130
G01 X38.2144 Y-59.2461
G01 X39.5726 Y-58.3477
G01 X40.9097 Y-57.4181
G01 X42.2250 Y-56.4579
G01 X43.5177 Y-55.4675
G01 X44.7872 Y-54.4476
G01 X46.0328 Y-53.3986
G01 X47.2538 Y-52.3211
G01 X48.4496 Y-51.2157
G01 X49.6196 Y-50.0829
G01 X50.7631 Y-48.9235
G01 X51.8795 Y-47.7379
G01 X52.9683 Y-46.5269
G01 X54.0287 Y-45.2911
G01 X55.0604 Y-44.0311
G01 X56.0626 Y-42.7476
G01 X57.0350 Y-41.4412
G01 X57.9769 Y-40.1128
G01 X58.8879 Y-38.7630
G01 X59.7674 Y-37.3925
G01 X60.6151 Y-36.0020
G01 X61.4304 Y-34.5924
G01 X62.2130 Y-33.1642
G01 X62.9623 Y-31.7184
G01 X63.6781 Y-30.2557
G01 X64.3599 Y-28.7768
G01 X65.0073 Y-27.2826
G01 X65.6201 Y-25.7738
G01 X66.1978 Y-24.2513
G01 X66.7402 Y-22.7158
G01 X67.2470 Y-21.1682
G01 X67.7179 Y-19.6093
G01 X68.1527 Y-18.0399
G01 X68.5512 Y-16.4610
G01 X68.9130 Y-14.8732
G01 X69.2381 Y-13.2775
G01 X69.5262 Y-11.6747
G01 X69.7773 Y-10.0657
G01 X69.9911 Y-8.4514
G01 X70.1675 Y-6.8325
G01 X70.3066 Y-5.2099
G01 X70.4081 Y-3.5846
G01 X70.4720 Y-1.9574
G01 X70.4983 Y-0.3292
G01 X70.4871 Y1.2993
G01 X70.4382 Y2.9270
G01 X70.3517 Y4.5532
G01 X70.2277 Y6.1769
G01 X70.0662 Y7.7973
G01 X69.8673 Y9.4136
G01 X69.6312 Y11.0249
G01 X69.3579 Y12.6303
G01 X69.0476 Y14.2289
G01 X68.7004 Y15.8199
G01 X68.3166 Y17.4025
G01 X67.8963 Y18.9758
G01 X67.4399 Y20.5390
G01 X66.9474 Y22.0912
G01 X66.4192 Y23.6316
G01 X65.8556 Y25.1595
G01 X65.2568 Y26.6739
G01 X64.6232 Y28.1740
G01 X63.9551 Y29.6591
G01 X63.2529 Y31.1284
G01 X62.5170 Y32.5811
G01 X61.7477 Y34.0164
G01 X60.9454 Y35.4336
G01 X60.1106 Y36.8318
G01 X59.2438 Y38.2104
G01 X58.3453 Y39.5686
G01 X57.4157 Y40.9056
G01 X56.4555 Y42.2209
G01 X55.4652 Y43.5136
G01 X54.4452 Y44.7831
G01 X53.3962 Y46.0287
G01 X52.3187 Y47.2497
G01 X51.2133 Y48.4456
G01 X50.0806 Y49.6155
G01 X48.9211 Y50.7590
G01 X47.7356 Y51.8755
G01 X46.5246 Y52.9642
G01 X45.2887 Y54.0247
G01 X44.0287 Y55.0563
G01 X42.7452 Y56.0586
G01 X41.4389 Y57.0309
G01 X40.1105 Y57.9728
G01 X38.7606 Y58.8838
G01 X37.3901 Y59.7634
G01 X35.9997 Y60.6110
G01 X34.5900 Y61.4263
G01 X33.1619 Y62.2089
G01 X31.7161 Y62.9582
G01 X30.2533 Y63.6740
G01 X28.7745 Y64.3558
G01 X27.2802 Y65.0032
G01 X25.7714 Y65.6160
G01 X24.2489 Y66.1937
G01 X22.7134 Y66.7361
G01 X21.1658 Y67.2429
G01 X19.6069 Y67.7139
G01 X18.0376 Y68.1487
G01 X16.4586 Y68.5471
G01 X14.8708 Y68.9089
G01 X13.2752 Y69.2340
G01 X11.6724 Y69.5222
G01 X10.0634 Y69.7732
G01 X8.4490 Y69.9870
G01 X6.8301 Y70.1635
G01 X5.2076 Y70.3025
G01 X3.5823 Y70.4040
G01 X1.9551 Y70.4679
G01 X0.3268 Y70.4943
G01 X-1.3016 Y70.4830
G01 X-2.9293 Y70.4341
G01 X-4.5555 Y70.3476
G01 X-6.1793 Y70.2236
G01 X-7.7997 Y70.0621
G01 X-9.4160 Y69.8633
G01 X-11.0272 Y69.6271
G01 X-12.6326 Y69.3538
G01 X-14.2312 Y69.0435
G01 X-15.8223 Y68.6963
G01 X-17.4049 Y68.3125
G01 Y68.8500
G00 Z1.0000 F500
G00 X-20.2544 Y79.6500 F3000
G00 Z-3.5000 F500
G01 Z-5.0000 F120
G01 Y79.9702 F300
G01 X-18.5049 Y80.3930
G01 X-16.7467 Y80.7776
G01 X-14.9805 Y81.1237
G01 X-13.2072 Y81.4312
G01 X-11.4275 Y81.7000
G01 X-9.6425 Y81.9298
G01 X-7.8528 Y82.1207
G01 X-6.0594 Y82.2725
G01 X-4.2632 Y82.3851
G01 X-2.4649 Y82.4585
G01 X-0.6654 Y82.4927
G01 X1.1344 Y82.4876
G01 X2.9337 Y82.4432
G01 X4.7315 Y82.3596
G01 X6.5271 Y82.2368
G01 X8.3196 Y82.0749
G01 X10.1082 Y81.8739
G01 X11.8919 Y81.6339
G01 X13.6699 Y81.3551
G01 X15.4415 Y81.0375
G01 X17.2057 Y80.6814
G01 X18.9618 Y80.2869
G01 X20.7088 Y79.8541
G01 X22.4459 Y79.3834
G01 X24.1724 Y78.8748
G01 X25.8873 Y78.3288
G01 X27.5900 Y77.7454
G01 X29.2795 Y77.1251
G01 X30.9550 Y76.4680
G01 X32.6159 Y75.7745
G01 X34.2612 Y75.0450
G01 X35.8902 Y74.2797
G01 X37.5021 Y73.4791
G01 X39.0962 Y72.6436
G01 X40.6717 Y71.7734
G01 X42.2278 Y70.8691
G01 X43.7638 Y69.9311
G01 X45.2790 Y68.9597
G01 X46.7726 Y67.9556
G01 X48.2440 Y66.9191
G01 X49.6924 Y65.8507
G01 X51.1172 Y64.7510
G01 X52.5176 Y63.6205
G01 X53.8931 Y62.4597
G01 X55.2429 Y61.2692
G01 X56.5664 Y60.0495
G01 X57.8629 Y58.8013
G01 X59.1320 Y57.5250
G01 X60.3729 Y56.2214
G01 X61.5850 Y54.8910
G01 X62.7679 Y53.5345
G01 X63.9209 Y52.1525
G01 X65.0434 Y50.7457
G01 X66.1350 Y49.3147
G01 X67.1951 Y47.8602
G01 X68.2233 Y46.3830
G01 X69.2190 Y44.8837
G01 X70.1817 Y43.3630
G01 X71.1110 Y41.8217
G01 X72.0065 Y40.2605
G01 X72.8677 Y38.6801
G01 X73.6942 Y37.0813
G01 X74.4857 Y35.4649
G01 X75.2417 Y33.8316
G01 X75.9619 Y32.1822
G01 X76.6459 Y30.5174
G01 X77.2935 Y28.8381
G01 X77.9042 Y27.1452
G01 X78.4779 Y25.4392
G01 X79.0143 Y23.7212
G01 X79.5130 Y21.9919
G01 X79.9739 Y20.2521
G01 X80.3967 Y18.5027
G01 X80.7813 Y16.7445
G01 X81.1274 Y14.9782
G01 X81.4349 Y13.2049
G01 X81.7037 Y11.4253
G01 X81.9335 Y9.6402
G01 X82.1244 Y7.8506
G01 X82.2762 Y6.0572
G01 X82.3888 Y4.2609
G01 X82.4622 Y2.4626
G01 X82.4964 Y0.6631
G01 X82.4913 Y-1.1366
G01 X82.4469 Y-2.9359
G01 X82.3633 Y-4.7338
G01 X82.2405 Y-6.5294
G01 X82.0786 Y-8.3219
G01 X81.8776 Y-10.1104
G01 X81.6376 Y-11.8941
G01 X81.3588 Y-13.6722
G01 X81.0412 Y-15.4438
G01 X80.6851 Y-17.2080
G01 X80.2906 Y-18.9640
G01 X79.8578 Y-20.7110
G01 X79.3871 Y-22.4481
G01 X78.8785 Y-24.1746
G01 X78.3325 Y-25.8896
G01 X77.7491 Y-27.5922
G01 X77.1288 Y-29.2817
G01 X76.4717 Y-30.9573
G01 X75.7782 Y-32.6181
G01 X75.0487 Y-34.2634
G01 X74.2834 Y-35.8924
G01 X73.4828 Y-37.5044
G01 X72.6473 Y-39.0985
G01 X71.7771 Y-40.6739
G01 X70.8728 Y-42.2300
G01 X69.9348 Y-43.7661
G01 X68.9634 Y-45.2812
G01 X67.9593 Y-46.7749
G01 X66.9228 Y-48.2463
G01 X65.8544 Y-49.6947
G01 X64.7547 Y-51.1194
G01 X63.6242 Y-52.5199
G01 X62.4634 Y-53.8953
G01 X61.2729 Y-55.2451
G01 X60.0532 Y-56.5686
G01 X58.8050 Y-57.8652
G01 X57.5287 Y-59.1342
G01 X56.2251 Y-60.3751
G01 X54.8947 Y-61.5873
G01 X53.5382 Y-62.7701
G01 X52.1562 Y-63.9231
G01 X50.7494 Y-65.0457
G01 X49.3184 Y-66.1373
G01 X47.8639 Y-67.1974
G01 X46.3867 Y-68.2255
G01 X44.8874 Y-69.2212
G01 X43.3667 Y-70.1839
G01 X41.8254 Y-71.1132
G01 X40.2642 Y-72.0087
G01 X38.6838 Y-72.8699
G01 X37.0850 Y-73.6965
G01 X35.4686 Y-74.4879
G01 X33.8353 Y-75.2439
G01 X32.1859 Y-75.9641
G01 X30.5211 Y-76.6481
G01 X28.8418 Y-77.2957
G01 X27.1489 Y-77.9065
G01 X25.4429 Y-78.4802
G01 X23.7249 Y-79.0165
G01 X21.9956 Y-79.5152
G01 X20.2558 Y-79.9761
G01 X18.5064 Y-80.3990
G01 X16.7481 Y-80.7835
G01 X14.9819 Y-81.1297
G01 X13.2086 Y-81.4372
G01 X11.4290 Y-81.7059
G01 X9.6439 Y-81.9358
G01 X7.8543 Y-82.1266
G01 X6.0609 Y-82.2784
G01 X4.2646 Y-82.3911
G01 X2.4663 Y-82.4645
G01 X0.6668 Y-82.4986
G01 X-1.1329 Y-82.4935
G01 X-2.9322 Y-82.4492
G01 X-4.7301 Y-82.3656
G01 X-6.5257 Y-82.2428
G01 X-8.3182 Y-82.0808
G01 X-10.1067 Y-81.8798
G01 X-11.8904 Y-81.6398
G01 X-13.6685 Y-81.3610
G01 X-15.4401 Y-81.0434
G01 X-17.2043 Y-80.6873
G01 X-18.9603 Y-80.2928
G01 X-20.7073 Y-79.8601
G01 X-22.4444 Y-79.3893
G01 X-24.1709 Y-78.8808
G01 X-25.8859 Y-78.3347
G01 X-27.5885 Y-77.7514
G01 X-29.2780 Y-77.1310
G01 X-30.9536 Y-76.4739
G01 X-32.6144 Y-75.7805
G01 X-34.2597 Y-75.0509
G01 X-35.8887 Y-74.2857
G01 X-37.5007 Y-73.4851
G01 X-39.0948 Y-72.6495
G01 X-40.6702 Y-71.7794
G01 X-42.2263 Y-70.8750
G01 X-43.7624 Y-69.9370
G01 X-45.2775 Y-68.9657
G01 X-46.7712 Y-67.9615
G01 X-48.2426 Y-66.9250
G01 X-49.6910 Y-65.8567
G01 X-51.1157 Y-64.7570
G01 X-52.5162 Y-63.6265
G01 X-53.8916 Y-62.4657
G01 X-55.2414 Y-61.2752
G01 X-56.5649 Y-60.0555
G01 X-57.8615 Y-58.8072
G01 X-59.1305 Y-57.5310
G01 X-60.3714 Y-56.2273
G01 X-61.5836 Y-54.8969
G01 X-62.7664 Y-53.5404
G01 X-63.9194 Y-52.1584
G01 X-65.0420 Y-50.7516
G01 X-66.1336 Y-49.3206
G01 X-67.1937 Y-47.8662
G01 X-68.2218 Y-46.3890
G01 X-69.2175 Y-44.8897
G01 X-70.1802 Y-43.3690
G01 X-71.1095 Y-41.8277
G01 X-72.0050 Y-40.2665
G01 X-72.8662 Y-38.6861
G01 X-73.6928 Y-37.0873
G01 X-74.4842 Y-35.4708
G01 X-75.2402 Y-33.8375
G01 X-75.9604 Y-32.1881
G01 X-76.6444 Y-30.5234
G01 X-77.2920 Y-28.8441
G01 X-77.9028 Y-27.1511
G01 X-78.4765 Y-25.4452
G01 X-79.0128 Y-23.7272
G01 X-79.5116 Y-21.9978
G01 X-79.9724 Y-20.2581
G01 X-80.3953 Y-18.5086
G01 X-80.7798 Y-16.7504
G01 X-81.1260 Y-14.9842
G01 X-81.4335 Y-13.2109
G01 X-81.7022 Y-11.4312
G01 X-81.9321 Y-9.6462
G01 X-82.1229 Y-7.8565
G01 X-82.2747 Y-6.0631
G01 X-82.3874 Y-4.2669
G01 X-82.4608 Y-2.4686
G01 X-82.4949 Y-0.6691
G01 X-82.4898 Y1.1307
G01 X-82.4455 Y2.9300
G01 X-82.3619 Y4.7278
G01 X-82.2391 Y6.5234
G01 X-82.0771 Y8.3159
G01 X-81.8761 Y10.1045
G01 X-81.6361 Y11.8882
G01 X-81.3573 Y13.6663
G01 X-81.0397 Y15.4378
G01 X-80.6836 Y17.2020
G01 X-80.2891 Y18.9581
G01 X-79.8564 Y20.7051
G01 X-79.3856 Y22.4422
G01 X-78.8771 Y24.1687
G01 X-78.3310 Y25.8836
G01 X-77.7477 Y27.5863
G01 X-77.1273 Y29.2758
G01 X-76.4702 Y30.9513
G01 X-75.7768 Y32.6122
G01 X-75.0472 Y34.2575
G01 X-74.2820 Y35.8865
G01 X-73.4814 Y37.4984
G01 X-72.6458 Y39.0925
G01 X-71.7757 Y40.6680
G01 X-70.8713 Y42.2241
G01 X-69.9333 Y43.7601
G01 X-68.9620 Y45.2753
G01 X-67.9578 Y46.7689
G01 X-66.9213 Y48.2403
G01 X-65.8530 Y49.6887
G01 X-64.7533 Y51.1135
G01 X-63.6228 Y52.5139
G01 X-62.4620 Y53.8894
G01 X-61.2715 Y55.2392
G01 X-60.0518 Y56.5627
G01 X-58.8035 Y57.8592
G01 X-57.5273 Y59.1283
G01 X-56.2236 Y60.3692
G01 X-54.8932 Y61.5813
G01 X-53.5367 Y62.7642
G01 X-52.1547 Y63.9172
G01 X-50.7479 Y65.0397
G01 X-49.3169 Y66.1313
G01 X-47.8625 Y67.1914
G01 X-46.3853 Y68.2196
G01 X-44.8860 Y69.2153
G01 X-43.3653 Y70.1780
G01 X-41.8240 Y71.1073
G01 X-40.2628 Y72.0028
G01 X-38.6824 Y72.8640
G01 X-37.0836 Y73.6905
G01 X-35.4671 Y74.4820
G01 X-33.8338 Y75.2380
G01 X-32.1844 Y75.9582
G01 X-30.5197 Y76.6422
G01 X-28.8404 Y77.2898
G01 X-27.1474 Y77.9005
G01 X-25.4415 Y78.4742
G01 X-23.7235 Y79.0106
G01 X-21.9941 Y79.5093
G01 X-20.2544 Y79.9702
G01 Y79.6500
G00 Z1.0000 F500
G00 X-20.2955 Y-79.6500 F3000
G00 Z-4.5000 F500
G01 Z-6.0000 F120
G01 X20.2955 F300
G01 Y-76.9500
G01 X28.8915
G01 X-28.8915
G01 Y-74.2500
G01 X-35.2570
G01 X35.2570
G01 Y-71.5500
G01 X40.4554
G01 X-40.4554
G01 Y-68.8500
G01 X-44.8965
G01 X-16.4909
G01 X-25.2232
G01 Y-66.1500
G01 X-48.7918
G01 Y-63.4500
G01 X-52.2507
G01 X-31.4027
G01 X-36.3512
G01 Y-60.7500
G01 X-55.3707
G01 X-58.1966 Y-58.0500
G01 X-40.5238
G01 X-44.1411
G01 Y-55.3500
G01 X-60.7686
G01 X-63.1223 Y-52.6500
G01 X-47.3300
G01 X-50.1738 Y-49.9500
G01 X-65.2812
G01 X-67.2611 Y-47.2500
G01 X-52.7199
G01 X-55.0207 Y-44.5500
G01 X-69.0761
G01 X-70.7432 Y-41.8500
G01 X-57.1009
G01 X-58.9844 Y-39.1500
G01 X-72.2738
G01 X-73.6752 Y-36.4500
G01 X-60.6916
G01 X-62.2358 Y-33.7500
G01 X-74.9466
G01 X-76.1060 Y-31.0500
G01 X-63.6261
G01 X-64.8712 Y-28.3500
G01 X-77.1538
G01 X-78.0903 Y-25.6500
G01 X-65.9852
G01 X-66.9748 Y-22.9500
G01 X-78.9305
G01 X-79.6617 Y-20.2500
G01 X-67.8392
G01 X-68.5851 Y-17.5500
G01 X-80.3022
G01 X-80.8430 Y-14.8500
G01 X-69.2221
G01 X-69.7456 Y-12.1500
G01 X-81.2938
G01 X-81.6509 Y-9.4500
G01 X-70.1611
G01 X-70.4769 Y-6.7500
G01 X-81.9188
G01 X-82.0963 Y-4.0500
G01 X-70.6787
G01 X-70.7841 Y-1.3500
G01 X-82.1852
G01 Y1.3500
G01 X-70.7835
G01 X-70.6794 Y4.0500
G01 X-82.0963
G01 X-81.9188 Y6.7500
G01 X-70.4774
G01 X-70.1619 Y9.4500
G01 X-81.6509
G01 X-81.2938 Y12.1500
G01 X-69.7459
G01 X-69.2231 Y14.8500
G01 X-80.8430
G01 X-80.3022 Y17.5500
G01 X-68.5851
G01 X-67.8383 Y20.2500
G01 X-79.6617
G01 X-78.9305 Y22.9500
G01 X-66.9744
G01 X-65.9849 Y25.6500
G01 X-78.0903
G01 X-77.1538 Y28.3500
G01 X-64.8707
G01 X-63.6267 Y31.0500
G01 X-76.1060
G01 X-74.9466 Y33.7500
G01 X-62.2353
G01 X-60.6910 Y36.4500
G01 X-73.6752
G01 X-72.2738 Y39.1500
G01 X-58.9853
G01 X-57.1008 Y41.8500
G01 X-70.7432
G01 X-69.0761 Y44.5500
G01 X-55.0198
G01 X-52.7210 Y47.2500
G01 X-67.2611
G01 X-65.2812 Y49.9500
G01 X-50.1732
G01 X-47.3298 Y52.6500
G01 X-63.1223
G01 X-60.7686 Y55.3500
G01 X-44.1403
G01 Y58.0500
G01 X-40.5224
G01 X-58.1966
G01 X-55.3707 Y60.7500
G01 X-36.3502
G01 Y63.4500
G01 X-31.4015
G01 X-52.2507
G01 X-48.7918
G01 Y66.1500
G01 X-25.2227
G01 Y68.8500
G01 X-16.4932
G01 X-44.8965
G01 X-40.4554
G01 Y71.5500
G01 X40.4554
G01 Y68.8500
G01 X44.8965
G01 X16.4915
G01 X25.2232
G01 Y66.1500
G01 X48.7918
G01 Y63.4500
G01 X52.2507
G01 X31.4027
G01 X36.3512
G01 Y60.7500
G01 X55.3707
G01 X58.1966 Y58.0500
G01 X40.5226
G01 X44.1413
G01 Y55.3500
G01 X60.7686
G01 X63.1223 Y52.6500
G01 X47.3294
G01 X50.1738 Y49.9500
G01 X65.2812
G01 X67.2611 Y47.2500
G01 X52.7208
G01 X55.0204 Y44.5500
G01 X69.0761
G01 X70.7432 Y41.8500
G01 X57.1002
G01 X58.9851 Y39.1500
G01 X72.2738
G01 X73.6752 Y36.4500
G01 X60.6918
G01 X62.2357 Y33.7500
G01 X74.9466
G01 X76.1060 Y31.0500
G01 X63.6262
G01 X64.8709 Y28.3500
G01 X77.1538
G01 X78.0903 Y25.6500
G01 X65.9849
G01 X66.9739 Y22.9500
G01 X78.9305
G01 X79.6617 Y20.2500
G01 X67.8388
G01 X68.5853 Y17.5500
G01 X80.3022
G01 X80.8430 Y14.8500
G01 X69.2230
G01 X69.7456 Y12.1500
G01 X81.2938
G01 X81.6509 Y9.4500
G01 X70.1611
G01 X70.4769 Y6.7500
G01 X81.9188
G01 X82.0963 Y4.0500
G01 X70.6791
G01 X70.7832 Y1.3500
G01 X82.1852
G01 Y-1.3500
G01 X70.7837
G01 X70.6792 Y-4.0500
G01 X82.0963
G01 X81.9188 Y-6.7500
G01 X70.4764
G01 X70.1616 Y-9.4500
G01 X81.6509
G01 X81.2938 Y-12.1500
G01 X69.7459
G01 X69.2231 Y-14.8500
G01 X80.8430
G01 X80.3022 Y-17.5500
G01 X68.5851
G01 X67.8392 Y-20.2500
G01 X79.6617
G01 X78.9305 Y-22.9500
G01 X66.9743
G01 X65.9849 Y-25.6500
G01 X78.0903
G01 X77.1538 Y-28.3500
G01 X64.8707
G01 X63.6267 Y-31.0500
G01 X76.1060
G01 X74.9466 Y-33.7500
G01 X62.2358
G01 X60.6913 Y-36.4500
G01 X73.6752
G01 X72.2738 Y-39.1500
G01 X58.9853
G01 X57.1008 Y-41.8500
G01 X70.7432
G01 X69.0761 Y-44.5500
G01 X55.0203
G01 X52.7201 Y-47.2500
G01 X67.2611
G01 X65.2812 Y-49.9500
G01 X50.1732
G01 X47.3287 Y-52.6500
G01 X63.1223
G01 X60.7686 Y-55.3500
G01 X44.1407
G01 Y-58.0500
G01 X40.5224
G01 X58.1966
G01 X55.3707 Y-60.7500
G01 X36.3518
G01 Y-63.4500
G01 X31.4022
G01 X52.2507
G01 X48.7918
G01 Y-66.1500
G01 X25.2227
G01 Y-68.8500
G01 X16.4894
G01 X44.8965
G00 Z1.0000 F500
G00 X35.2570 Y71.5500 F3000
G00 Z-4.5000 F500
G01 Z-6.0000 F120
G01 Y74.2500 F300
G01 X-35.2570
G01 X-28.8915
G01 Y76.9500
G01 X28.8915
G01 X20.2955
G01 Y79.6500
G01 X-20.2955
G00 Z1.0000 F500
G00 X-17.4049 Y68.8500 F3000
G00 Z-4.5000 F500
G01 Z-6.0000 F120
G01 Y68.3125 F300
G01 X-18.9782 Y67.8923
G01 X-20.5414 Y67.4358
G01 X-22.0936 Y66.9433
G01 X-23.6340 Y66.4151
G01 X-25.1618 Y65.8515
G01 X-26.6762 Y65.2527
G01 X-28.1764 Y64.6191
G01 X-29.6615 Y63.9510
G01 X-31.1308 Y63.2488
G01 X-32.5835 Y62.5129
G01 X-34.0188 Y61.7436
G01 X-35.4359 Y60.9413
G01 X-36.8341 Y60.1065
G01 X-38.2127 Y59.2397
G01 X-39.5709 Y58.3412
G01 X-40.9080 Y57.4117
G01 X-42.2232 Y56.4514
G01 X-43.5160 Y55.4611
G01 X-44.7855 Y54.4411
G01 X-46.0311 Y53.3921
G01 X-47.2521 Y52.3147
G01 X-48.4479 Y51.2092
G01 X-49.6179 Y50.0765
G01 X-50.7614 Y48.9171
G01 X-51.8778 Y47.7315
G01 X-52.9665 Y46.5205
G01 X-54.0270 Y45.2846
G01 X-55.0586 Y44.0246
G01 X-56.0609 Y42.7411
G01 X-57.0333 Y41.4348
G01 X-57.9752 Y40.1064
G01 X-58.8861 Y38.7566
G01 X-59.7657 Y37.3861
G01 X-60.6134 Y35.9956
G01 X-61.4287 Y34.5859
G01 X-62.2112 Y33.1578
G01 X-62.9606 Y31.7120
G01 X-63.6764 Y30.2493
G01 X-64.3581 Y28.7704
G01 X-65.0056 Y27.2762
G01 X-65.6183 Y25.7674
G01 X-66.1961 Y24.2448
G01 X-66.7385 Y22.7093
G01 X-67.2453 Y21.1617
G01 X-67.7162 Y19.6029
G01 X-68.1510 Y18.0335
G01 X-68.5494 Y16.4545
G01 X-68.9113 Y14.8668
G01 X-69.2364 Y13.2711
G01 X-69.5245 Y11.6683
G01 X-69.7755 Y10.0593
G01 X-69.9894 Y8.4449
G01 X-70.1658 Y6.8260
G01 X-70.3048 Y5.2035
G01 X-70.4063 Y3.5782
G01 X-70.4703 Y1.9510
G01 X-70.4966 Y0.3227
G01 X-70.4853 Y-1.3057
G01 X-70.4365 Y-2.9334
G01 X-70.3500 Y-4.5596
G01 X-70.2260 Y-6.1833
G01 X-70.0645 Y-7.8038
G01 X-69.8656 Y-9.4201
G01 X-69.6295 Y-11.0313
G01 X-69.3562 Y-12.6367
G01 X-69.0459 Y-14.2353
G01 X-68.6987 Y-15.8263
G01 X-68.3149 Y-17.4089
G01 X-67.8946 Y-18.9822
G01 X-67.4381 Y-20.5454
G01 X-66.9457 Y-22.0976
G01 X-66.4175 Y-23.6381
G01 X-65.8538 Y-25.1659
G01 X-65.2551 Y-26.6803
G01 X-64.6215 Y-28.1804
G01 X-63.9534 Y-29.6656
G01 X-63.2512 Y-31.1349
G01 X-62.5152 Y-32.5875
G01 X-61.7459 Y-34.0228
G01 X-60.9437 Y-35.4400
G01 X-60.1089 Y-36.8382
G01 X-59.2421 Y-38.2168
G01 X-58.3436 Y-39.5750
G01 X-57.4140 Y-40.9121
G01 X-56.4538 Y-42.2273
G01 X-55.4634 Y-43.5200
G01 X-54.4435 Y-44.7895
G01 X-53.3945 Y-46.0351
G01 X-52.3170 Y-47.2562
G01 X-51.2116 Y-48.4520
G01 X-50.0789 Y-49.6220
G01 X-48.9194 Y-50.7655
G01 X-47.7339 Y-51.8819
G01 X-46.5229 Y-52.9706
G01 X-45.2870 Y-54.0311
G01 X-44.0270 Y-55.0627
G01 X-42.7435 Y-56.0650
G01 X-41.4372 Y-57.0373
G01 X-40.1088 Y-57.9792
G01 X-38.7589 Y-58.8902
G01 X-37.3884 Y-59.7698
G01 X-35.9980 Y-60.6174
G01 X-34.5883 Y-61.4328
G01 X-33.1602 Y-62.2153
G01 X-31.7144 Y-62.9647
G01 X-30.2516 Y-63.6804
G01 X-28.7727 Y-64.3622
G01 X-27.2785 Y-65.0097
G01 X-25.7697 Y-65.6224
G01 X-24.2472 Y-66.2001
G01 X-22.7117 Y-66.7426
G01 X-21.1641 Y-67.2494
G01 X-19.6052 Y-67.7203
G01 X-18.0359 Y-68.1551
G01 X-16.4569 Y-68.5535
G01 X-14.8691 Y-68.9154
G01 X-13.2734 Y-69.2404
G01 X-11.6707 Y-69.5286
G01 X-10.0617 Y-69.7796
G01 X-8.4473 Y-69.9934
G01 X-6.8284 Y-70.1699
G01 X-5.2059 Y-70.3089
G01 X-3.5806 Y-70.4104
G01 X-1.9534 Y-70.4744
G01 X-0.3251 Y-70.5007
G01 X1.3033 Y-70.4894
G01 X2.9311 Y-70.4405
G01 X4.5572 Y-70.3541
G01 X6.1810 Y-70.2300
G01 X7.8014 Y-70.0686
G01 X9.4177 Y-69.8697
G01 X11.0290 Y-69.6335
G01 X12.6343 Y-69.3602
G01 X14.2330 Y-69.0499
G01 X15.8240 Y-68.7028
G01 X17.4066 Y-68.3190
G01 X18.9799 Y-67.8987
G01 X20.5431 Y-67.4422
G01 X22.0953 Y-66.9497
G01 X23.6357 Y-66.4215
G01 X25.1635 Y-65.8579
G01 X26.6779 Y-65.2591
G01 X28.1781 Y-64.6255
G01 X29.6632 Y-63.9575
G01 X31.1325 Y-63.2553
G01 X32.5852 Y-62.5193
G01 X34.0205 Y-61.7500
G01 X35.4376 Y-60.9478
G01 X36.8359 Y-60.1130
G01 X38.2144 Y-59.2461
G01 X39.5726 Y-58.3477
G01 X40.9097 Y-57.4181
G01 X42.2250 Y-56.4579
G01 X43.5177 Y-55.4675
G01 X44.7872 Y-54.4476
G01 X46.0328 Y-53.3986
G01 X47.2538 Y-52.3211
G01 X48.4496 Y-51.2157
G01 X49.6196 Y-50.0829
G01 X50.7631 Y-48.9235
G01 X51.8795 Y-47.7379
G01 X52.9683 Y-46.5269
G01 X54.0287 Y-45.2911
G01 X55.0604 Y-44.0311
G01 X56.0626 Y-42.7476
G01 X57.0350 Y-41.4412
G01 X57.9769 Y-40.1128
G01 X58.8879 Y-38.7630
G01 X59.7674 Y-37.3925
G01 X60.6151 Y-36.0020
G01 X61.4304 Y-34.5924
G01 X62.2130 Y-33.1642
G01 X62.9623 Y-31.7184
G01 X63.6781 Y-30.2557
G01 X64.3599 Y-28.7768
G01 X65.0073 Y-27.2826
G01 X65.6201 Y-25.7738
G01 X66.1978 Y-24.2513
G01 X66.7402 Y-22.7158
G01 X67.2470 Y-21.1682
G01 X67.7179 Y-19.6093
G01 X68.1527 Y-18.0399
G01 X68.5512 Y-16.4610
G01 X68.9130 Y-14.8732
G01 X69.2381 Y-13.2775
G01 X69.5262 Y-11.6747
G01 X69.7773 Y-10.0657
G01 X69.9911 Y-8.4514
G01 X70.1675 Y-6.8325
G01 X70.3066 Y-5.2099
G01 X70.4081 Y-3.5846
G01 X70.4720 Y-1.9574
G01 X70.4983 Y-0.3292
G01 X70.4871 Y1.2993
G01 X70.4382 Y2.9270
G01 X70.3517 Y4.5532
G01 X70.2277 Y6.1769
G01 X70.0662 Y7.7973
G01 X69.8673 Y9.4136
G01 X69.6312 Y11.0249
G01 X69.3579 Y12.6303
G01 X69.0476 Y14.2289
G01 X68.7004 Y15.8199
G01 X68.3166 Y17.4025
G01 X67.8963 Y18.9758
G01 X67.4399 Y20.5390
G01 X66.9474 Y22.0912
G01 X66.4192 Y23.6316
G01 X65.8556 Y25.1595
G01 X65.2568 Y26.6739
G01 X64.6232 Y28.1740
G01 X63.9551 Y29.6591
G01 X63.2529 Y31.1284
G01 X62.5170 Y32.5811
G01 X61.7477 Y34.0164
G01 X60.9454 Y35.4336
G01 X60.1106 Y36.8318
G01 X59.2438 Y38.2104
G01 X58.3453 Y39.5686
G01 X57.4157 Y40.9056
G01 X56.4555 Y42.2209
G01 X55.4652 Y43.5136
G01 X54.4452 Y44.7831
G01 X53.3962 Y46.0287
G01 X52.3187 Y47.2497
G01 X51.2133 Y48.4456
G01 X50.0806 Y49.6155
G01 X48.9211 Y50.7590
G01 X47.7356 Y51.8755
G01 X46.5246 Y52.9642
G01 X45.2887 Y54.0247
G01 X44.0287 Y55.0563
G01 X42.7452 Y56.0586
G01 X41.4389 Y57.0309
G01 X40.1105 Y57.9728
G01 X38.7606 Y58.8838
G01 X37.3901 Y59.7634
G01 X35.9997 Y60.6110
G01 X34.5900 Y61.4263
G01 X33.1619 Y62.2089
G01 X31.7161 Y62.9582
G01 X30.2533 Y63.6740
G01 X28.7745 Y64.3558
G01 X27.2802 Y65.0032
G01 X25.7714 Y65.6160
G01 X24.2489 Y66.1937
G01 X22.7134 Y66.7361
G01 X21.1658 Y67.2429
G01 X19.6069 Y67.7139
G01 X18.0376 Y68.1487
G01 X16.4586 Y68.5471
G01 X14.8708 Y68.9089
G01 X13.2752 Y69.2340
G01 X11.6724 Y69.5222
G01 X10.0634 Y69.7732
G01 X8.4490 Y69.9870
G01 X6.8301 Y70.1635
G01 X5.2076 Y70.3025
G01 X3.5823 Y70.4040
G01 X1.9551 Y70.4679
G01 X0.3268 Y70.4943
G01 X-1.3016 Y70.4830
G01 X-2.9293 Y70.4341
G01 X-4.5555 Y70.3476
G01 X-6.1793 Y70.2236
G01 X-7.7997 Y70.0621
G01 X-9.4160 Y69.8633
G01 X-11.0272 Y69.6271
G01 X-12.6326 Y69.3538
G01 X-14.2312 Y69.0435
G01 X-15.8223 Y68.6963
G01 X-17.4049 Y68.3125
G01 Y68.8500
G00 Z1.0000 F500
G00 X-20.2544 Y79.6500 F3000
G00 Z-4.5000 F500
G01 Z-6.0000 F120
G01 Y79.9702 F300
G01 X-18.5049 Y80.3930
G01 X-16.7467 Y80.7776
G01 X-14.9805 Y81.1237
G01 X-13.2072 Y81.4312
G01 X-11.4275 Y81.7000
G01 X-9.6425 Y81.9298
G01 X-7.8528 Y82.1207
G01 X-6.0594 Y82.2725
G01 X-4.2632 Y82.3851
G01 X-2.4649 Y82.4585
G01 X-0.6654 Y82.4927
G01 X1.1344 Y82.4876
G01 X2.9337 Y82.4432
G01 X4.7315 Y82.3596
G01 X6.5271 Y82.2368
G01 X8.3196 Y82.0749
G01 X10.1082 Y81.8739
G01 X11.8919 Y81.6339
G01 X13.6699 Y81.3551
G01 X15.4415 Y81.0375
G01 X17.2057 Y80.6814
G01 X18.9618 Y80.2869
G01 X20.7088 Y79.8541
G01 X22.4459 Y79.3834
G01 X24.1724 Y78.8748
G01 X25.8873 Y78.3288
G01 X27.5900 Y77.7454
G01 X29.2795 Y77.1251
G01 X30.9550 Y76.4680
G01 X32.6159 Y75.7745
G01 X34.2612 Y75.0450
G01 X35.8902 Y74.2797
G01 X37.5021 Y73.4791
G01 X39.0962 Y72.6436
G01 X40.6717 Y71.7734
G01 X42.2278 Y70.8691
G01 X43.7638 Y69.9311
G01 X45.2790 Y68.9597
G01 X46.7726 Y67.9556
G01 X48.2440 Y66.9191
G01 X49.6924 Y65.8507
G01 X51.1172 Y64.7510
G01 X52.5176 Y63.6205
G01 X53.8931 Y62.4597
G01 X55.2429 Y61.2692
G01 X56.5664 Y60.0495
G01 X57.8629 Y58.8013
G01 X59.1320 Y57.5250
G01 X60.3729 Y56.2214
G01 X61.5850 Y54.8910
G01 X62.7679 Y53.5345
G01 X63.9209 Y52.1525
G01 X65.0434 Y50.7457
G01 X66.1350 Y49.3147
G01 X67.1951 Y47.8602
G01 X68.2233 Y46.3830
G01 X69.2190 Y44.8837
G01 X70.1817 Y43.3630
G01 X71.1110 Y41.8217
G01 X72.0065 Y40.2605
G01 X72.8677 Y38.6801
G01 X73.6942 Y37.0813
G01 X74.4857 Y35.4649
G01 X75.2417 Y33.8316
G01 X75.9619 Y32.1822
G01 X76.6459 Y30.5174
G01 X77.2935 Y28.8381
G01 X77.9042 Y27.1452
G01 X78.4779 Y25.4392
G01 X79.0143 Y23.7212
G01 X79.5130 Y21.9919
G01 X79.9739 Y20.2521
G01 X80.3967 Y18.5027
G01 X80.7813 Y16.7445
G01 X81.1274 Y14.9782
G01 X81.4349 Y13.2049
G01 X81.7037 Y11.4253
G01 X81.9335 Y9.6402
G01 X82.1244 Y7.8506
G01 X82.2762 Y6.0572
G01 X82.3888 Y4.2609
G01 X82.4622 Y2.4626
G01 X82.4964 Y0.6631
G01 X82.4913 Y-1.1366
G01 X82.4469 Y-2.9359
G01 X82.3633 Y-4.7338
G01 X82.2405 Y-6.5294
G01 X82.0786 Y-8.3219
G01 X81.8776 Y-10.1104
G01 X81.6376 Y-11.8941
G01 X81.3588 Y-13.6722
G01 X81.0412 Y-15.4438
G01 X80.6851 Y-17.2080
G01 X80.2906 Y-18.9640
G01 X79.8578 Y-20.7110
G01 X79.3871 Y-22.4481
G01 X78.8785 Y-24.1746
G01 X78.3325 Y-25.8896
G01 X77.7491 Y-27.5922
G01 X77.1288 Y-29.2817
G01 X76.4717 Y-30.9573
G01 X75.7782 Y-32.6181
G01 X75.0487 Y-34.2634
G01 X74.2834 Y-35.8924
G01 X73.4828 Y-37.5044
G01 X72.6473 Y-39.0985
G01 X71.7771 Y-40.6739
G01 X70.8728 Y-42.2300
G01 X69.9348 Y-43.7661
G01 X68.9634 Y-45.2812
G01 X67.9593 Y-46.7749
G01 X66.9228 Y-48.2463
G01 X65.8544 Y-49.6947
G01 X64.7547 Y-51.1194
G01 X63.6242 Y-52.5199
G01 X62.4634 Y-53.8953
G01 X61.2729 Y-55.2451
