;Project PortableSpeaker_front
;Created by Estlcam version 10 build 11.006
;Machining time about 00:10:10 hours

G90
G92 X0 Y0 Z0
M03 S24000
G00 Z1.0000 F500

G00 X-4.5101 Y-22.0428 F3000
G00 Z0.5000 F500
G01 Z-1.0000 F120
G01 X-5.3720 Y-21.8488 F300
G01 X-6.2256 Y-21.6210
G01 X-7.0697 Y-21.3599
G01 X-7.9028 Y-21.0659
G01 X-8.7238 Y-20.7394
G01 X-9.5313 Y-20.3809
G01 X-10.3241 Y-19.9910
G01 X-11.1009 Y-19.5703
G01 X-11.8607 Y-19.1194
G01 X-12.6022 Y-18.6390
G01 X-13.3242 Y-18.1299
G01 X-14.0257 Y-17.5928
G01 X-14.7056 Y-17.0286
G01 X-15.3628 Y-16.4381
G01 X-15.9963 Y-15.8223
G01 X-16.6052 Y-15.1821
G01 X-17.1884 Y-14.5185
G01 X-17.7452 Y-13.8325
G01 X-18.2745 Y-13.1251
G01 X-18.7757 Y-12.3975
G01 X-19.2480 Y-11.6509
G01 X-19.6906 Y-10.8862
G01 X-20.1028 Y-10.1048
G01 X-20.4840 Y-9.3077
G01 X-20.8336 Y-8.4964
G01 X-21.1511 Y-7.6719
G01 X-21.4360 Y-6.8356
G01 X-21.6878 Y-5.9887
G01 X-21.9062 Y-5.1327
G01 X-22.0909 Y-4.2687
G01 X-22.2414 Y-3.3981
G01 X-22.3577 Y-2.5223
G01 X-22.4395 Y-1.6426
G01 X-22.4866 Y-0.7603
G01 X-22.4992 Y0.1231
G01 X-22.4770 Y1.0063
G01 X-22.4202 Y1.8879
G01 X-22.3287 Y2.7667
G01 X-22.2029 Y3.6412
G01 X-22.0428 Y4.5101
G01 X-21.8488 Y5.3720
G01 X-21.6210 Y6.2256
G01 X-21.3599 Y7.0697
G01 X-21.0659 Y7.9028
G01 X-20.7394 Y8.7238
G01 X-20.3809 Y9.5313
G01 X-19.9910 Y10.3241
G01 X-19.5703 Y11.1009
G01 X-19.1194 Y11.8607
G01 X-18.6390 Y12.6022
G01 X-18.1299 Y13.3242
G01 X-17.5928 Y14.0257
G01 X-17.0286 Y14.7056
G01 X-16.4381 Y15.3628
G01 X-15.8223 Y15.9963
G01 X-15.1821 Y16.6052
G01 X-14.5185 Y17.1884
G01 X-13.8325 Y17.7452
G01 X-13.1251 Y18.2745
G01 X-12.3975 Y18.7757
G01 X-11.6509 Y19.2480
G01 X-10.8862 Y19.6906
G01 X-10.1048 Y20.1028
G01 X-9.3077 Y20.4840
G01 X-8.4964 Y20.8336
G01 X-7.6719 Y21.1511
G01 X-6.8356 Y21.4360
G01 X-5.9887 Y21.6878
G01 X-5.1327 Y21.9062
G01 X-4.2687 Y22.0909
G01 X-3.3981 Y22.2414
G01 X-2.5223 Y22.3577
G01 X-1.6426 Y22.4395
G01 X-0.7603 Y22.4866
G01 X0.1231 Y22.4992
G01 X1.0063 Y22.4770
G01 X1.8879 Y22.4202
G01 X2.7667 Y22.3287
G01 X3.6412 Y22.2029
G01 X4.5101 Y22.0428
G01 X5.3720 Y21.8488
G01 X6.2256 Y21.6210
G01 X7.0697 Y21.3599
G01 X7.9028 Y21.0659
G01 X8.7238 Y20.7394
G01 X9.5313 Y20.3809
G01 X10.3241 Y19.9910
G01 X11.1009 Y19.5703
G01 X11.8607 Y19.1194
G01 X12.6022 Y18.6390
G01 X13.3242 Y18.1299
G01 X14.0257 Y17.5928
G01 X14.7056 Y17.0286
G01 X15.3628 Y16.4381
G01 X15.9963 Y15.8223
G01 X16.6052 Y15.1821
G01 X17.1884 Y14.5185
G01 X17.7452 Y13.8325
G01 X18.2745 Y13.1251
G01 X18.7757 Y12.3975
G01 X19.2480 Y11.6509
G01 X19.6906 Y10.8862
G01 X20.1028 Y10.1048
G01 X20.4840 Y9.3077
G01 X20.8336 Y8.4964
G01 X21.1511 Y7.6719
G01 X21.4360 Y6.8356
G01 X21.6878 Y5.9887
G01 X21.9062 Y5.1327
G01 X22.0909 Y4.2687
G01 X22.2414 Y3.3981
G01 X22.3577 Y2.5223
G01 X22.4395 Y1.6426
G01 X22.4866 Y0.7603
G01 X22.4992 Y-0.1231
G01 X22.4770 Y-1.0063
G01 X22.4202 Y-1.8879
G01 X22.3287 Y-2.7667
G01 X22.2029 Y-3.6412
G01 X22.0428 Y-4.5101
G01 X21.8488 Y-5.3720
G01 X21.6210 Y-6.2256
G01 X21.3599 Y-7.0697
G01 X21.0659 Y-7.9028
G01 X20.7394 Y-8.7238
G01 X20.3809 Y-9.5313
G01 X19.9910 Y-10.3241
G01 X19.5703 Y-11.1009
G01 X19.1194 Y-11.8607
G01 X18.6390 Y-12.6022
G01 X18.1299 Y-13.3242
G01 X17.5928 Y-14.0257
G01 X17.0286 Y-14.7056
G01 X16.4381 Y-15.3628
G01 X15.8223 Y-15.9963
G01 X15.1821 Y-16.6052
G01 X14.5185 Y-17.1884
G01 X13.8325 Y-17.7452
G01 X13.1251 Y-18.2745
G01 X12.3975 Y-18.7757
G01 X11.6509 Y-19.2480
G01 X10.8862 Y-19.6906
G01 X10.1048 Y-20.1028
G01 X9.3077 Y-20.4840
G01 X8.4964 Y-20.8336
G01 X7.6719 Y-21.1511
G01 X6.8356 Y-21.4360
G01 X5.9887 Y-21.6878
G01 X5.1327 Y-21.9062
G01 X4.2687 Y-22.0909
G01 X3.3981 Y-22.2414
G01 X2.5223 Y-22.3577
G01 X1.6426 Y-22.4395
G01 X0.7603 Y-22.4866
G01 X-0.1231 Y-22.4992
G01 X-1.0063 Y-22.4770
G01 X-1.8879 Y-22.4202
G01 X-2.7667 Y-22.3287
G01 X-3.6412 Y-22.2029
G01 X-4.5101 Y-22.0428
G01 Z-2.0000 F120
G01 X-5.3720 Y-21.8488 F300
G01 X-6.2256 Y-21.6210
G01 X-7.0697 Y-21.3599
G01 X-7.9028 Y-21.0659
G01 X-8.7238 Y-20.7394
G01 X-9.5313 Y-20.3809
G01 X-10.3241 Y-19.9910
G01 X-11.1009 Y-19.5703
G01 X-11.8607 Y-19.1194
G01 X-12.6022 Y-18.6390
G01 X-13.3242 Y-18.1299
G01 X-14.0257 Y-17.5928
G01 X-14.7056 Y-17.0286
G01 X-15.3628 Y-16.4381
G01 X-15.9963 Y-15.8223
G01 X-16.6052 Y-15.1821
G01 X-17.1884 Y-14.5185
G01 X-17.7452 Y-13.8325
G01 X-18.2745 Y-13.1251
G01 X-18.7757 Y-12.3975
G01 X-19.2480 Y-11.6509
G01 X-19.6906 Y-10.8862
G01 X-20.1028 Y-10.1048
G01 X-20.4840 Y-9.3077
G01 X-20.8336 Y-8.4964
G01 X-21.1511 Y-7.6719
G01 X-21.4360 Y-6.8356
G01 X-21.6878 Y-5.9887
G01 X-21.9062 Y-5.1327
G01 X-22.0909 Y-4.2687
G01 X-22.2414 Y-3.3981
G01 X-22.3577 Y-2.5223
G01 X-22.4395 Y-1.6426
G01 X-22.4866 Y-0.7603
G01 X-22.4992 Y0.1231
G01 X-22.4770 Y1.0063
G01 X-22.4202 Y1.8879
G01 X-22.3287 Y2.7667
G01 X-22.2029 Y3.6412
G01 X-22.0428 Y4.5101
G01 X-21.8488 Y5.3720
G01 X-21.6210 Y6.2256
G01 X-21.3599 Y7.0697
G01 X-21.0659 Y7.9028
G01 X-20.7394 Y8.7238
G01 X-20.3809 Y9.5313
G01 X-19.9910 Y10.3241
G01 X-19.5703 Y11.1009
G01 X-19.1194 Y11.8607
G01 X-18.6390 Y12.6022
G01 X-18.1299 Y13.3242
G01 X-17.5928 Y14.0257
G01 X-17.0286 Y14.7056
G01 X-16.4381 Y15.3628
G01 X-15.8223 Y15.9963
G01 X-15.1821 Y16.6052
G01 X-14.5185 Y17.1884
G01 X-13.8325 Y17.7452
G01 X-13.1251 Y18.2745
G01 X-12.3975 Y18.7757
G01 X-11.6509 Y19.2480
G01 X-10.8862 Y19.6906
G01 X-10.1048 Y20.1028
G01 X-9.3077 Y20.4840
G01 X-8.4964 Y20.8336
G01 X-7.6719 Y21.1511
G01 X-6.8356 Y21.4360
G01 X-5.9887 Y21.6878
G01 X-5.1327 Y21.9062
G01 X-4.2687 Y22.0909
G01 X-3.3981 Y22.2414
G01 X-2.5223 Y22.3577
G01 X-1.6426 Y22.4395
G01 X-0.7603 Y22.4866
G01 X0.1231 Y22.4992
G01 X1.0063 Y22.4770
G01 X1.8879 Y22.4202
G01 X2.7667 Y22.3287
G01 X3.6412 Y22.2029
G01 X4.5101 Y22.0428
G01 X5.3720 Y21.8488
G01 X6.2256 Y21.6210
G01 X7.0697 Y21.3599
G01 X7.9028 Y21.0659
G01 X8.7238 Y20.7394
G01 X9.5313 Y20.3809
G01 X10.3241 Y19.9910
G01 X11.1009 Y19.5703
G01 X11.8607 Y19.1194
G01 X12.6022 Y18.6390
G01 X13.3242 Y18.1299
G01 X14.0257 Y17.5928
G01 X14.7056 Y17.0286
G01 X15.3628 Y16.4381
G01 X15.9963 Y15.8223
G01 X16.6052 Y15.1821
G01 X17.1884 Y14.5185
G01 X17.7452 Y13.8325
G01 X18.2745 Y13.1251
G01 X18.7757 Y12.3975
G01 X19.2480 Y11.6509
G01 X19.6906 Y10.8862
G01 X20.1028 Y10.1048
G01 X20.4840 Y9.3077
G01 X20.8336 Y8.4964
G01 X21.1511 Y7.6719
G01 X21.4360 Y6.8356
G01 X21.6878 Y5.9887
G01 X21.9062 Y5.1327
G01 X22.0909 Y4.2687
G01 X22.2414 Y3.3981
G01 X22.3577 Y2.5223
G01 X22.4395 Y1.6426
G01 X22.4866 Y0.7603
G01 X22.4992 Y-0.1231
G01 X22.4770 Y-1.0063
G01 X22.4202 Y-1.8879
G01 X22.3287 Y-2.7667
G01 X22.2029 Y-3.6412
G01 X22.0428 Y-4.5101
G01 X21.8488 Y-5.3720
G01 X21.6210 Y-6.2256
G01 X21.3599 Y-7.0697
G01 X21.0659 Y-7.9028
G01 X20.7394 Y-8.7238
G01 X20.3809 Y-9.5313
G01 X19.9910 Y-10.3241
G01 X19.5703 Y-11.1009
G01 X19.1194 Y-11.8607
G01 X18.6390 Y-12.6022
G01 X18.1299 Y-13.3242
G01 X17.5928 Y-14.0257
G01 X17.0286 Y-14.7056
G01 X16.4381 Y-15.3628
G01 X15.8223 Y-15.9963
G01 X15.1821 Y-16.6052
G01 X14.5185 Y-17.1884
G01 X13.8325 Y-17.7452
G01 X13.1251 Y-18.2745
G01 X12.3975 Y-18.7757
G01 X11.6509 Y-19.2480
G01 X10.8862 Y-19.6906
G01 X10.1048 Y-20.1028
G01 X9.3077 Y-20.4840
G01 X8.4964 Y-20.8336
G01 X7.6719 Y-21.1511
G01 X6.8356 Y-21.4360
G01 X5.9887 Y-21.6878
G01 X5.1327 Y-21.9062
G01 X4.2687 Y-22.0909
G01 X3.3981 Y-22.2414
G01 X2.5223 Y-22.3577
G01 X1.6426 Y-22.4395
G01 X0.7603 Y-22.4866
G01 X-0.1231 Y-22.4992
G01 X-1.0063 Y-22.4770
G01 X-1.8879 Y-22.4202
G01 X-2.7667 Y-22.3287
G01 X-3.6412 Y-22.2029
G01 X-4.5101 Y-22.0428
G01 Z-3.0000 F120
G01 X-5.3720 Y-21.8488 F300
G01 X-6.2256 Y-21.6210
G01 X-7.0697 Y-21.3599
G01 X-7.9028 Y-21.0659
G01 X-8.7238 Y-20.7394
G01 X-9.5313 Y-20.3809
G01 X-10.3241 Y-19.9910
G01 X-11.1009 Y-19.5703
G01 X-11.8607 Y-19.1194
G01 X-12.6022 Y-18.6390
G01 X-13.3242 Y-18.1299
G01 X-14.0257 Y-17.5928
G01 X-14.7056 Y-17.0286
G01 X-15.3628 Y-16.4381
G01 X-15.9963 Y-15.8223
G01 X-16.6052 Y-15.1821
G01 X-17.1884 Y-14.5185
G01 X-17.7452 Y-13.8325
G01 X-18.2745 Y-13.1251
G01 X-18.7757 Y-12.3975
G01 X-19.2480 Y-11.6509
G01 X-19.6906 Y-10.8862
G01 X-20.1028 Y-10.1048
G01 X-20.4840 Y-9.3077
G01 X-20.8336 Y-8.4964
G01 X-21.1511 Y-7.6719
G01 X-21.4360 Y-6.8356
G01 X-21.6878 Y-5.9887
G01 X-21.9062 Y-5.1327
G01 X-22.0909 Y-4.2687
G01 X-22.2414 Y-3.3981
G01 X-22.3577 Y-2.5223
G01 X-22.4395 Y-1.6426
G01 X-22.4866 Y-0.7603
G01 X-22.4992 Y0.1231
G01 X-22.4770 Y1.0063
G01 X-22.4202 Y1.8879
G01 X-22.3287 Y2.7667
G01 X-22.2029 Y3.6412
G01 X-22.0428 Y4.5101
G01 X-21.8488 Y5.3720
G01 X-21.6210 Y6.2256
G01 X-21.3599 Y7.0697
G01 X-21.0659 Y7.9028
G01 X-20.7394 Y8.7238
G01 X-20.3809 Y9.5313
G01 X-19.9910 Y10.3241
G01 X-19.5703 Y11.1009
G01 X-19.1194 Y11.8607
G01 X-18.6390 Y12.6022
G01 X-18.1299 Y13.3242
G01 X-17.5928 Y14.0257
G01 X-17.0286 Y14.7056
G01 X-16.4381 Y15.3628
G01 X-15.8223 Y15.9963
G01 X-15.1821 Y16.6052
G01 X-14.5185 Y17.1884
G01 X-13.8325 Y17.7452
G01 X-13.1251 Y18.2745
G01 X-12.3975 Y18.7757
G01 X-11.6509 Y19.2480
G01 X-10.8862 Y19.6906
G01 X-10.1048 Y20.1028
G01 X-9.3077 Y20.4840
G01 X-8.4964 Y20.8336
G01 X-7.6719 Y21.1511
G01 X-6.8356 Y21.4360
G01 X-5.9887 Y21.6878
G01 X-5.1327 Y21.9062
G01 X-4.2687 Y22.0909
G01 X-3.3981 Y22.2414
G01 X-2.5223 Y22.3577
G01 X-1.6426 Y22.4395
G01 X-0.7603 Y22.4866
G01 X0.1231 Y22.4992
G01 X1.0063 Y22.4770
G01 X1.8879 Y22.4202
G01 X2.7667 Y22.3287
G01 X3.6412 Y22.2029
G01 X4.5101 Y22.0428
G01 X5.3720 Y21.8488
G01 X6.2256 Y21.6210
G01 X7.0697 Y21.3599
G01 X7.9028 Y21.0659
G01 X8.7238 Y20.7394
G01 X9.5313 Y20.3809
G01 X10.3241 Y19.9910
G01 X11.1009 Y19.5703
G01 X11.8607 Y19.1194
G01 X12.6022 Y18.6390
G01 X13.3242 Y18.1299
G01 X14.0257 Y17.5928
G01 X14.7056 Y17.0286
G01 X15.3628 Y16.4381
G01 X15.9963 Y15.8223
G01 X16.6052 Y15.1821
G01 X17.1884 Y14.5185
G01 X17.7452 Y13.8325
G01 X18.2745 Y13.1251
G01 X18.7757 Y12.3975
G01 X19.2480 Y11.6509
G01 X19.6906 Y10.8862
G01 X20.1028 Y10.1048
G01 X20.4840 Y9.3077
G01 X20.8336 Y8.4964
G01 X21.1511 Y7.6719
G01 X21.4360 Y6.8356
G01 X21.6878 Y5.9887
G01 X21.9062 Y5.1327
G01 X22.0909 Y4.2687
G01 X22.2414 Y3.3981
G01 X22.3577 Y2.5223
G01 X22.4395 Y1.6426
G01 X22.4866 Y0.7603
G01 X22.4992 Y-0.1231
G01 X22.4770 Y-1.0063
G01 X22.4202 Y-1.8879
G01 X22.3287 Y-2.7667
G01 X22.2029 Y-3.6412
G01 X22.0428 Y-4.5101
G01 X21.8488 Y-5.3720
G01 X21.6210 Y-6.2256
G01 X21.3599 Y-7.0697
G01 X21.0659 Y-7.9028
G01 X20.7394 Y-8.7238
G01 X20.3809 Y-9.5313
G01 X19.9910 Y-10.3241
G01 X19.5703 Y-11.1009
G01 X19.1194 Y-11.8607
G01 X18.6390 Y-12.6022
G01 X18.1299 Y-13.3242
G01 X17.5928 Y-14.0257
G01 X17.0286 Y-14.7056
G01 X16.4381 Y-15.3628
G01 X15.8223 Y-15.9963
G01 X15.1821 Y-16.6052
G01 X14.5185 Y-17.1884
G01 X13.8325 Y-17.7452
G01 X13.1251 Y-18.2745
G01 X12.3975 Y-18.7757
G01 X11.6509 Y-19.2480
G01 X10.8862 Y-19.6906
G01 X10.1048 Y-20.1028
G01 X9.3077 Y-20.4840
G01 X8.4964 Y-20.8336
G01 X7.6719 Y-21.1511
G01 X6.8356 Y-21.4360
G01 X5.9887 Y-21.6878
G01 X5.1327 Y-21.9062
G01 X4.2687 Y-22.0909
G01 X3.3981 Y-22.2414
G01 X2.5223 Y-22.3577
G01 X1.6426 Y-22.4395
G01 X0.7603 Y-22.4866
G01 X-0.1231 Y-22.4992
G01 X-1.0063 Y-22.4770
G01 X-1.8879 Y-22.4202
G01 X-2.7667 Y-22.3287
G01 X-3.6412 Y-22.2029
G01 X-4.5101 Y-22.0428
G01 Z-4.0000 F120
G01 X-5.3720 Y-21.8488 F300
G01 X-6.2256 Y-21.6210
G01 X-7.0697 Y-21.3599
G01 X-7.9028 Y-21.0659
G01 X-8.7238 Y-20.7394
G01 X-9.5313 Y-20.3809
G01 X-10.3241 Y-19.9910
G01 X-11.1009 Y-19.5703
G01 X-11.8607 Y-19.1194
G01 X-12.6022 Y-18.6390
G01 X-13.3242 Y-18.1299
G01 X-14.0257 Y-17.5928
G01 X-14.7056 Y-17.0286
G01 X-15.3628 Y-16.4381
G01 X-15.9963 Y-15.8223
G01 X-16.6052 Y-15.1821
G01 X-17.1884 Y-14.5185
G01 X-17.7452 Y-13.8325
G01 X-18.2745 Y-13.1251
G01 X-18.7757 Y-12.3975
G01 X-19.2480 Y-11.6509
G01 X-19.6906 Y-10.8862
G01 X-20.1028 Y-10.1048
G01 X-20.4840 Y-9.3077
G01 X-20.8336 Y-8.4964
G01 X-21.1511 Y-7.6719
G01 X-21.4360 Y-6.8356
G01 X-21.6878 Y-5.9887
G01 X-21.9062 Y-5.1327
G01 X-22.0909 Y-4.2687
G01 X-22.2414 Y-3.3981
G01 X-22.3577 Y-2.5223
G01 X-22.4395 Y-1.6426
G01 X-22.4866 Y-0.7603
G01 X-22.4992 Y0.1231
G01 X-22.4770 Y1.0063
G01 X-22.4202 Y1.8879
G01 X-22.3287 Y2.7667
G01 X-22.2029 Y3.6412
G01 X-22.0428 Y4.5101
G01 X-21.8488 Y5.3720
G01 X-21.6210 Y6.2256
G01 X-21.3599 Y7.0697
G01 X-21.0659 Y7.9028
G01 X-20.7394 Y8.7238
G01 X-20.3809 Y9.5313
G01 X-19.9910 Y10.3241
G01 X-19.5703 Y11.1009
G01 X-19.1194 Y11.8607
G01 X-18.6390 Y12.6022
G01 X-18.1299 Y13.3242
G01 X-17.5928 Y14.0257
G01 X-17.0286 Y14.7056
G01 X-16.4381 Y15.3628
G01 X-15.8223 Y15.9963
G01 X-15.1821 Y16.6052
G01 X-14.5185 Y17.1884
G01 X-13.8325 Y17.7452
G01 X-13.1251 Y18.2745
G01 X-12.3975 Y18.7757
G01 X-11.6509 Y19.2480
G01 X-10.8862 Y19.6906
G01 X-10.1048 Y20.1028
G01 X-9.3077 Y20.4840
G01 X-8.4964 Y20.8336
G01 X-7.6719 Y21.1511
G01 X-6.8356 Y21.4360
G01 X-5.9887 Y21.6878
G01 X-5.1327 Y21.9062
G01 X-4.2687 Y22.0909
G01 X-3.3981 Y22.2414
G01 X-2.5223 Y22.3577
G01 X-1.6426 Y22.4395
G01 X-0.7603 Y22.4866
G01 X0.1231 Y22.4992
G01 X1.0063 Y22.4770
G01 X1.8879 Y22.4202
G01 X2.7667 Y22.3287
G01 X3.6412 Y22.2029
G01 X4.5101 Y22.0428
G01 X5.3720 Y21.8488
G01 X6.2256 Y21.6210
G01 X7.0697 Y21.3599
G01 X7.9028 Y21.0659
G01 X8.7238 Y20.7394
G01 X9.5313 Y20.3809
G01 X10.3241 Y19.9910
G01 X11.1009 Y19.5703
G01 X11.8607 Y19.1194
G01 X12.6022 Y18.6390
G01 X13.3242 Y18.1299
G01 X14.0257 Y17.5928
G01 X14.7056 Y17.0286
G01 X15.3628 Y16.4381
G01 X15.9963 Y15.8223
G01 X16.6052 Y15.1821
G01 X17.1884 Y14.5185
G01 X17.7452 Y13.8325
G01 X18.2745 Y13.1251
G01 X18.7757 Y12.3975
G01 X19.2480 Y11.6509
G01 X19.6906 Y10.8862
G01 X20.1028 Y10.1048
G01 X20.4840 Y9.3077
G01 X20.8336 Y8.4964
G01 X21.1511 Y7.6719
G01 X21.4360 Y6.8356
G01 X21.6878 Y5.9887
G01 X21.9062 Y5.1327
G01 X22.0909 Y4.2687
G01 X22.2414 Y3.3981
G01 X22.3577 Y2.5223
G01 X22.4395 Y1.6426
G01 X22.4866 Y0.7603
G01 X22.4992 Y-0.1231
G01 X22.4770 Y-1.0063
G01 X22.4202 Y-1.8879
G01 X22.3287 Y-2.7667
G01 X22.2029 Y-3.6412
G01 X22.0428 Y-4.5101
G01 X21.8488 Y-5.3720
G01 X21.6210 Y-6.2256
G01 X21.3599 Y-7.0697
G01 X21.0659 Y-7.9028
G01 X20.7394 Y-8.7238
G01 X20.3809 Y-9.5313
G01 X19.9910 Y-10.3241
G01 X19.5703 Y-11.1009
G01 X19.1194 Y-11.8607
G01 X18.6390 Y-12.6022
G01 X18.1299 Y-13.3242
G01 X17.5928 Y-14.0257
G01 X17.0286 Y-14.7056
G01 X16.4381 Y-15.3628
G01 X15.8223 Y-15.9963
G01 X15.1821 Y-16.6052
G01 X14.5185 Y-17.1884
G01 X13.8325 Y-17.7452
G01 X13.1251 Y-18.2745
G01 X12.3975 Y-18.7757
G01 X11.6509 Y-19.2480
G01 X10.8862 Y-19.6906
G01 X10.1048 Y-20.1028
G01 X9.3077 Y-20.4840
G01 X8.4964 Y-20.8336
G01 X7.6719 Y-21.1511
G01 X6.8356 Y-21.4360
G01 X5.9887 Y-21.6878
G01 X5.1327 Y-21.9062
G01 X4.2687 Y-22.0909
G01 X3.3981 Y-22.2414
G01 X2.5223 Y-22.3577
G01 X1.6426 Y-22.4395
G01 X0.7603 Y-22.4866
G01 X-0.1231 Y-22.4992
G01 X-1.0063 Y-22.4770
G01 X-1.8879 Y-22.4202
G01 X-2.7667 Y-22.3287
G01 X-3.6412 Y-22.2029
G01 X-4.5101 Y-22.0428
G00 Z1.0000 F500

;No. 1: Hole 3
G00 X-3.3785 Y-19.6613 F3000
G00 Z0.5000 F500
G01 Z-1.0000 F120
G01 X-4.2329 Y-19.4953 F300
G01 X-5.0792 Y-19.2921
G01 X-5.9159 Y-19.0522
G01 X-6.7413 Y-18.7760
G01 X-7.5539 Y-18.4641
G01 X-8.3521 Y-18.1170
G01 X-9.1344 Y-17.7354
G01 X-9.8993 Y-17.3201
G01 X-10.6454 Y-16.8718
G01 X-11.3712 Y-16.3914
G01 X-12.0753 Y-15.8798
G01 X-12.7565 Y-15.3380
G01 X-13.4134 Y-14.7670
G01 X-14.0448 Y-14.1678
G01 X-14.6494 Y-13.5417
G01 X-15.2261 Y-12.8898
G01 X-15.7739 Y-12.2134
G01 X-16.2916 Y-11.5137
G01 X-16.7783 Y-10.7921
G01 X-17.2331 Y-10.0500
G01 X-17.6551 Y-9.2887
G01 X-18.0434 Y-8.5098
G01 X-18.3975 Y-7.7147
G01 X-18.7165 Y-6.9048
G01 X-18.9998 Y-6.0819
G01 X-19.2470 Y-5.2473
G01 X-19.4576 Y-4.4028
G01 X-19.6311 Y-3.5499
G01 X-19.7673 Y-2.6902
G01 X-19.8658 Y-1.8254
G01 X-19.9265 Y-0.9571
G01 X-19.9493 Y-0.0870
G01 X-19.9341 Y0.7832
G01 X-19.8810 Y1.6520
G01 X-19.7900 Y2.5176
G01 X-19.6613 Y3.3785
G01 X-19.4953 Y4.2329
G01 X-19.2921 Y5.0792
G01 X-19.0522 Y5.9159
G01 X-18.7760 Y6.7413
G01 X-18.4641 Y7.5539
G01 X-18.1170 Y8.3521
G01 X-17.7354 Y9.1344
G01 X-17.3201 Y9.8993
G01 X-16.8718 Y10.6454
G01 X-16.3914 Y11.3712
G01 X-15.8798 Y12.0753
G01 X-15.3380 Y12.7565
G01 X-14.7670 Y13.4134
G01 X-14.1678 Y14.0448
G01 X-13.5417 Y14.6494
G01 X-12.8898 Y15.2261
G01 X-12.2134 Y15.7739
G01 X-11.5137 Y16.2916
G01 X-10.7921 Y16.7783
G01 X-10.0500 Y17.2331
G01 X-9.2887 Y17.6551
G01 X-8.5098 Y18.0434
G01 X-7.7147 Y18.3975
G01 X-6.9048 Y18.7165
G01 X-6.0819 Y18.9998
G01 X-5.2473 Y19.2470
G01 X-4.4028 Y19.4576
G01 X-3.5499 Y19.6311
G01 X-2.6902 Y19.7673
G01 X-1.8254 Y19.8658
G01 X-0.9571 Y19.9265
G01 X-0.0870 Y19.9493
G01 X0.7832 Y19.9341
G01 X1.6520 Y19.8810
G01 X2.5176 Y19.7900
G01 X3.3785 Y19.6613
G01 X4.2329 Y19.4953
G01 X5.0792 Y19.2921
G01 X5.9159 Y19.0522
G01 X6.7413 Y18.7760
G01 X7.5539 Y18.4641
G01 X8.3521 Y18.1170
G01 X9.1344 Y17.7354
G01 X9.8993 Y17.3201
G01 X10.6454 Y16.8718
G01 X11.3712 Y16.3914
G01 X12.0753 Y15.8798
G01 X12.7565 Y15.3380
G01 X13.4134 Y14.7670
G01 X14.0448 Y14.1678
G01 X14.6494 Y13.5417
G01 X15.2261 Y12.8898
G01 X15.7739 Y12.2134
G01 X16.2916 Y11.5137
G01 X16.7783 Y10.7921
G01 X17.2331 Y10.0500
G01 X17.6551 Y9.2887
G01 X18.0434 Y8.5098
G01 X18.3975 Y7.7147
G01 X18.7165 Y6.9048
G01 X18.9998 Y6.0819
G01 X19.2470 Y5.2473
G01 X19.4576 Y4.4028
G01 X19.6311 Y3.5499
G01 X19.7673 Y2.6902
G01 X19.8658 Y1.8254
G01 X19.9265 Y0.9571
G01 X19.9493 Y0.0870
G01 X19.9341 Y-0.7832
G01 X19.8810 Y-1.6520
G01 X19.7900 Y-2.5176
G01 X19.6613 Y-3.3785
G01 X19.4953 Y-4.2329
G01 X19.2921 Y-5.0792
G01 X19.0522 Y-5.9159
G01 X18.7760 Y-6.7413
G01 X18.4641 Y-7.5539
G01 X18.1170 Y-8.3521
G01 X17.7354 Y-9.1344
G01 X17.3201 Y-9.8993
G01 X16.8718 Y-10.6454
G01 X16.3914 Y-11.3712
G01 X15.8798 Y-12.0753
G01 X15.3380 Y-12.7565
G01 X14.7670 Y-13.4134
G01 X14.1678 Y-14.0448
G01 X13.5417 Y-14.6494
G01 X12.8898 Y-15.2261
G01 X12.2134 Y-15.7739
G01 X11.5137 Y-16.2916
G01 X10.7921 Y-16.7783
G01 X10.0500 Y-17.2331
G01 X9.2887 Y-17.6551
G01 X8.5098 Y-18.0434
G01 X7.7147 Y-18.3975
G01 X6.9048 Y-18.7165
G01 X6.0819 Y-18.9998
G01 X5.2473 Y-19.2470
G01 X4.4028 Y-19.4576
G01 X3.5499 Y-19.6311
G01 X2.6902 Y-19.7673
G01 X1.8254 Y-19.8658
G01 X0.9571 Y-19.9265
G01 X0.0870 Y-19.9493
G01 X-0.7832 Y-19.9341
G01 X-1.6520 Y-19.8810
G01 X-2.5176 Y-19.7900
G01 X-3.3785 Y-19.6613
G01 Z-2.0000 F120
G01 X-4.2329 Y-19.4953 F300
G01 X-5.0792 Y-19.2921
G01 X-5.9159 Y-19.0522
G01 X-6.7413 Y-18.7760
G01 X-7.5539 Y-18.4641
G01 X-8.3521 Y-18.1170
G01 X-9.1344 Y-17.7354
G01 X-9.8993 Y-17.3201
G01 X-10.6454 Y-16.8718
G01 X-11.3712 Y-16.3914
G01 X-12.0753 Y-15.8798
G01 X-12.7565 Y-15.3380
G01 X-13.4134 Y-14.7670
G01 X-14.0448 Y-14.1678
G01 X-14.6494 Y-13.5417
G01 X-15.2261 Y-12.8898
G01 X-15.7739 Y-12.2134
G01 X-16.2916 Y-11.5137
G01 X-16.7783 Y-10.7921
G01 X-17.2331 Y-10.0500
G01 X-17.6551 Y-9.2887
G01 X-18.0434 Y-8.5098
G01 X-18.3975 Y-7.7147
G01 X-18.7165 Y-6.9048
G01 X-18.9998 Y-6.0819
G01 X-19.2470 Y-5.2473
G01 X-19.4576 Y-4.4028
G01 X-19.6311 Y-3.5499
G01 X-19.7673 Y-2.6902
G01 X-19.8658 Y-1.8254
G01 X-19.9265 Y-0.9571
G01 X-19.9493 Y-0.0870
G01 X-19.9341 Y0.7832
G01 X-19.8810 Y1.6520
G01 X-19.7900 Y2.5176
G01 X-19.6613 Y3.3785
G01 X-19.4953 Y4.2329
G01 X-19.2921 Y5.0792
G01 X-19.0522 Y5.9159
G01 X-18.7760 Y6.7413
G01 X-18.4641 Y7.5539
G01 X-18.1170 Y8.3521
G01 X-17.7354 Y9.1344
G01 X-17.3201 Y9.8993
G01 X-16.8718 Y10.6454
G01 X-16.3914 Y11.3712
G01 X-15.8798 Y12.0753
G01 X-15.3380 Y12.7565
G01 X-14.7670 Y13.4134
G01 X-14.1678 Y14.0448
G01 X-13.5417 Y14.6494
G01 X-12.8898 Y15.2261
G01 X-12.2134 Y15.7739
G01 X-11.5137 Y16.2916
G01 X-10.7921 Y16.7783
G01 X-10.0500 Y17.2331
G01 X-9.2887 Y17.6551
G01 X-8.5098 Y18.0434
G01 X-7.7147 Y18.3975
G01 X-6.9048 Y18.7165
G01 X-6.0819 Y18.9998
G01 X-5.2473 Y19.2470
G01 X-4.4028 Y19.4576
G01 X-3.5499 Y19.6311
G01 X-2.6902 Y19.7673
G01 X-1.8254 Y19.8658
G01 X-0.9571 Y19.9265
G01 X-0.0870 Y19.9493
G01 X0.7832 Y19.9341
G01 X1.6520 Y19.8810
G01 X2.5176 Y19.7900
G01 X3.3785 Y19.6613
G01 X4.2329 Y19.4953
G01 X5.0792 Y19.2921
G01 X5.9159 Y19.0522
G01 X6.7413 Y18.7760
G01 X7.5539 Y18.4641
G01 X8.3521 Y18.1170
G01 X9.1344 Y17.7354
G01 X9.8993 Y17.3201
G01 X10.6454 Y16.8718
G01 X11.3712 Y16.3914
G01 X12.0753 Y15.8798
G01 X12.7565 Y15.3380
G01 X13.4134 Y14.7670
G01 X14.0448 Y14.1678
G01 X14.6494 Y13.5417
G01 X15.2261 Y12.8898
G01 X15.7739 Y12.2134
G01 X16.2916 Y11.5137
G01 X16.7783 Y10.7921
G01 X17.2331 Y10.0500
G01 X17.6551 Y9.2887
G01 X18.0434 Y8.5098
G01 X18.3975 Y7.7147
G01 X18.7165 Y6.9048
G01 X18.9998 Y6.0819
G01 X19.2470 Y5.2473
G01 X19.4576 Y4.4028
G01 X19.6311 Y3.5499
G01 X19.7673 Y2.6902
G01 X19.8658 Y1.8254
G01 X19.9265 Y0.9571
G01 X19.9493 Y0.0870
G01 X19.9341 Y-0.7832
G01 X19.8810 Y-1.6520
G01 X19.7900 Y-2.5176
G01 X19.6613 Y-3.3785
G01 X19.4953 Y-4.2329
G01 X19.2921 Y-5.0792
G01 X19.0522 Y-5.9159
G01 X18.7760 Y-6.7413
G01 X18.4641 Y-7.5539
G01 X18.1170 Y-8.3521
G01 X17.7354 Y-9.1344
G01 X17.3201 Y-9.8993
G01 X16.8718 Y-10.6454
G01 X16.3914 Y-11.3712
G01 X15.8798 Y-12.0753
G01 X15.3380 Y-12.7565
G01 X14.7670 Y-13.4134
G01 X14.1678 Y-14.0448
G01 X13.5417 Y-14.6494
G01 X12.8898 Y-15.2261
G01 X12.2134 Y-15.7739
G01 X11.5137 Y-16.2916
G01 X10.7921 Y-16.7783
G01 X10.0500 Y-17.2331
G01 X9.2887 Y-17.6551
G01 X8.5098 Y-18.0434
G01 X7.7147 Y-18.3975
G01 X6.9048 Y-18.7165
G01 X6.0819 Y-18.9998
G01 X5.2473 Y-19.2470
G01 X4.4028 Y-19.4576
G01 X3.5499 Y-19.6311
G01 X2.6902 Y-19.7673
G01 X1.8254 Y-19.8658
G01 X0.9571 Y-19.9265
G01 X0.0870 Y-19.9493
G01 X-0.7832 Y-19.9341
G01 X-1.6520 Y-19.8810
G01 X-2.5176 Y-19.7900
G01 X-3.3785 Y-19.6613
G01 Z-3.0000 F120
G01 X-4.2329 Y-19.4953 F300
G01 X-5.0792 Y-19.2921
G01 X-5.9159 Y-19.0522
G01 X-6.7413 Y-18.7760
G01 X-7.5539 Y-18.4641
G01 X-8.3521 Y-18.1170
G01 X-9.1344 Y-17.7354
G01 X-9.8993 Y-17.3201
G01 X-10.6454 Y-16.8718
G01 X-11.3712 Y-16.3914
G01 X-12.0753 Y-15.8798
G01 X-12.7565 Y-15.3380
G01 X-13.4134 Y-14.7670
G01 X-14.0448 Y-14.1678
G01 X-14.6494 Y-13.5417
G01 X-15.2261 Y-12.8898
G01 X-15.7739 Y-12.2134
G01 X-16.2916 Y-11.5137
G01 X-16.7783 Y-10.7921
G01 X-17.2331 Y-10.0500
G01 X-17.6551 Y-9.2887
G01 X-18.0434 Y-8.5098
G01 X-18.3975 Y-7.7147
G01 X-18.7165 Y-6.9048
G01 X-18.9998 Y-6.0819
G01 X-19.2470 Y-5.2473
G01 X-19.4576 Y-4.4028
G01 X-19.6311 Y-3.5499
G01 X-19.7673 Y-2.6902
G01 X-19.8658 Y-1.8254
G01 X-19.9265 Y-0.9571
G01 X-19.9493 Y-0.0870
G01 X-19.9341 Y0.7832
G01 X-19.8810 Y1.6520
G01 X-19.7900 Y2.5176
G01 X-19.6613 Y3.3785
G01 X-19.4953 Y4.2329
G01 X-19.2921 Y5.0792
G01 X-19.0522 Y5.9159
G01 X-18.7760 Y6.7413
G01 X-18.4641 Y7.5539
G01 X-18.1170 Y8.3521
G01 X-17.7354 Y9.1344
G01 X-17.3201 Y9.8993
G01 X-16.8718 Y10.6454
G01 X-16.3914 Y11.3712
G01 X-15.8798 Y12.0753
G01 X-15.3380 Y12.7565
G01 X-14.7670 Y13.4134
G01 X-14.1678 Y14.0448
G01 X-13.5417 Y14.6494
G01 X-12.8898 Y15.2261
G01 X-12.2134 Y15.7739
G01 X-11.5137 Y16.2916
G01 X-10.7921 Y16.7783
G01 X-10.0500 Y17.2331
G01 X-9.2887 Y17.6551
G01 X-8.5098 Y18.0434
G01 X-7.7147 Y18.3975
G01 X-6.9048 Y18.7165
G01 X-6.0819 Y18.9998
G01 X-5.2473 Y19.2470
G01 X-4.4028 Y19.4576
G01 X-3.5499 Y19.6311
G01 X-2.6902 Y19.7673
G01 X-1.8254 Y19.8658
G01 X-0.9571 Y19.9265
G01 X-0.0870 Y19.9493
G01 X0.7832 Y19.9341
G01 X1.6520 Y19.8810
G01 X2.5176 Y19.7900
G01 X3.3785 Y19.6613
G01 X4.2329 Y19.4953
G01 X5.0792 Y19.2921
G01 X5.9159 Y19.0522
G01 X6.7413 Y18.7760
G01 X7.5539 Y18.4641
G01 X8.3521 Y18.1170
G01 X9.1344 Y17.7354
G01 X9.8993 Y17.3201
G01 X10.6454 Y16.8718
G01 X11.3712 Y16.3914
G01 X12.0753 Y15.8798
G01 X12.7565 Y15.3380
G01 X13.4134 Y14.7670
G01 X14.0448 Y14.1678
G01 X14.6494 Y13.5417
G01 X15.2261 Y12.8898
G01 X15.7739 Y12.2134
G01 X16.2916 Y11.5137
G01 X16.7783 Y10.7921
G01 X17.2331 Y10.0500
G01 X17.6551 Y9.2887
G01 X18.0434 Y8.5098
G01 X18.3975 Y7.7147
G01 X18.7165 Y6.9048
G01 X18.9998 Y6.0819
G01 X19.2470 Y5.2473
G01 X19.4576 Y4.4028
G01 X19.6311 Y3.5499
G01 X19.7673 Y2.6902
G01 X19.8658 Y1.8254
G01 X19.9265 Y0.9571
G01 X19.9493 Y0.0870
G01 X19.9341 Y-0.7832
G01 X19.8810 Y-1.6520
G01 X19.7900 Y-2.5176
G01 X19.6613 Y-3.3785
G01 X19.4953 Y-4.2329
G01 X19.2921 Y-5.0792
G01 X19.0522 Y-5.9159
G01 X18.7760 Y-6.7413
G01 X18.4641 Y-7.5539
G01 X18.1170 Y-8.3521
G01 X17.7354 Y-9.1344
G01 X17.3201 Y-9.8993
G01 X16.8718 Y-10.6454
G01 X16.3914 Y-11.3712
G01 X15.8798 Y-12.0753
G01 X15.3380 Y-12.7565
G01 X14.7670 Y-13.4134
G01 X14.1678 Y-14.0448
G01 X13.5417 Y-14.6494
G01 X12.8898 Y-15.2261
G01 X12.2134 Y-15.7739
G01 X11.5137 Y-16.2916
G01 X10.7921 Y-16.7783
G01 X10.0500 Y-17.2331
G01 X9.2887 Y-17.6551
G01 X8.5098 Y-18.0434
G01 X7.7147 Y-18.3975
G01 X6.9048 Y-18.7165
G01 X6.0819 Y-18.9998
G01 X5.2473 Y-19.2470
G01 X4.4028 Y-19.4576
G01 X3.5499 Y-19.6311
G01 X2.6902 Y-19.7673
G01 X1.8254 Y-19.8658
G01 X0.9571 Y-19.9265
G01 X0.0870 Y-19.9493
G01 X-0.7832 Y-19.9341
G01 X-1.6520 Y-19.8810
G01 X-2.5176 Y-19.7900
G01 X-3.3785 Y-19.6613
G01 Z-4.0000 F120
G01 X-4.2329 Y-19.4953 F300
G01 X-5.0792 Y-19.2921
G01 X-5.9159 Y-19.0522
G01 X-6.7413 Y-18.7760
G01 X-7.5539 Y-18.4641
G01 X-8.3521 Y-18.1170
G01 X-9.1344 Y-17.7354
G01 X-9.8993 Y-17.3201
G01 X-10.6454 Y-16.8718
G01 X-11.3712 Y-16.3914
G01 X-12.0753 Y-15.8798
G01 X-12.7565 Y-15.3380
G01 X-13.4134 Y-14.7670
G01 X-14.0448 Y-14.1678
G01 X-14.6494 Y-13.5417
G01 X-15.2261 Y-12.8898
G01 X-15.7739 Y-12.2134
G01 X-16.2916 Y-11.5137
G01 X-16.7783 Y-10.7921
G01 X-17.2331 Y-10.0500
G01 X-17.6551 Y-9.2887
G01 X-18.0434 Y-8.5098
G01 X-18.3975 Y-7.7147
G01 X-18.7165 Y-6.9048
G01 X-18.9998 Y-6.0819
G01 X-19.2470 Y-5.2473
G01 X-19.4576 Y-4.4028
G01 X-19.6311 Y-3.5499
G01 X-19.7673 Y-2.6902
G01 X-19.8658 Y-1.8254
G01 X-19.9265 Y-0.9571
G01 X-19.9493 Y-0.0870
G01 X-19.9341 Y0.7832
G01 X-19.8810 Y1.6520
G01 X-19.7900 Y2.5176
G01 X-19.6613 Y3.3785
G01 X-19.4953 Y4.2329
G01 X-19.2921 Y5.0792
G01 X-19.0522 Y5.9159
G01 X-18.7760 Y6.7413
G01 X-18.4641 Y7.5539
G01 X-18.1170 Y8.3521
G01 X-17.7354 Y9.1344
G01 X-17.3201 Y9.8993
G01 X-16.8718 Y10.6454
G01 X-16.3914 Y11.3712
G01 X-15.8798 Y12.0753
G01 X-15.3380 Y12.7565
G01 X-14.7670 Y13.4134
G01 X-14.1678 Y14.0448
G01 X-13.5417 Y14.6494
G01 X-12.8898 Y15.2261
G01 X-12.2134 Y15.7739
G01 X-11.5137 Y16.2916
G01 X-10.7921 Y16.7783
G01 X-10.0500 Y17.2331
G01 X-9.2887 Y17.6551
G01 X-8.5098 Y18.0434
G01 X-7.7147 Y18.3975
G01 X-6.9048 Y18.7165
G01 X-6.0819 Y18.9998
G01 X-5.2473 Y19.2470
G01 X-4.4028 Y19.4576
G01 X-3.5499 Y19.6311
G01 X-2.6902 Y19.7673
G01 X-1.8254 Y19.8658
G01 X-0.9571 Y19.9265
G01 X-0.0870 Y19.9493
G01 X0.7832 Y19.9341
G01 X1.6520 Y19.8810
G01 X2.5176 Y19.7900
G01 X3.3785 Y19.6613
G01 X4.2329 Y19.4953
G01 X5.0792 Y19.2921
G01 X5.9159 Y19.0522
G01 X6.7413 Y18.7760
G01 X7.5539 Y18.4641
G01 X8.3521 Y18.1170
G01 X9.1344 Y17.7354
G01 X9.8993 Y17.3201
G01 X10.6454 Y16.8718
G01 X11.3712 Y16.3914
G01 X12.0753 Y15.8798
G01 X12.7565 Y15.3380
G01 X13.4134 Y14.7670
G01 X14.0448 Y14.1678
G01 X14.6494 Y13.5417
G01 X15.2261 Y12.8898
G01 X15.7739 Y12.2134
G01 X16.2916 Y11.5137
G01 X16.7783 Y10.7921
G01 X17.2331 Y10.0500
G01 X17.6551 Y9.2887
G01 X18.0434 Y8.5098
G01 X18.3975 Y7.7147
G01 X18.7165 Y6.9048
G01 X18.9998 Y6.0819
G01 X19.2470 Y5.2473
G01 X19.4576 Y4.4028
G01 X19.6311 Y3.5499
G01 X19.7673 Y2.6902
G01 X19.8658 Y1.8254
G01 X19.9265 Y0.9571
G01 X19.9493 Y0.0870
G01 X19.9341 Y-0.7832
G01 X19.8810 Y-1.6520
G01 X19.7900 Y-2.5176
G01 X19.6613 Y-3.3785
G01 X19.4953 Y-4.2329
G01 X19.2921 Y-5.0792
G01 X19.0522 Y-5.9159
G01 X18.7760 Y-6.7413
G01 X18.4641 Y-7.5539
G01 X18.1170 Y-8.3521
G01 X17.7354 Y-9.1344
G01 X17.3201 Y-9.8993
G01 X16.8718 Y-10.6454
G01 X16.3914 Y-11.3712
G01 X15.8798 Y-12.0753
G01 X15.3380 Y-12.7565
G01 X14.7670 Y-13.4134
G01 X14.1678 Y-14.0448
G01 X13.5417 Y-14.6494
G01 X12.8898 Y-15.2261
G01 X12.2134 Y-15.7739
G01 X11.5137 Y-16.2916
G01 X10.7921 Y-16.7783
G01 X10.0500 Y-17.2331
G01 X9.2887 Y-17.6551
G01 X8.5098 Y-18.0434
G01 X7.7147 Y-18.3975
G01 X6.9048 Y-18.7165
G01 X6.0819 Y-18.9998
G01 X5.2473 Y-19.2470
G01 X4.4028 Y-19.4576
G01 X3.5499 Y-19.6311
G01 X2.6902 Y-19.7673
G01 X1.8254 Y-19.8658
G01 X0.9571 Y-19.9265
G01 X0.0870 Y-19.9493
G01 X-0.7832 Y-19.9341
G01 X-1.6520 Y-19.8810
G01 X-2.5176 Y-19.7900
G01 X-3.3785 Y-19.6613
G01 Z-5.0000 F120
G01 X-4.2329 Y-19.4953 F300
G01 X-5.0792 Y-19.2921
G01 X-5.9159 Y-19.0522
G01 X-6.7413 Y-18.7760
G01 X-7.5539 Y-18.4641
G01 X-8.3521 Y-18.1170
G01 X-9.1344 Y-17.7354
G01 X-9.8993 Y-17.3201
G01 X-10.6454 Y-16.8718
G01 X-11.3712 Y-16.3914
G01 X-12.0753 Y-15.8798
G01 X-12.7565 Y-15.3380
G01 X-13.4134 Y-14.7670
G01 X-14.0448 Y-14.1678
G01 X-14.6494 Y-13.5417
G01 X-15.2261 Y-12.8898
G01 X-15.7739 Y-12.2134
G01 X-16.2916 Y-11.5137
G01 X-16.7783 Y-10.7921
G01 X-17.2331 Y-10.0500
G01 X-17.6551 Y-9.2887
G01 X-18.0434 Y-8.5098
G01 X-18.3975 Y-7.7147
G01 X-18.7165 Y-6.9048
G01 X-18.9998 Y-6.0819
G01 X-19.2470 Y-5.2473
G01 X-19.4576 Y-4.4028
G01 X-19.6311 Y-3.5499
G01 X-19.7673 Y-2.6902
G01 X-19.8658 Y-1.8254
G01 X-19.9265 Y-0.9571
G01 X-19.9493 Y-0.0870
G01 X-19.9341 Y0.7832
G01 X-19.8810 Y1.6520
G01 X-19.7900 Y2.5176
G01 X-19.6613 Y3.3785
G01 X-19.4953 Y4.2329
G01 X-19.2921 Y5.0792
G01 X-19.0522 Y5.9159
G01 X-18.7760 Y6.7413
G01 X-18.4641 Y7.5539
G01 X-18.1170 Y8.3521
G01 X-17.7354 Y9.1344
G01 X-17.3201 Y9.8993
G01 X-16.8718 Y10.6454
G01 X-16.3914 Y11.3712
G01 X-15.8798 Y12.0753
G01 X-15.3380 Y12.7565
G01 X-14.7670 Y13.4134
G01 X-14.1678 Y14.0448
G01 X-13.5417 Y14.6494
G01 X-12.8898 Y15.2261
G01 X-12.2134 Y15.7739
G01 X-11.5137 Y16.2916
G01 X-10.7921 Y16.7783
G01 X-10.0500 Y17.2331
G01 X-9.2887 Y17.6551
G01 X-8.5098 Y18.0434
G01 X-7.7147 Y18.3975
G01 X-6.9048 Y18.7165
G01 X-6.0819 Y18.9998
G01 X-5.2473 Y19.2470
G01 X-4.4028 Y19.4576
G01 X-3.5499 Y19.6311
G01 X-2.6902 Y19.7673
G01 X-1.8254 Y19.8658
G01 X-0.9571 Y19.9265
G01 X-0.0870 Y19.9493
G01 X0.7832 Y19.9341
G01 X1.6520 Y19.8810
G01 X2.5176 Y19.7900
G01 X3.3785 Y19.6613
G01 X4.2329 Y19.4953
G01 X5.0792 Y19.2921
G01 X5.9159 Y19.0522
G01 X6.7413 Y18.7760
G01 X7.5539 Y18.4641
G01 X8.3521 Y18.1170
G01 X9.1344 Y17.7354
G01 X9.8993 Y17.3201
G01 X10.6454 Y16.8718
G01 X11.3712 Y16.3914
G01 X12.0753 Y15.8798
G01 X12.7565 Y15.3380
G01 X13.4134 Y14.7670
G01 X14.0448 Y14.1678
G01 X14.6494 Y13.5417
G01 X15.2261 Y12.8898
G01 X15.7739 Y12.2134
G01 X16.2916 Y11.5137
G01 X16.7783 Y10.7921
G01 X17.2331 Y10.0500
G01 X17.6551 Y9.2887
G01 X18.0434 Y8.5098
G01 X18.3975 Y7.7147
G01 X18.7165 Y6.9048
G01 X18.9998 Y6.0819
G01 X19.2470 Y5.2473
G01 X19.4576 Y4.4028
G01 X19.6311 Y3.5499
G01 X19.7673 Y2.6902
G01 X19.8658 Y1.8254
G01 X19.9265 Y0.9571
G01 X19.9493 Y0.0870
G01 X19.9341 Y-0.7832
G01 X19.8810 Y-1.6520
G01 X19.7900 Y-2.5176
G01 X19.6613 Y-3.3785
G01 X19.4953 Y-4.2329
G01 X19.2921 Y-5.0792
G01 X19.0522 Y-5.9159
G01 X18.7760 Y-6.7413
G01 X18.4641 Y-7.5539
G01 X18.1170 Y-8.3521
G01 X17.7354 Y-9.1344
G01 X17.3201 Y-9.8993
G01 X16.8718 Y-10.6454
G01 X16.3914 Y-11.3712
G01 X15.8798 Y-12.0753
G01 X15.3380 Y-12.7565
G01 X14.7670 Y-13.4134
G01 X14.1678 Y-14.0448
G01 X13.5417 Y-14.6494
G01 X12.8898 Y-15.2261
G01 X12.2134 Y-15.7739
G01 X11.5137 Y-16.2916
G01 X10.7921 Y-16.7783
G01 X10.0500 Y-17.2331
G01 X9.2887 Y-17.6551
G01 X8.5098 Y-18.0434
G01 X7.7147 Y-18.3975
G01 X6.9048 Y-18.7165
G01 X6.0819 Y-18.9998
G01 X5.2473 Y-19.2470
G01 X4.4028 Y-19.4576
G01 X3.5499 Y-19.6311
G01 X2.6902 Y-19.7673
G01 X1.8254 Y-19.8658
G01 X0.9571 Y-19.9265
G01 X0.0870 Y-19.9493
G01 X-0.7832 Y-19.9341
G01 X-1.6520 Y-19.8810
G01 X-2.5176 Y-19.7900
G01 X-3.3785 Y-19.6613
G01 Z-6.0000 F120
G01 X-4.2329 Y-19.4953 F300
G01 X-5.0792 Y-19.2921
G01 X-5.9159 Y-19.0522
G01 X-6.7413 Y-18.7760
G01 X-7.5539 Y-18.4641
G01 X-8.3521 Y-18.1170
G01 X-9.1344 Y-17.7354
G01 X-9.8993 Y-17.3201
G01 X-10.6454 Y-16.8718
G01 X-11.3712 Y-16.3914
G01 X-12.0753 Y-15.8798
G01 X-12.7565 Y-15.3380
G01 X-13.4134 Y-14.7670
G01 X-14.0448 Y-14.1678
G01 X-14.6494 Y-13.5417
G01 X-15.2261 Y-12.8898
G01 X-15.7739 Y-12.2134
G01 X-16.2916 Y-11.5137
G01 X-16.7783 Y-10.7921
G01 X-17.2331 Y-10.0500
G01 X-17.6551 Y-9.2887
G01 X-18.0434 Y-8.5098
G01 X-18.3975 Y-7.7147
G01 X-18.7165 Y-6.9048
G01 X-18.9998 Y-6.0819
G01 X-19.2470 Y-5.2473
G01 X-19.4576 Y-4.4028
G01 X-19.6311 Y-3.5499
G01 X-19.7673 Y-2.6902
G01 X-19.8658 Y-1.8254
G01 X-19.9265 Y-0.9571
G01 X-19.9493 Y-0.0870
G01 X-19.9341 Y0.7832
G01 X-19.8810 Y1.6520
G01 X-19.7900 Y2.5176
G01 X-19.6613 Y3.3785
G01 X-19.4953 Y4.2329
G01 X-19.2921 Y5.0792
G01 X-19.0522 Y5.9159
G01 X-18.7760 Y6.7413
G01 X-18.4641 Y7.5539
G01 X-18.1170 Y8.3521
G01 X-17.7354 Y9.1344
G01 X-17.3201 Y9.8993
G01 X-16.8718 Y10.6454
G01 X-16.3914 Y11.3712
G01 X-15.8798 Y12.0753
G01 X-15.3380 Y12.7565
G01 X-14.7670 Y13.4134
G01 X-14.1678 Y14.0448
G01 X-13.5417 Y14.6494
G01 X-12.8898 Y15.2261
G01 X-12.2134 Y15.7739
G01 X-11.5137 Y16.2916
G01 X-10.7921 Y16.7783
G01 X-10.0500 Y17.2331
G01 X-9.2887 Y17.6551
G01 X-8.5098 Y18.0434
G01 X-7.7147 Y18.3975
G01 X-6.9048 Y18.7165
G01 X-6.0819 Y18.9998
G01 X-5.2473 Y19.2470
G01 X-4.4028 Y19.4576
G01 X-3.5499 Y19.6311
G01 X-2.6902 Y19.7673
G01 X-1.8254 Y19.8658
G01 X-0.9571 Y19.9265
G01 X-0.0870 Y19.9493
G01 X0.7832 Y19.9341
G01 X1.6520 Y19.8810
G01 X2.5176 Y19.7900
G01 X3.3785 Y19.6613
G01 X4.2329 Y19.4953
G01 X5.0792 Y19.2921
G01 X5.9159 Y19.0522
G01 X6.7413 Y18.7760
G01 X7.5539 Y18.4641
G01 X8.3521 Y18.1170
G01 X9.1344 Y17.7354
G01 X9.8993 Y17.3201
G01 X10.6454 Y16.8718
G01 X11.3712 Y16.3914
G01 X12.0753 Y15.8798
G01 X12.7565 Y15.3380
G01 X13.4134 Y14.7670
G01 X14.0448 Y14.1678
G01 X14.6494 Y13.5417
G01 X15.2261 Y12.8898
G01 X15.7739 Y12.2134
G01 X16.2916 Y11.5137
G01 X16.7783 Y10.7921
G01 X17.2331 Y10.0500
G01 X17.6551 Y9.2887
G01 X18.0434 Y8.5098
G01 X18.3975 Y7.7147
G01 X18.7165 Y6.9048
G01 X18.9998 Y6.0819
G01 X19.2470 Y5.2473
G01 X19.4576 Y4.4028
G01 X19.6311 Y3.5499
G01 X19.7673 Y2.6902
G01 X19.8658 Y1.8254
G01 X19.9265 Y0.9571
G01 X19.9493 Y0.0870
G01 X19.9341 Y-0.7832
G01 X19.8810 Y-1.6520
G01 X19.7900 Y-2.5176
G01 X19.6613 Y-3.3785
G01 X19.4953 Y-4.2329
G01 X19.2921 Y-5.0792
G01 X19.0522 Y-5.9159
G01 X18.7760 Y-6.7413
G01 X18.4641 Y-7.5539
G01 X18.1170 Y-8.3521
G01 X17.7354 Y-9.1344
G01 X17.3201 Y-9.8993
G01 X16.8718 Y-10.6454
G01 X16.3914 Y-11.3712
G01 X15.8798 Y-12.0753
G01 X15.3380 Y-12.7565
G01 X14.7670 Y-13.4134
G01 X14.1678 Y-14.0448
G01 X13.5417 Y-14.6494
G01 X12.8898 Y-15.2261
G01 X12.2134 Y-15.7739
G01 X11.5137 Y-16.2916
G01 X10.7921 Y-16.7783
G01 X10.0500 Y-17.2331
G01 X9.2887 Y-17.6551
G01 X8.5098 Y-18.0434
G01 X7.7147 Y-18.3975
G01 X6.9048 Y-18.7165
G01 X6.0819 Y-18.9998
G01 X5.2473 Y-19.2470
G01 X4.4028 Y-19.4576
G01 X3.5499 Y-19.6311
G01 X2.6902 Y-19.7673
G01 X1.8254 Y-19.8658
G01 X0.9571 Y-19.9265
G01 X0.0870 Y-19.9493
G01 X-0.7832 Y-19.9341
G01 X-1.6520 Y-19.8810
G01 X-2.5176 Y-19.7900
G01 X-3.3785 Y-19.6613
G01 Z-7.0000 F120
G01 X-4.2329 Y-19.4953 F300
G01 X-5.0792 Y-19.2921
G01 X-5.9159 Y-19.0522
G01 X-6.7413 Y-18.7760
G01 X-7.5539 Y-18.4641
G01 X-8.3521 Y-18.1170
G01 X-9.1344 Y-17.7354
G01 X-9.8993 Y-17.3201
G01 X-10.6454 Y-16.8718
G01 X-11.3712 Y-16.3914
G01 X-12.0753 Y-15.8798
G01 X-12.7565 Y-15.3380
G01 X-13.4134 Y-14.7670
G01 X-14.0448 Y-14.1678
G01 X-14.6494 Y-13.5417
G01 X-15.2261 Y-12.8898
G01 X-15.7739 Y-12.2134
G01 X-16.2916 Y-11.5137
G01 X-16.7783 Y-10.7921
G01 X-17.2331 Y-10.0500
G01 X-17.6551 Y-9.2887
G01 X-18.0434 Y-8.5098
G01 X-18.3975 Y-7.7147
G01 X-18.7165 Y-6.9048
G01 X-18.9998 Y-6.0819
G01 X-19.2470 Y-5.2473
G01 X-19.4576 Y-4.4028
G01 X-19.6311 Y-3.5499
G01 X-19.7673 Y-2.6902
G01 X-19.8658 Y-1.8254
G01 X-19.9265 Y-0.9571
G01 X-19.9493 Y-0.0870
G01 X-19.9341 Y0.7832
G01 X-19.8810 Y1.6520
G01 X-19.7900 Y2.5176
G01 X-19.6613 Y3.3785
G01 X-19.4953 Y4.2329
G01 X-19.2921 Y5.0792
G01 X-19.0522 Y5.9159
G01 X-18.7760 Y6.7413
G01 X-18.4641 Y7.5539
G01 X-18.1170 Y8.3521
G01 X-17.7354 Y9.1344
G01 X-17.3201 Y9.8993
G01 X-16.8718 Y10.6454
G01 X-16.3914 Y11.3712
G01 X-15.8798 Y12.0753
G01 X-15.3380 Y12.7565
G01 X-14.7670 Y13.4134
G01 X-14.1678 Y14.0448
G01 X-13.5417 Y14.6494
G01 X-12.8898 Y15.2261
G01 X-12.2134 Y15.7739
G01 X-11.5137 Y16.2916
G01 X-10.7921 Y16.7783
G01 X-10.0500 Y17.2331
G01 X-9.2887 Y17.6551
G01 X-8.5098 Y18.0434
G01 X-7.7147 Y18.3975
G01 X-6.9048 Y18.7165
G01 X-6.0819 Y18.9998
G01 X-5.2473 Y19.2470
G01 X-4.4028 Y19.4576
G01 X-3.5499 Y19.6311
G01 X-2.6902 Y19.7673
G01 X-1.8254 Y19.8658
G01 X-0.9571 Y19.9265
G01 X-0.0870 Y19.9493
G01 X0.7832 Y19.9341
G01 X1.6520 Y19.8810
G01 X2.5176 Y19.7900
G01 X3.3785 Y19.6613
G01 X4.2329 Y19.4953
G01 X5.0792 Y19.2921
G01 X5.9159 Y19.0522
G01 X6.7413 Y18.7760
G01 X7.5539 Y18.4641
G01 X8.3521 Y18.1170
G01 X9.1344 Y17.7354
G01 X9.8993 Y17.3201
G01 X10.6454 Y16.8718
G01 X11.3712 Y16.3914
G01 X12.0753 Y15.8798
G01 X12.7565 Y15.3380
G01 X13.4134 Y14.7670
G01 X14.0448 Y14.1678
G01 X14.6494 Y13.5417
G01 X15.2261 Y12.8898
G01 X15.7739 Y12.2134
G01 X16.2916 Y11.5137
G01 X16.7783 Y10.7921
G01 X17.2331 Y10.0500
G01 X17.6551 Y9.2887
G01 X18.0434 Y8.5098
G01 X18.3975 Y7.7147
G01 X18.7165 Y6.9048
G01 X18.9998 Y6.0819
G01 X19.2470 Y5.2473
G01 X19.4576 Y4.4028
G01 X19.6311 Y3.5499
G01 X19.7673 Y2.6902
G01 X19.8658 Y1.8254
G01 X19.9265 Y0.9571
G01 X19.9493 Y0.0870
G01 X19.9341 Y-0.7832
G01 X19.8810 Y-1.6520
G01 X19.7900 Y-2.5176
G01 X19.6613 Y-3.3785
G01 X19.4953 Y-4.2329
G01 X19.2921 Y-5.0792
G01 X19.0522 Y-5.9159
G01 X18.7760 Y-6.7413
G01 X18.4641 Y-7.5539
G01 X18.1170 Y-8.3521
G01 X17.7354 Y-9.1344
G01 X17.3201 Y-9.8993
G01 X16.8718 Y-10.6454
G01 X16.3914 Y-11.3712
G01 X15.8798 Y-12.0753
G01 X15.3380 Y-12.7565
G01 X14.7670 Y-13.4134
G01 X14.1678 Y-14.0448
G01 X13.5417 Y-14.6494
G01 X12.8898 Y-15.2261
G01 X12.2134 Y-15.7739
G01 X11.5137 Y-16.2916
G01 X10.7921 Y-16.7783
G01 X10.0500 Y-17.2331
G01 X9.2887 Y-17.6551
G01 X8.5098 Y-18.0434
G01 X7.7147 Y-18.3975
G01 X6.9048 Y-18.7165
G01 X6.0819 Y-18.9998
G01 X5.2473 Y-19.2470
G01 X4.4028 Y-19.4576
G01 X3.5499 Y-19.6311
G01 X2.6902 Y-19.7673
G01 X1.8254 Y-19.8658
G01 X0.9571 Y-19.9265
G01 X0.0870 Y-19.9493
G01 X-0.7832 Y-19.9341
G01 X-1.6520 Y-19.8810
G01 X-2.5176 Y-19.7900
G01 X-3.3785 Y-19.6613
G01 Z-8.0000 F120
G01 X-4.2329 Y-19.4953 F300
G01 X-5.0792 Y-19.2921
G01 X-5.9159 Y-19.0522
G01 X-6.7413 Y-18.7760
G01 X-7.5539 Y-18.4641
G01 X-8.3521 Y-18.1170
G01 X-9.1344 Y-17.7354
G01 X-9.8993 Y-17.3201
G01 X-10.6454 Y-16.8718
G01 X-11.3712 Y-16.3914
G01 X-12.0753 Y-15.8798
G01 X-12.7565 Y-15.3380
G01 X-13.4134 Y-14.7670
G01 X-14.0448 Y-14.1678
G01 X-14.6494 Y-13.5417
G01 X-15.2261 Y-12.8898
G01 X-15.7739 Y-12.2134
G01 X-16.2916 Y-11.5137
G01 X-16.7783 Y-10.7921
G01 X-17.2331 Y-10.0500
G01 X-17.6551 Y-9.2887
G01 X-18.0434 Y-8.5098
G01 X-18.3975 Y-7.7147
G01 X-18.7165 Y-6.9048
G01 X-18.9998 Y-6.0819
G01 X-19.2470 Y-5.2473
G01 X-19.4576 Y-4.4028
G01 X-19.6311 Y-3.5499
G01 X-19.7673 Y-2.6902
G01 X-19.8658 Y-1.8254
G01 X-19.9265 Y-0.9571
G01 X-19.9493 Y-0.0870
G01 X-19.9341 Y0.7832
G01 X-19.8810 Y1.6520
G01 X-19.7900 Y2.5176
G01 X-19.6613 Y3.3785
G01 X-19.4953 Y4.2329
G01 X-19.2921 Y5.0792
G01 X-19.0522 Y5.9159
G01 X-18.7760 Y6.7413
G01 X-18.4641 Y7.5539
G01 X-18.1170 Y8.3521
G01 X-17.7354 Y9.1344
G01 X-17.3201 Y9.8993
G01 X-16.8718 Y10.6454
G01 X-16.3914 Y11.3712
G01 X-15.8798 Y12.0753
G01 X-15.3380 Y12.7565
G01 X-14.7670 Y13.4134
G01 X-14.1678 Y14.0448
G01 X-13.5417 Y14.6494
G01 X-12.8898 Y15.2261
G01 X-12.2134 Y15.7739
G01 X-11.5137 Y16.2916
G01 X-10.7921 Y16.7783
G01 X-10.0500 Y17.2331
G01 X-9.2887 Y17.6551
G01 X-8.5098 Y18.0434
G01 X-7.7147 Y18.3975
G01 X-6.9048 Y18.7165
G01 X-6.0819 Y18.9998
G01 X-5.2473 Y19.2470
G01 X-4.4028 Y19.4576
G01 X-3.5499 Y19.6311
G01 X-2.6902 Y19.7673
G01 X-1.8254 Y19.8658
G01 X-0.9571 Y19.9265
G01 X-0.0870 Y19.9493
G01 X0.7832 Y19.9341
G01 X1.6520 Y19.8810
G01 X2.5176 Y19.7900
G01 X3.3785 Y19.6613
G01 X4.2329 Y19.4953
G01 X5.0792 Y19.2921
G01 X5.9159 Y19.0522
G01 X6.7413 Y18.7760
G01 X7.5539 Y18.4641
G01 X8.3521 Y18.1170
G01 X9.1344 Y17.7354
G01 X9.8993 Y17.3201
G01 X10.6454 Y16.8718
G01 X11.3712 Y16.3914
G01 X12.0753 Y15.8798
G01 X12.7565 Y15.3380
G01 X13.4134 Y14.7670
G01 X14.0448 Y14.1678
G01 X14.6494 Y13.5417
G01 X15.2261 Y12.8898
G01 X15.7739 Y12.2134
G01 X16.2916 Y11.5137
G01 X16.7783 Y10.7921
G01 X17.2331 Y10.0500
G01 X17.6551 Y9.2887
G01 X18.0434 Y8.5098
G01 X18.3975 Y7.7147
G01 X18.7165 Y6.9048
G01 X18.9998 Y6.0819
G01 X19.2470 Y5.2473
G01 X19.4576 Y4.4028
G01 X19.6311 Y3.5499
G01 X19.7673 Y2.6902
G01 X19.8658 Y1.8254
G01 X19.9265 Y0.9571
G01 X19.9493 Y0.0870
G01 X19.9341 Y-0.7832
G01 X19.8810 Y-1.6520
G01 X19.7900 Y-2.5176
G01 X19.6613 Y-3.3785
G01 X19.4953 Y-4.2329
G01 X19.2921 Y-5.0792
G01 X19.0522 Y-5.9159
G01 X18.7760 Y-6.7413
G01 X18.4641 Y-7.5539
G01 X18.1170 Y-8.3521
G01 X17.7354 Y-9.1344
G01 X17.3201 Y-9.8993
G01 X16.8718 Y-10.6454
G01 X16.3914 Y-11.3712
G01 X15.8798 Y-12.0753
G01 X15.3380 Y-12.7565
G01 X14.7670 Y-13.4134
G01 X14.1678 Y-14.0448
G01 X13.5417 Y-14.6494
G01 X12.8898 Y-15.2261
G01 X12.2134 Y-15.7739
G01 X11.5137 Y-16.2916
G01 X10.7921 Y-16.7783
G01 X10.0500 Y-17.2331
G01 X9.2887 Y-17.6551
G01 X8.5098 Y-18.0434
G01 X7.7147 Y-18.3975
G01 X6.9048 Y-18.7165
G01 X6.0819 Y-18.9998
G01 X5.2473 Y-19.2470
G01 X4.4028 Y-19.4576
G01 X3.5499 Y-19.6311
G01 X2.6902 Y-19.7673
G01 X1.8254 Y-19.8658
G01 X0.9571 Y-19.9265
G01 X0.0870 Y-19.9493
G01 X-0.7832 Y-19.9341
G01 X-1.6520 Y-19.8810
G01 X-2.5176 Y-19.7900
G01 X-3.3785 Y-19.6613
G01 Z-9.0000 F120
G01 X-4.2329 Y-19.4953 F300
G01 X-5.0792 Y-19.2921
G01 X-5.9159 Y-19.0522
G01 X-6.7413 Y-18.7760
G01 X-7.5539 Y-18.4641
G01 X-8.3521 Y-18.1170
G01 X-9.1344 Y-17.7354
G01 X-9.8993 Y-17.3201
G01 X-10.6454 Y-16.8718
G01 X-11.3712 Y-16.3914
G01 X-12.0753 Y-15.8798
G01 X-12.7565 Y-15.3380
G01 X-13.4134 Y-14.7670
G01 X-14.0448 Y-14.1678
G01 X-14.6494 Y-13.5417
G01 X-15.2261 Y-12.8898
G01 X-15.7739 Y-12.2134
G01 X-16.2916 Y-11.5137
G01 X-16.7783 Y-10.7921
G01 X-17.2331 Y-10.0500
G01 X-17.6551 Y-9.2887
G01 X-18.0434 Y-8.5098
G01 X-18.3975 Y-7.7147
G01 X-18.7165 Y-6.9048
G01 X-18.9998 Y-6.0819
G01 X-19.2470 Y-5.2473
G01 X-19.4576 Y-4.4028
G01 X-19.6311 Y-3.5499
G01 X-19.7673 Y-2.6902
G01 X-19.8658 Y-1.8254
G01 X-19.9265 Y-0.9571
G01 X-19.9493 Y-0.0870
G01 X-19.9341 Y0.7832
G01 X-19.8810 Y1.6520
G01 X-19.7900 Y2.5176
G01 X-19.6613 Y3.3785
G01 X-19.4953 Y4.2329
G01 X-19.2921 Y5.0792
G01 X-19.0522 Y5.9159
G01 X-18.7760 Y6.7413
G01 X-18.4641 Y7.5539
G01 X-18.1170 Y8.3521
G01 X-17.7354 Y9.1344
G01 X-17.3201 Y9.8993
G01 X-16.8718 Y10.6454
G01 X-16.3914 Y11.3712
G01 X-15.8798 Y12.0753
G01 X-15.3380 Y12.7565
G01 X-14.7670 Y13.4134
G01 X-14.1678 Y14.0448
G01 X-13.5417 Y14.6494
G01 X-12.8898 Y15.2261
G01 X-12.2134 Y15.7739
G01 X-11.5137 Y16.2916
G01 X-10.7921 Y16.7783
G01 X-10.0500 Y17.2331
G01 X-9.2887 Y17.6551
G01 X-8.5098 Y18.0434
G01 X-7.7147 Y18.3975
G01 X-6.9048 Y18.7165
G01 X-6.0819 Y18.9998
G01 X-5.2473 Y19.2470
G01 X-4.4028 Y19.4576
G01 X-3.5499 Y19.6311
G01 X-2.6902 Y19.7673
G01 X-1.8254 Y19.8658
G01 X-0.9571 Y19.9265
G01 X-0.0870 Y19.9493
G01 X0.7832 Y19.9341
G01 X1.6520 Y19.8810
G01 X2.5176 Y19.7900
G01 X3.3785 Y19.6613
G01 X4.2329 Y19.4953
G01 X5.0792 Y19.2921
G01 X5.9159 Y19.0522
G01 X6.7413 Y18.7760
G01 X7.5539 Y18.4641
G01 X8.3521 Y18.1170
G01 X9.1344 Y17.7354
G01 X9.8993 Y17.3201
G01 X10.6454 Y16.8718
G01 X11.3712 Y16.3914
G01 X12.0753 Y15.8798
G01 X12.7565 Y15.3380
G01 X13.4134 Y14.7670
G01 X14.0448 Y14.1678
G01 X14.6494 Y13.5417
G01 X15.2261 Y12.8898
G01 X15.7739 Y12.2134
G01 X16.2916 Y11.5137
G01 X16.7783 Y10.7921
G01 X17.2331 Y10.0500
G01 X17.6551 Y9.2887
G01 X18.0434 Y8.5098
G01 X18.3975 Y7.7147
G01 X18.7165 Y6.9048
G01 X18.9998 Y6.0819
G01 X19.2470 Y5.2473
G01 X19.4576 Y4.4028
G01 X19.6311 Y3.5499
G01 X19.7673 Y2.6902
G01 X19.8658 Y1.8254
G01 X19.9265 Y0.9571
G01 X19.9493 Y0.0870
G01 X19.9341 Y-0.7832
G01 X19.8810 Y-1.6520
G01 X19.7900 Y-2.5176
G01 X19.6613 Y-3.3785
G01 X19.4953 Y-4.2329
G01 X19.2921 Y-5.0792
G01 X19.0522 Y-5.9159
G01 X18.7760 Y-6.7413
G01 X18.4641 Y-7.5539
G01 X18.1170 Y-8.3521
G01 X17.7354 Y-9.1344
G01 X17.3201 Y-9.8993
G01 X16.8718 Y-10.6454
G01 X16.3914 Y-11.3712
G01 X15.8798 Y-12.0753
G01 X15.3380 Y-12.7565
G01 X14.7670 Y-13.4134
G01 X14.1678 Y-14.0448
G01 X13.5417 Y-14.6494
G01 X12.8898 Y-15.2261
G01 X12.2134 Y-15.7739
G01 X11.5137 Y-16.2916
G01 X10.7921 Y-16.7783
G01 X10.0500 Y-17.2331
G01 X9.2887 Y-17.6551
G01 X8.5098 Y-18.0434
G01 X7.7147 Y-18.3975
G01 X6.9048 Y-18.7165
G01 X6.0819 Y-18.9998
G01 X5.2473 Y-19.2470
G01 X4.4028 Y-19.4576
G01 X3.5499 Y-19.6311
G01 X2.6902 Y-19.7673
G01 X1.8254 Y-19.8658
G01 X0.9571 Y-19.9265
G01 X0.0870 Y-19.9493
G01 X-0.7832 Y-19.9341
G01 X-1.6520 Y-19.8810
G01 X-2.5176 Y-19.7900
G01 X-3.3785 Y-19.6613
G01 Z-10.0000 F120
G01 X-4.2329 Y-19.4953 F300
G01 X-5.0792 Y-19.2921
G01 X-5.9159 Y-19.0522
G01 X-6.7413 Y-18.7760
G01 X-7.5539 Y-18.4641
G01 X-8.3521 Y-18.1170
G01 X-9.1344 Y-17.7354
G01 X-9.8993 Y-17.3201
G01 X-10.6454 Y-16.8718
G01 X-11.3712 Y-16.3914
G01 X-12.0753 Y-15.8798
G01 X-12.7565 Y-15.3380
G01 X-13.4134 Y-14.7670
G01 X-14.0448 Y-14.1678
G01 X-14.6494 Y-13.5417
G01 X-15.2261 Y-12.8898
G01 X-15.7739 Y-12.2134
G01 X-16.2916 Y-11.5137
G01 X-16.7783 Y-10.7921
G01 X-17.2331 Y-10.0500
G01 X-17.6551 Y-9.2887
G01 X-18.0434 Y-8.5098
G01 X-18.3975 Y-7.7147
G01 X-18.7165 Y-6.9048
G01 X-18.9998 Y-6.0819
G01 X-19.2470 Y-5.2473
G01 X-19.4576 Y-4.4028
G01 X-19.6311 Y-3.5499
G01 X-19.7673 Y-2.6902
G01 X-19.8658 Y-1.8254
G01 X-19.9265 Y-0.9571
G01 X-19.9493 Y-0.0870
G01 X-19.9341 Y0.7832
G01 X-19.8810 Y1.6520
G01 X-19.7900 Y2.5176
G01 X-19.6613 Y3.3785
G01 X-19.4953 Y4.2329
G01 X-19.2921 Y5.0792
G01 X-19.0522 Y5.9159
G01 X-18.7760 Y6.7413
G01 X-18.4641 Y7.5539
G01 X-18.1170 Y8.3521
G01 X-17.7354 Y9.1344
G01 X-17.3201 Y9.8993
G01 X-16.8718 Y10.6454
G01 X-16.3914 Y11.3712
G01 X-15.8798 Y12.0753
G01 X-15.3380 Y12.7565
G01 X-14.7670 Y13.4134
G01 X-14.1678 Y14.0448
G01 X-13.5417 Y14.6494
G01 X-12.8898 Y15.2261
G01 X-12.2134 Y15.7739
G01 X-11.5137 Y16.2916
G01 X-10.7921 Y16.7783
G01 X-10.0500 Y17.2331
G01 X-9.2887 Y17.6551
G01 X-8.5098 Y18.0434
G01 X-7.7147 Y18.3975
G01 X-6.9048 Y18.7165
G01 X-6.0819 Y18.9998
G01 X-5.2473 Y19.2470
G01 X-4.4028 Y19.4576
G01 X-3.5499 Y19.6311
G01 X-2.6902 Y19.7673
G01 X-1.8254 Y19.8658
G01 X-0.9571 Y19.9265
G01 X-0.0870 Y19.9493
G01 X0.7832 Y19.9341
G01 X1.6520 Y19.8810
G01 X2.5176 Y19.7900
G01 X3.3785 Y19.6613
G01 X4.2329 Y19.4953
G01 X5.0792 Y19.2921
G01 X5.9159 Y19.0522
G01 X6.7413 Y18.7760
G01 X7.5539 Y18.4641
G01 X8.3521 Y18.1170
G01 X9.1344 Y17.7354
G01 X9.8993 Y17.3201
G01 X10.6454 Y16.8718
G01 X11.3712 Y16.3914
G01 X12.0753 Y15.8798
G01 X12.7565 Y15.3380
G01 X13.4134 Y14.7670
G01 X14.0448 Y14.1678
G01 X14.6494 Y13.5417
G01 X15.2261 Y12.8898
G01 X15.7739 Y12.2134
G01 X16.2916 Y11.5137
G01 X16.7783 Y10.7921
G01 X17.2331 Y10.0500
G01 X17.6551 Y9.2887
G01 X18.0434 Y8.5098
G01 X18.3975 Y7.7147
G01 X18.7165 Y6.9048
G01 X18.9998 Y6.0819
G01 X19.2470 Y5.2473
G01 X19.4576 Y4.4028
G01 X19.6311 Y3.5499
G01 X19.7673 Y2.6902
G01 X19.8658 Y1.8254
G01 X19.9265 Y0.9571
G01 X19.9493 Y0.0870
G01 X19.9341 Y-0.7832
G01 X19.8810 Y-1.6520
G01 X19.7900 Y-2.5176
G01 X19.6613 Y-3.3785
G01 X19.4953 Y-4.2329
G01 X19.2921 Y-5.0792
G01 X19.0522 Y-5.9159
G01 X18.7760 Y-6.7413
G01 X18.4641 Y-7.5539
G01 X18.1170 Y-8.3521
G01 X17.7354 Y-9.1344
G01 X17.3201 Y-9.8993
G01 X16.8718 Y-10.6454
G01 X16.3914 Y-11.3712
G01 X15.8798 Y-12.0753
G01 X15.3380 Y-12.7565
G01 X14.7670 Y-13.4134
G01 X14.1678 Y-14.0448
G01 X13.5417 Y-14.6494
G01 X12.8898 Y-15.2261
G01 X12.2134 Y-15.7739
G01 X11.5137 Y-16.2916
G01 X10.7921 Y-16.7783
G01 X10.0500 Y-17.2331
G01 X9.2887 Y-17.6551
G01 X8.5098 Y-18.0434
G01 X7.7147 Y-18.3975
G01 X6.9048 Y-18.7165
G01 X6.0819 Y-18.9998
G01 X5.2473 Y-19.2470
G01 X4.4028 Y-19.4576
G01 X3.5499 Y-19.6311
G01 X2.6902 Y-19.7673
G01 X1.8254 Y-19.8658
G01 X0.9571 Y-19.9265
G01 X0.0870 Y-19.9493
G01 X-0.7832 Y-19.9341
G01 X-1.6520 Y-19.8810
G01 X-2.5176 Y-19.7900
G01 X-3.3785 Y-19.6613
G01 Z-11.0000 F120
G01 X-4.2329 Y-19.4953 F300
G01 X-5.0792 Y-19.2921
G01 X-5.9159 Y-19.0522
G01 X-6.7413 Y-18.7760
G01 X-7.5539 Y-18.4641
G01 X-8.3521 Y-18.1170
G01 X-9.1344 Y-17.7354
G01 X-9.8993 Y-17.3201
G01 X-10.6454 Y-16.8718
G01 X-11.3712 Y-16.3914
G01 X-12.0753 Y-15.8798
G01 X-12.7565 Y-15.3380
G01 X-13.4134 Y-14.7670
G01 X-14.0448 Y-14.1678
G01 X-14.6494 Y-13.5417
G01 X-15.2261 Y-12.8898
G01 X-15.7739 Y-12.2134
G01 X-16.2916 Y-11.5137
G01 X-16.7783 Y-10.7921
G01 X-17.2331 Y-10.0500
G01 X-17.6551 Y-9.2887
G01 X-18.0434 Y-8.5098
G01 X-18.3975 Y-7.7147
G01 X-18.7165 Y-6.9048
G01 X-18.9998 Y-6.0819
G01 X-19.2470 Y-5.2473
G01 X-19.4576 Y-4.4028
G01 X-19.6311 Y-3.5499
G01 X-19.7673 Y-2.6902
G01 X-19.8658 Y-1.8254
G01 X-19.9265 Y-0.9571
G01 X-19.9493 Y-0.0870
G01 X-19.9341 Y0.7832
G01 X-19.8810 Y1.6520
G01 X-19.7900 Y2.5176
G01 X-19.6613 Y3.3785
G01 X-19.4953 Y4.2329
G01 X-19.2921 Y5.0792
G01 X-19.0522 Y5.9159
G01 X-18.7760 Y6.7413
G01 X-18.4641 Y7.5539
G01 X-18.1170 Y8.3521
G01 X-17.7354 Y9.1344
G01 X-17.3201 Y9.8993
G01 X-16.8718 Y10.6454
G01 X-16.3914 Y11.3712
G01 X-15.8798 Y12.0753
G01 X-15.3380 Y12.7565
G01 X-14.7670 Y13.4134
G01 X-14.1678 Y14.0448
G01 X-13.5417 Y14.6494
G01 X-12.8898 Y15.2261
G01 X-12.2134 Y15.7739
G01 X-11.5137 Y16.2916
G01 X-10.7921 Y16.7783
G01 X-10.0500 Y17.2331
G01 X-9.2887 Y17.6551
G01 X-8.5098 Y18.0434
G01 X-7.7147 Y18.3975
G01 X-6.9048 Y18.7165
G01 X-6.0819 Y18.9998
G01 X-5.2473 Y19.2470
G01 X-4.4028 Y19.4576
G01 X-3.5499 Y19.6311
G01 X-2.6902 Y19.7673
G01 X-1.8254 Y19.8658
G01 X-0.9571 Y19.9265
G01 X-0.0870 Y19.9493
G01 X0.7832 Y19.9341
G01 X1.6520 Y19.8810
G01 X2.5176 Y19.7900
G01 X3.3785 Y19.6613
G01 X4.2329 Y19.4953
G01 X5.0792 Y19.2921
G01 X5.9159 Y19.0522
G01 X6.7413 Y18.7760
G01 X7.5539 Y18.4641
G01 X8.3521 Y18.1170
G01 X9.1344 Y17.7354
G01 X9.8993 Y17.3201
G01 X10.6454 Y16.8718
G01 X11.3712 Y16.3914
G01 X12.0753 Y15.8798
G01 X12.7565 Y15.3380
G01 X13.4134 Y14.7670
G01 X14.0448 Y14.1678
G01 X14.6494 Y13.5417
G01 X15.2261 Y12.8898
G01 X15.7739 Y12.2134
G01 X16.2916 Y11.5137
G01 X16.7783 Y10.7921
G01 X17.2331 Y10.0500
G01 X17.6551 Y9.2887
G01 X18.0434 Y8.5098
G01 X18.3975 Y7.7147
G01 X18.7165 Y6.9048
G01 X18.9998 Y6.0819
G01 X19.2470 Y5.2473
G01 X19.4576 Y4.4028
G01 X19.6311 Y3.5499
G01 X19.7673 Y2.6902
G01 X19.8658 Y1.8254
G01 X19.9265 Y0.9571
G01 X19.9493 Y0.0870
G01 X19.9341 Y-0.7832
G01 X19.8810 Y-1.6520
G01 X19.7900 Y-2.5176
G01 X19.6613 Y-3.3785
G01 X19.4953 Y-4.2329
G01 X19.2921 Y-5.0792
G01 X19.0522 Y-5.9159
G01 X18.7760 Y-6.7413
G01 X18.4641 Y-7.5539
G01 X18.1170 Y-8.3521
G01 X17.7354 Y-9.1344
G01 X17.3201 Y-9.8993
G01 X16.8718 Y-10.6454
G01 X16.3914 Y-11.3712
G01 X15.8798 Y-12.0753
G01 X15.3380 Y-12.7565
G01 X14.7670 Y-13.4134
G01 X14.1678 Y-14.0448
G01 X13.5417 Y-14.6494
G01 X12.8898 Y-15.2261
G01 X12.2134 Y-15.7739
G01 X11.5137 Y-16.2916
G01 X10.7921 Y-16.7783
G01 X10.0500 Y-17.2331
G01 X9.2887 Y-17.6551
G01 X8.5098 Y-18.0434
G01 X7.7147 Y-18.3975
G01 X6.9048 Y-18.7165
G01 X6.0819 Y-18.9998
G01 X5.2473 Y-19.2470
G01 X4.4028 Y-19.4576
G01 X3.5499 Y-19.6311
G01 X2.6902 Y-19.7673
G01 X1.8254 Y-19.8658
G01 X0.9571 Y-19.9265
G01 X0.0870 Y-19.9493
G01 X-0.7832 Y-19.9341
G01 X-1.6520 Y-19.8810
G01 X-2.5176 Y-19.7900
G01 X-3.3785 Y-19.6613
G01 Z-12.0000 F120
G01 X-4.2329 Y-19.4953 F300
G01 X-5.0792 Y-19.2921
G01 X-5.9159 Y-19.0522
G01 X-6.7413 Y-18.7760
G01 X-7.5539 Y-18.4641
G01 X-8.3521 Y-18.1170
G01 X-9.1344 Y-17.7354
G01 X-9.8993 Y-17.3201
G01 X-10.6454 Y-16.8718
G01 X-11.3712 Y-16.3914
G01 X-12.0753 Y-15.8798
G01 X-12.7565 Y-15.3380
G01 X-13.4134 Y-14.7670
G01 X-14.0448 Y-14.1678
G01 X-14.6494 Y-13.5417
G01 X-15.2261 Y-12.8898
G01 X-15.7739 Y-12.2134
G01 X-16.2916 Y-11.5137
G01 X-16.7783 Y-10.7921
G01 X-17.2331 Y-10.0500
G01 X-17.6551 Y-9.2887
G01 X-18.0434 Y-8.5098
G01 X-18.3975 Y-7.7147
G01 X-18.7165 Y-6.9048
G01 X-18.9998 Y-6.0819
G01 X-19.2470 Y-5.2473
G01 X-19.4576 Y-4.4028
G01 X-19.6311 Y-3.5499
G01 X-19.7673 Y-2.6902
G01 X-19.8658 Y-1.8254
G01 X-19.9265 Y-0.9571
G01 X-19.9493 Y-0.0870
G01 X-19.9341 Y0.7832
G01 X-19.8810 Y1.6520
G01 X-19.7900 Y2.5176
G01 X-19.6613 Y3.3785
G01 X-19.4953 Y4.2329
G01 X-19.2921 Y5.0792
G01 X-19.0522 Y5.9159
G01 X-18.7760 Y6.7413
G01 X-18.4641 Y7.5539
G01 X-18.1170 Y8.3521
G01 X-17.7354 Y9.1344
G01 X-17.3201 Y9.8993
G01 X-16.8718 Y10.6454
G01 X-16.3914 Y11.3712
G01 X-15.8798 Y12.0753
G01 X-15.3380 Y12.7565
G01 X-14.7670 Y13.4134
G01 X-14.1678 Y14.0448
G01 X-13.5417 Y14.6494
G01 X-12.8898 Y15.2261
G01 X-12.2134 Y15.7739
G01 X-11.5137 Y16.2916
G01 X-10.7921 Y16.7783
G01 X-10.0500 Y17.2331
G01 X-9.2887 Y17.6551
G01 X-8.5098 Y18.0434
G01 X-7.7147 Y18.3975
G01 X-6.9048 Y18.7165
G01 X-6.0819 Y18.9998
G01 X-5.2473 Y19.2470
G01 X-4.4028 Y19.4576
G01 X-3.5499 Y19.6311
G01 X-2.6902 Y19.7673
G01 X-1.8254 Y19.8658
G01 X-0.9571 Y19.9265
G01 X-0.0870 Y19.9493
G01 X0.7832 Y19.9341
G01 X1.6520 Y19.8810
G01 X2.5176 Y19.7900
G01 X3.3785 Y19.6613
G01 X4.2329 Y19.4953
G01 X5.0792 Y19.2921
G01 X5.9159 Y19.0522
G01 X6.7413 Y18.7760
G01 X7.5539 Y18.4641
G01 X8.3521 Y18.1170
G01 X9.1344 Y17.7354
G01 X9.8993 Y17.3201
G01 X10.6454 Y16.8718
G01 X11.3712 Y16.3914
G01 X12.0753 Y15.8798
G01 X12.7565 Y15.3380
G01 X13.4134 Y14.7670
G01 X14.0448 Y14.1678
G01 X14.6494 Y13.5417
G01 X15.2261 Y12.8898
G01 X15.7739 Y12.2134
G01 X16.2916 Y11.5137
G01 X16.7783 Y10.7921
G01 X17.2331 Y10.0500
G01 X17.6551 Y9.2887
G01 X18.0434 Y8.5098
G01 X18.3975 Y7.7147
G01 X18.7165 Y6.9048
G01 X18.9998 Y6.0819
G01 X19.2470 Y5.2473
G01 X19.4576 Y4.4028
G01 X19.6311 Y3.5499
G01 X19.7673 Y2.6902
G01 X19.8658 Y1.8254
G01 X19.9265 Y0.9571
G01 X19.9493 Y0.0870
G01 X19.9341 Y-0.7832
G01 X19.8810 Y-1.6520
G01 X19.7900 Y-2.5176
G01 X19.6613 Y-3.3785
G01 X19.4953 Y-4.2329
G01 X19.2921 Y-5.0792
G01 X19.0522 Y-5.9159
G01 X18.7760 Y-6.7413
G01 X18.4641 Y-7.5539
G01 X18.1170 Y-8.3521
G01 X17.7354 Y-9.1344
G01 X17.3201 Y-9.8993
G01 X16.8718 Y-10.6454
G01 X16.3914 Y-11.3712
G01 X15.8798 Y-12.0753
G01 X15.3380 Y-12.7565
G01 X14.7670 Y-13.4134
G01 X14.1678 Y-14.0448
G01 X13.5417 Y-14.6494
G01 X12.8898 Y-15.2261
G01 X12.2134 Y-15.7739
G01 X11.5137 Y-16.2916
G01 X10.7921 Y-16.7783
G01 X10.0500 Y-17.2331
G01 X9.2887 Y-17.6551
G01 X8.5098 Y-18.0434
G01 X7.7147 Y-18.3975
G01 X6.9048 Y-18.7165
G01 X6.0819 Y-18.9998
G01 X5.2473 Y-19.2470
G01 X4.4028 Y-19.4576
G01 X3.5499 Y-19.6311
G01 X2.6902 Y-19.7673
G01 X1.8254 Y-19.8658
G01 X0.9571 Y-19.9265
G01 X0.0870 Y-19.9493
G01 X-0.7832 Y-19.9341
G01 X-1.6520 Y-19.8810
G01 X-2.5176 Y-19.7900
G01 X-3.3785 Y-19.6613
G01 Z-13.0000 F120
G01 X-4.2329 Y-19.4953 F300
G01 X-5.0792 Y-19.2921
G01 X-5.9159 Y-19.0522
G01 X-6.7413 Y-18.7760
G01 X-7.5539 Y-18.4641
G01 X-8.3521 Y-18.1170
G01 X-9.1344 Y-17.7354
G01 X-9.8993 Y-17.3201
G01 X-10.6454 Y-16.8718
G01 X-11.3712 Y-16.3914
G01 X-12.0753 Y-15.8798
G01 X-12.7565 Y-15.3380
G01 X-13.4134 Y-14.7670
G01 X-14.0448 Y-14.1678
G01 X-14.6494 Y-13.5417
G01 X-15.2261 Y-12.8898
G01 X-15.7739 Y-12.2134
G01 X-16.2916 Y-11.5137
G01 X-16.7783 Y-10.7921
G01 X-17.2331 Y-10.0500
G01 X-17.6551 Y-9.2887
G01 X-18.0434 Y-8.5098
G01 X-18.3975 Y-7.7147
G01 X-18.7165 Y-6.9048
G01 X-18.9998 Y-6.0819
G01 X-19.2470 Y-5.2473
G01 X-19.4576 Y-4.4028
G01 X-19.6311 Y-3.5499
G01 X-19.7673 Y-2.6902
G01 X-19.8658 Y-1.8254
G01 X-19.9265 Y-0.9571
G01 X-19.9493 Y-0.0870
G01 X-19.9341 Y0.7832
G01 X-19.8810 Y1.6520
G01 X-19.7900 Y2.5176
G01 X-19.6613 Y3.3785
G01 X-19.4953 Y4.2329
G01 X-19.2921 Y5.0792
G01 X-19.0522 Y5.9159
G01 X-18.7760 Y6.7413
G01 X-18.4641 Y7.5539
G01 X-18.1170 Y8.3521
G01 X-17.7354 Y9.1344
G01 X-17.3201 Y9.8993
G01 X-16.8718 Y10.6454
G01 X-16.3914 Y11.3712
G01 X-15.8798 Y12.0753
G01 X-15.3380 Y12.7565
G01 X-14.7670 Y13.4134
G01 X-14.1678 Y14.0448
G01 X-13.5417 Y14.6494
G01 X-12.8898 Y15.2261
G01 X-12.2134 Y15.7739
G01 X-11.5137 Y16.2916
G01 X-10.7921 Y16.7783
G01 X-10.0500 Y17.2331
G01 X-9.2887 Y17.6551
G01 X-8.5098 Y18.0434
G01 X-7.7147 Y18.3975
G01 X-6.9048 Y18.7165
G01 X-6.0819 Y18.9998
G01 X-5.2473 Y19.2470
G01 X-4.4028 Y19.4576
G01 X-3.5499 Y19.6311
G01 X-2.6902 Y19.7673
G01 X-1.8254 Y19.8658
G01 X-0.9571 Y19.9265
G01 X-0.0870 Y19.9493
G01 X0.7832 Y19.9341
G01 X1.6520 Y19.8810
G01 X2.5176 Y19.7900
G01 X3.3785 Y19.6613
G01 X4.2329 Y19.4953
G01 X5.0792 Y19.2921
G01 X5.9159 Y19.0522
G01 X6.7413 Y18.7760
G01 X7.5539 Y18.4641
G01 X8.3521 Y18.1170
G01 X9.1344 Y17.7354
G01 X9.8993 Y17.3201
G01 X10.6454 Y16.8718
G01 X11.3712 Y16.3914
G01 X12.0753 Y15.8798
G01 X12.7565 Y15.3380
G01 X13.4134 Y14.7670
G01 X14.0448 Y14.1678
G01 X14.6494 Y13.5417
G01 X15.2261 Y12.8898
G01 X15.7739 Y12.2134
G01 X16.2916 Y11.5137
G01 X16.7783 Y10.7921
G01 X17.2331 Y10.0500
G01 X17.6551 Y9.2887
G01 X18.0434 Y8.5098
G01 X18.3975 Y7.7147
G01 X18.7165 Y6.9048
G01 X18.9998 Y6.0819
G01 X19.2470 Y5.2473
G01 X19.4576 Y4.4028
G01 X19.6311 Y3.5499
G01 X19.7673 Y2.6902
G01 X19.8658 Y1.8254
G01 X19.9265 Y0.9571
G01 X19.9493 Y0.0870
G01 X19.9341 Y-0.7832
G01 X19.8810 Y-1.6520
G01 X19.7900 Y-2.5176
G01 X19.6613 Y-3.3785
G01 X19.4953 Y-4.2329
G01 X19.2921 Y-5.0792
G01 X19.0522 Y-5.9159
G01 X18.7760 Y-6.7413
G01 X18.4641 Y-7.5539
G01 X18.1170 Y-8.3521
G01 X17.7354 Y-9.1344
G01 X17.3201 Y-9.8993
G01 X16.8718 Y-10.6454
G01 X16.3914 Y-11.3712
G01 X15.8798 Y-12.0753
G01 X15.3380 Y-12.7565
G01 X14.7670 Y-13.4134
G01 X14.1678 Y-14.0448
G01 X13.5417 Y-14.6494
G01 X12.8898 Y-15.2261
G01 X12.2134 Y-15.7739
G01 X11.5137 Y-16.2916
G01 X10.7921 Y-16.7783
G01 X10.0500 Y-17.2331
G01 X9.2887 Y-17.6551
G01 X8.5098 Y-18.0434
G01 X7.7147 Y-18.3975
G01 X6.9048 Y-18.7165
G01 X6.0819 Y-18.9998
G01 X5.2473 Y-19.2470
G01 X4.4028 Y-19.4576
G01 X3.5499 Y-19.6311
G01 X2.6902 Y-19.7673
G01 X1.8254 Y-19.8658
G01 X0.9571 Y-19.9265
G01 X0.0870 Y-19.9493
G01 X-0.7832 Y-19.9341
G01 X-1.6520 Y-19.8810
G01 X-2.5176 Y-19.7900
G01 X-3.3785 Y-19.6613
G01 Z-14.0000 F120
G01 X-4.2329 Y-19.4953 F300
G01 X-5.0792 Y-19.2921
G01 X-5.9159 Y-19.0522
G01 X-6.7413 Y-18.7760
G01 X-7.5539 Y-18.4641
G01 X-8.3521 Y-18.1170
G01 X-9.1344 Y-17.7354
G01 X-9.8993 Y-17.3201
G01 X-10.6454 Y-16.8718
G01 X-11.3712 Y-16.3914
G01 X-12.0753 Y-15.8798
G01 X-12.7565 Y-15.3380
G01 X-13.4134 Y-14.7670
G01 X-14.0448 Y-14.1678
G01 X-14.6494 Y-13.5417
G01 X-15.2261 Y-12.8898
G01 X-15.7739 Y-12.2134
G01 X-16.2916 Y-11.5137
G01 X-16.7783 Y-10.7921
G01 X-17.2331 Y-10.0500
G01 X-17.6551 Y-9.2887
G01 X-18.0434 Y-8.5098
G01 X-18.3975 Y-7.7147
G01 X-18.7165 Y-6.9048
G01 X-18.9998 Y-6.0819
G01 X-19.2470 Y-5.2473
G01 X-19.4576 Y-4.4028
G01 X-19.6311 Y-3.5499
G01 X-19.7673 Y-2.6902
G01 X-19.8658 Y-1.8254
G01 X-19.9265 Y-0.9571
G01 X-19.9493 Y-0.0870
G01 X-19.9341 Y0.7832
G01 X-19.8810 Y1.6520
G01 X-19.7900 Y2.5176
G01 X-19.6613 Y3.3785
G01 X-19.4953 Y4.2329
G01 X-19.2921 Y5.0792
G01 X-19.0522 Y5.9159
G01 X-18.7760 Y6.7413
G01 X-18.4641 Y7.5539
G01 X-18.1170 Y8.3521
G01 X-17.7354 Y9.1344
G01 X-17.3201 Y9.8993
G01 X-16.8718 Y10.6454
G01 X-16.3914 Y11.3712
G01 X-15.8798 Y12.0753
G01 X-15.3380 Y12.7565
G01 X-14.7670 Y13.4134
G01 X-14.1678 Y14.0448
G01 X-13.5417 Y14.6494
G01 X-12.8898 Y15.2261
G01 X-12.2134 Y15.7739
G01 X-11.5137 Y16.2916
G01 X-10.7921 Y16.7783
G01 X-10.0500 Y17.2331
G01 X-9.2887 Y17.6551
G01 X-8.5098 Y18.0434
G01 X-7.7147 Y18.3975
G01 X-6.9048 Y18.7165
G01 X-6.0819 Y18.9998
G01 X-5.2473 Y19.2470
G01 X-4.4028 Y19.4576
G01 X-3.5499 Y19.6311
G01 X-2.6902 Y19.7673
G01 X-1.8254 Y19.8658
G01 X-0.9571 Y19.9265
G01 X-0.0870 Y19.9493
G01 X0.7832 Y19.9341
G01 X1.6520 Y19.8810
G01 X2.5176 Y19.7900
G01 X3.3785 Y19.6613
G01 X4.2329 Y19.4953
G01 X5.0792 Y19.2921
G01 X5.9159 Y19.0522
G01 X6.7413 Y18.7760
G01 X7.5539 Y18.4641
G01 X8.3521 Y18.1170
G01 X9.1344 Y17.7354
G01 X9.8993 Y17.3201
G01 X10.6454 Y16.8718
G01 X11.3712 Y16.3914
G01 X12.0753 Y15.8798
G01 X12.7565 Y15.3380
G01 X13.4134 Y14.7670
G01 X14.0448 Y14.1678
G01 X14.6494 Y13.5417
G01 X15.2261 Y12.8898
G01 X15.7739 Y12.2134
G01 X16.2916 Y11.5137
G01 X16.7783 Y10.7921
G01 X17.2331 Y10.0500
G01 X17.6551 Y9.2887
G01 X18.0434 Y8.5098
G01 X18.3975 Y7.7147
G01 X18.7165 Y6.9048
G01 X18.9998 Y6.0819
G01 X19.2470 Y5.2473
G01 X19.4576 Y4.4028
G01 X19.6311 Y3.5499
G01 X19.7673 Y2.6902
G01 X19.8658 Y1.8254
G01 X19.9265 Y0.9571
G01 X19.9493 Y0.0870
G01 X19.9341 Y-0.7832
G01 X19.8810 Y-1.6520
G01 X19.7900 Y-2.5176
G01 X19.6613 Y-3.3785
G01 X19.4953 Y-4.2329
G01 X19.2921 Y-5.0792
G01 X19.0522 Y-5.9159
G01 X18.7760 Y-6.7413
G01 X18.4641 Y-7.5539
G01 X18.1170 Y-8.3521
G01 X17.7354 Y-9.1344
G01 X17.3201 Y-9.8993
G01 X16.8718 Y-10.6454
G01 X16.3914 Y-11.3712
G01 X15.8798 Y-12.0753
G01 X15.3380 Y-12.7565
G01 X14.7670 Y-13.4134
G01 X14.1678 Y-14.0448
G01 X13.5417 Y-14.6494
G01 X12.8898 Y-15.2261
G01 X12.2134 Y-15.7739
G01 X11.5137 Y-16.2916
G01 X10.7921 Y-16.7783
G01 X10.0500 Y-17.2331
G01 X9.2887 Y-17.6551
G01 X8.5098 Y-18.0434
G01 X7.7147 Y-18.3975
G01 X6.9048 Y-18.7165
G01 X6.0819 Y-18.9998
G01 X5.2473 Y-19.2470
G01 X4.4028 Y-19.4576
G01 X3.5499 Y-19.6311
G01 X2.6902 Y-19.7673
G01 X1.8254 Y-19.8658
G01 X0.9571 Y-19.9265
G01 X0.0870 Y-19.9493
G01 X-0.7832 Y-19.9341
G01 X-1.6520 Y-19.8810
G01 X-2.5176 Y-19.7900
G01 X-3.3785 Y-19.6613
G01 Z-15.0000 F120
G01 X-4.2329 Y-19.4953 F300
G01 X-5.0792 Y-19.2921
G01 X-5.9159 Y-19.0522
G01 X-6.7413 Y-18.7760
G01 X-7.5539 Y-18.4641
G01 X-8.3521 Y-18.1170
G01 X-9.1344 Y-17.7354
G01 X-9.8993 Y-17.3201
G01 X-10.6454 Y-16.8718
G01 X-11.3712 Y-16.3914
G01 X-12.0753 Y-15.8798
G01 X-12.7565 Y-15.3380
G01 X-13.4134 Y-14.7670
G01 X-14.0448 Y-14.1678
G01 X-14.6494 Y-13.5417
G01 X-15.2261 Y-12.8898
G01 X-15.7739 Y-12.2134
G01 X-16.2916 Y-11.5137
G01 X-16.7783 Y-10.7921
G01 X-17.2331 Y-10.0500
G01 X-17.6551 Y-9.2887
G01 X-18.0434 Y-8.5098
G01 X-18.3975 Y-7.7147
G01 X-18.7165 Y-6.9048
G01 X-18.9998 Y-6.0819
G01 X-19.2470 Y-5.2473
G01 X-19.4576 Y-4.4028
G01 X-19.6311 Y-3.5499
G01 X-19.7673 Y-2.6902
G01 X-19.8658 Y-1.8254
G01 X-19.9265 Y-0.9571
G01 X-19.9493 Y-0.0870
G01 X-19.9341 Y0.7832
G01 X-19.8810 Y1.6520
G01 X-19.7900 Y2.5176
G01 X-19.6613 Y3.3785
G01 X-19.4953 Y4.2329
G01 X-19.2921 Y5.0792
G01 X-19.0522 Y5.9159
G01 X-18.7760 Y6.7413
G01 X-18.4641 Y7.5539
G01 X-18.1170 Y8.3521
G01 X-17.7354 Y9.1344
G01 X-17.3201 Y9.8993
G01 X-16.8718 Y10.6454
G01 X-16.3914 Y11.3712
G01 X-15.8798 Y12.0753
G01 X-15.3380 Y12.7565
G01 X-14.7670 Y13.4134
G01 X-14.1678 Y14.0448
G01 X-13.5417 Y14.6494
G01 X-12.8898 Y15.2261
G01 X-12.2134 Y15.7739
G01 X-11.5137 Y16.2916
G01 X-10.7921 Y16.7783
G01 X-10.0500 Y17.2331
G01 X-9.2887 Y17.6551
G01 X-8.5098 Y18.0434
G01 X-7.7147 Y18.3975
G01 X-6.9048 Y18.7165
G01 X-6.0819 Y18.9998
G01 X-5.2473 Y19.2470
G01 X-4.4028 Y19.4576
G01 X-3.5499 Y19.6311
G01 X-2.6902 Y19.7673
G01 X-1.8254 Y19.8658
G01 X-0.9571 Y19.9265
G01 X-0.0870 Y19.9493
G01 X0.7832 Y19.9341
G01 X1.6520 Y19.8810
G01 X2.5176 Y19.7900
G01 X3.3785 Y19.6613
G01 X4.2329 Y19.4953
G01 X5.0792 Y19.2921
G01 X5.9159 Y19.0522
G01 X6.7413 Y18.7760
G01 X7.5539 Y18.4641
G01 X8.3521 Y18.1170
G01 X9.1344 Y17.7354
G01 X9.8993 Y17.3201
G01 X10.6454 Y16.8718
G01 X11.3712 Y16.3914
G01 X12.0753 Y15.8798
G01 X12.7565 Y15.3380
G01 X13.4134 Y14.7670
G01 X14.0448 Y14.1678
G01 X14.6494 Y13.5417
G01 X15.2261 Y12.8898
G01 X15.7739 Y12.2134
G01 X16.2916 Y11.5137
G01 X16.7783 Y10.7921
G01 X17.2331 Y10.0500
G01 X17.6551 Y9.2887
G01 X18.0434 Y8.5098
G01 X18.3975 Y7.7147
G01 X18.7165 Y6.9048
G01 X18.9998 Y6.0819
G01 X19.2470 Y5.2473
G01 X19.4576 Y4.4028
G01 X19.6311 Y3.5499
G01 X19.7673 Y2.6902
G01 X19.8658 Y1.8254
G01 X19.9265 Y0.9571
G01 X19.9493 Y0.0870
G01 X19.9341 Y-0.7832
G01 X19.8810 Y-1.6520
G01 X19.7900 Y-2.5176
G01 X19.6613 Y-3.3785
G01 X19.4953 Y-4.2329
G01 X19.2921 Y-5.0792
G01 X19.0522 Y-5.9159
G01 X18.7760 Y-6.7413
G01 X18.4641 Y-7.5539
G01 X18.1170 Y-8.3521
G01 X17.7354 Y-9.1344
G01 X17.3201 Y-9.8993
G01 X16.8718 Y-10.6454
G01 X16.3914 Y-11.3712
G01 X15.8798 Y-12.0753
G01 X15.3380 Y-12.7565
G01 X14.7670 Y-13.4134
G01 X14.1678 Y-14.0448
G01 X13.5417 Y-14.6494
G01 X12.8898 Y-15.2261
G01 X12.2134 Y-15.7739
G01 X11.5137 Y-16.2916
G01 X10.7921 Y-16.7783
G01 X10.0500 Y-17.2331
G01 X9.2887 Y-17.6551
G01 X8.5098 Y-18.0434
G01 X7.7147 Y-18.3975
G01 X6.9048 Y-18.7165
G01 X6.0819 Y-18.9998
G01 X5.2473 Y-19.2470
G01 X4.4028 Y-19.4576
G01 X3.5499 Y-19.6311
G01 X2.6902 Y-19.7673
G01 X1.8254 Y-19.8658
G01 X0.9571 Y-19.9265
G01 X0.0870 Y-19.9493
G01 X-0.7832 Y-19.9341
G01 X-1.6520 Y-19.8810
G01 X-2.5176 Y-19.7900
G01 X-3.3785 Y-19.6613
G01 Z-16.0000 F120
G01 X-4.2329 Y-19.4953 F300
G01 X-5.0792 Y-19.2921
G01 X-5.9159 Y-19.0522
G01 X-6.7413 Y-18.7760
G01 X-7.5539 Y-18.4641
G01 X-8.3521 Y-18.1170
G01 X-9.1344 Y-17.7354
G01 X-9.8993 Y-17.3201
G01 X-10.6454 Y-16.8718
G01 X-11.3712 Y-16.3914
G01 X-12.0753 Y-15.8798
G01 X-12.7565 Y-15.3380
G01 X-13.4134 Y-14.7670
G01 X-14.0448 Y-14.1678
G01 X-14.6494 Y-13.5417
G01 X-15.2261 Y-12.8898
G01 X-15.7739 Y-12.2134
G01 X-16.2916 Y-11.5137
G01 X-16.7783 Y-10.7921
G01 X-17.2331 Y-10.0500
G01 X-17.6551 Y-9.2887
G01 X-18.0434 Y-8.5098
G01 X-18.3975 Y-7.7147
G01 X-18.7165 Y-6.9048
G01 X-18.9998 Y-6.0819
G01 X-19.2470 Y-5.2473
G01 X-19.4576 Y-4.4028
G01 X-19.6311 Y-3.5499
G01 X-19.7673 Y-2.6902
G01 X-19.8658 Y-1.8254
G01 X-19.9265 Y-0.9571
G01 X-19.9493 Y-0.0870
G01 X-19.9341 Y0.7832
G01 X-19.8810 Y1.6520
G01 X-19.7900 Y2.5176
G01 X-19.6613 Y3.3785
G01 X-19.4953 Y4.2329
G01 X-19.2921 Y5.0792
G01 X-19.0522 Y5.9159
G01 X-18.7760 Y6.7413
G01 X-18.4641 Y7.5539
G01 X-18.1170 Y8.3521
G01 X-17.7354 Y9.1344
G01 X-17.3201 Y9.8993
G01 X-16.8718 Y10.6454
G01 X-16.3914 Y11.3712
G01 X-15.8798 Y12.0753
G01 X-15.3380 Y12.7565
G01 X-14.7670 Y13.4134
G01 X-14.1678 Y14.0448
G01 X-13.5417 Y14.6494
G01 X-12.8898 Y15.2261
G01 X-12.2134 Y15.7739
G01 X-11.5137 Y16.2916
G01 X-10.7921 Y16.7783
G01 X-10.0500 Y17.2331
G01 X-9.2887 Y17.6551
G01 X-8.5098 Y18.0434
G01 X-7.7147 Y18.3975
G01 X-6.9048 Y18.7165
G01 X-6.0819 Y18.9998
G01 X-5.2473 Y19.2470
G01 X-4.4028 Y19.4576
G01 X-3.5499 Y19.6311
G01 X-2.6902 Y19.7673
G01 X-1.8254 Y19.8658
G01 X-0.9571 Y19.9265
G01 X-0.0870 Y19.9493
G01 X0.7832 Y19.9341
G01 X1.6520 Y19.8810
G01 X2.5176 Y19.7900
G01 X3.3785 Y19.6613
G01 X4.2329 Y19.4953
G01 X5.0792 Y19.2921
G01 X5.9159 Y19.0522
G01 X6.7413 Y18.7760
G01 X7.5539 Y18.4641
G01 X8.3521 Y18.1170
G01 X9.1344 Y17.7354
G01 X9.8993 Y17.3201
G01 X10.6454 Y16.8718
G01 X11.3712 Y16.3914
G01 X12.0753 Y15.8798
G01 X12.7565 Y15.3380
G01 X13.4134 Y14.7670
G01 X14.0448 Y14.1678
G01 X14.6494 Y13.5417
G01 X15.2261 Y12.8898
G01 X15.7739 Y12.2134
G01 X16.2916 Y11.5137
G01 X16.7783 Y10.7921
G01 X17.2331 Y10.0500
G01 X17.6551 Y9.2887
G01 X18.0434 Y8.5098
G01 X18.3975 Y7.7147
G01 X18.7165 Y6.9048
G01 X18.9998 Y6.0819
G01 X19.2470 Y5.2473
G01 X19.4576 Y4.4028
G01 X19.6311 Y3.5499
G01 X19.7673 Y2.6902
G01 X19.8658 Y1.8254
G01 X19.9265 Y0.9571
G01 X19.9493 Y0.0870
G01 X19.9341 Y-0.7832
G01 X19.8810 Y-1.6520
G01 X19.7900 Y-2.5176
G01 X19.6613 Y-3.3785
G01 X19.4953 Y-4.2329
G01 X19.2921 Y-5.0792
G01 X19.0522 Y-5.9159
G01 X18.7760 Y-6.7413
G01 X18.4641 Y-7.5539
G01 X18.1170 Y-8.3521
G01 X17.7354 Y-9.1344
G01 X17.3201 Y-9.8993
G01 X16.8718 Y-10.6454
G01 X16.3914 Y-11.3712
G01 X15.8798 Y-12.0753
G01 X15.3380 Y-12.7565
G01 X14.7670 Y-13.4134
G01 X14.1678 Y-14.0448
G01 X13.5417 Y-14.6494
G01 X12.8898 Y-15.2261
G01 X12.2134 Y-15.7739
G01 X11.5137 Y-16.2916
G01 X10.7921 Y-16.7783
G01 X10.0500 Y-17.2331
G01 X9.2887 Y-17.6551
G01 X8.5098 Y-18.0434
G01 X7.7147 Y-18.3975
G01 X6.9048 Y-18.7165
G01 X6.0819 Y-18.9998
G01 X5.2473 Y-19.2470
G01 X4.4028 Y-19.4576
G01 X3.5499 Y-19.6311
G01 X2.6902 Y-19.7673
G01 X1.8254 Y-19.8658
G01 X0.9571 Y-19.9265
G01 X0.0870 Y-19.9493
G01 X-0.7832 Y-19.9341
G01 X-1.6520 Y-19.8810
G01 X-2.5176 Y-19.7900
G01 X-3.3785 Y-19.6613
G01 Z-17.0000 F120
G01 X-4.2329 Y-19.4953 F300
G01 X-5.0792 Y-19.2921
G01 X-5.9159 Y-19.0522
G01 X-6.7413 Y-18.7760
G01 X-7.5539 Y-18.4641
G01 X-8.3521 Y-18.1170
G01 X-9.1344 Y-17.7354
G01 X-9.8993 Y-17.3201
G01 X-10.6454 Y-16.8718
G01 X-11.3712 Y-16.3914
G01 X-12.0753 Y-15.8798
G01 X-12.7565 Y-15.3380
G01 X-13.4134 Y-14.7670
G01 X-14.0448 Y-14.1678
G01 X-14.6494 Y-13.5417
G01 X-15.2261 Y-12.8898
G01 X-15.7739 Y-12.2134
G01 X-16.2916 Y-11.5137
G01 X-16.7783 Y-10.7921
G01 X-17.2331 Y-10.0500
G01 X-17.6551 Y-9.2887
G01 X-18.0434 Y-8.5098
G01 X-18.3975 Y-7.7147
G01 X-18.7165 Y-6.9048
G01 X-18.9998 Y-6.0819
G01 X-19.2470 Y-5.2473
G01 X-19.4576 Y-4.4028
G01 X-19.6311 Y-3.5499
G01 X-19.7673 Y-2.6902
G01 X-19.8658 Y-1.8254
G01 X-19.9265 Y-0.9571
G01 X-19.9493 Y-0.0870
G01 X-19.9341 Y0.7832
G01 X-19.8810 Y1.6520
G01 X-19.7900 Y2.5176
G01 X-19.6613 Y3.3785
G01 X-19.4953 Y4.2329
G01 X-19.2921 Y5.0792
G01 X-19.0522 Y5.9159
G01 X-18.7760 Y6.7413
G01 X-18.4641 Y7.5539
G01 X-18.1170 Y8.3521
G01 X-17.7354 Y9.1344
G01 X-17.3201 Y9.8993
G01 X-16.8718 Y10.6454
G01 X-16.3914 Y11.3712
G01 X-15.8798 Y12.0753
G01 X-15.3380 Y12.7565
G01 X-14.7670 Y13.4134
G01 X-14.1678 Y14.0448
G01 X-13.5417 Y14.6494
G01 X-12.8898 Y15.2261
G01 X-12.2134 Y15.7739
G01 X-11.5137 Y16.2916
G01 X-10.7921 Y16.7783
G01 X-10.0500 Y17.2331
G01 X-9.2887 Y17.6551
G01 X-8.5098 Y18.0434
G01 X-7.7147 Y18.3975
G01 X-6.9048 Y18.7165
G01 X-6.0819 Y18.9998
G01 X-5.2473 Y19.2470
G01 X-4.4028 Y19.4576
G01 X-3.5499 Y19.6311
G01 X-2.6902 Y19.7673
G01 X-1.8254 Y19.8658
G01 X-0.9571 Y19.9265
G01 X-0.0870 Y19.9493
G01 X0.7832 Y19.9341
G01 X1.6520 Y19.8810
G01 X2.5176 Y19.7900
G01 X3.3785 Y19.6613
G01 X4.2329 Y19.4953
G01 X5.0792 Y19.2921
G01 X5.9159 Y19.0522
G01 X6.7413 Y18.7760
G01 X7.5539 Y18.4641
G01 X8.3521 Y18.1170
G01 X9.1344 Y17.7354
G01 X9.8993 Y17.3201
G01 X10.6454 Y16.8718
G01 X11.3712 Y16.3914
G01 X12.0753 Y15.8798
G01 X12.7565 Y15.3380
G01 X13.4134 Y14.7670
G01 X14.0448 Y14.1678
G01 X14.6494 Y13.5417
G01 X15.2261 Y12.8898
G01 X15.7739 Y12.2134
G01 X16.2916 Y11.5137
G01 X16.7783 Y10.7921
G01 X17.2331 Y10.0500
G01 X17.6551 Y9.2887
G01 X18.0434 Y8.5098
G01 X18.3975 Y7.7147
G01 X18.7165 Y6.9048
G01 X18.9998 Y6.0819
G01 X19.2470 Y5.2473
G01 X19.4576 Y4.4028
G01 X19.6311 Y3.5499
G01 X19.7673 Y2.6902
G01 X19.8658 Y1.8254
G01 X19.9265 Y0.9571
G01 X19.9493 Y0.0870
G01 X19.9341 Y-0.7832
G01 X19.8810 Y-1.6520
G01 X19.7900 Y-2.5176
G01 X19.6613 Y-3.3785
G01 X19.4953 Y-4.2329
G01 X19.2921 Y-5.0792
G01 X19.0522 Y-5.9159
G01 X18.7760 Y-6.7413
G01 X18.4641 Y-7.5539
G01 X18.1170 Y-8.3521
G01 X17.7354 Y-9.1344
G01 X17.3201 Y-9.8993
G01 X16.8718 Y-10.6454
G01 X16.3914 Y-11.3712
G01 X15.8798 Y-12.0753
G01 X15.3380 Y-12.7565
G01 X14.7670 Y-13.4134
G01 X14.1678 Y-14.0448
G01 X13.5417 Y-14.6494
G01 X12.8898 Y-15.2261
G01 X12.2134 Y-15.7739
G01 X11.5137 Y-16.2916
G01 X10.7921 Y-16.7783
G01 X10.0500 Y-17.2331
G01 X9.2887 Y-17.6551
G01 X8.5098 Y-18.0434
G01 X7.7147 Y-18.3975
G01 X6.9048 Y-18.7165
G01 X6.0819 Y-18.9998
G01 X5.2473 Y-19.2470
G01 X4.4028 Y-19.4576
G01 X3.5499 Y-19.6311
G01 X2.6902 Y-19.7673
G01 X1.8254 Y-19.8658
G01 X0.9571 Y-19.9265
G01 X0.0870 Y-19.9493
G01 X-0.7832 Y-19.9341
G01 X-1.6520 Y-19.8810
G01 X-2.5176 Y-19.7900
G01 X-3.3785 Y-19.6613
G01 Z-18.0000 F120
G01 X-4.2329 Y-19.4953 F300
G01 X-5.0792 Y-19.2921
G01 X-5.9159 Y-19.0522
G01 X-6.7413 Y-18.7760
G01 X-7.5539 Y-18.4641
G01 X-8.3521 Y-18.1170
G01 X-9.1344 Y-17.7354
G01 X-9.8993 Y-17.3201
G01 X-10.6454 Y-16.8718
G01 X-11.3712 Y-16.3914
G01 X-12.0753 Y-15.8798
G01 X-12.7565 Y-15.3380
G01 X-13.4134 Y-14.7670
G01 X-14.0448 Y-14.1678
G01 X-14.6494 Y-13.5417
G01 X-15.2261 Y-12.8898
G01 X-15.7739 Y-12.2134
G01 X-16.2916 Y-11.5137
G01 X-16.7783 Y-10.7921
G01 X-17.2331 Y-10.0500
G01 X-17.6551 Y-9.2887
G01 X-18.0434 Y-8.5098
G01 X-18.3975 Y-7.7147
G01 X-18.7165 Y-6.9048
G01 X-18.9998 Y-6.0819
G01 X-19.2470 Y-5.2473
G01 X-19.4576 Y-4.4028
G01 X-19.6311 Y-3.5499
G01 X-19.7673 Y-2.6902
G01 X-19.8658 Y-1.8254
G01 X-19.9265 Y-0.9571
G01 X-19.9493 Y-0.0870
G01 X-19.9341 Y0.7832
G01 X-19.8810 Y1.6520
G01 X-19.7900 Y2.5176
G01 X-19.6613 Y3.3785
G01 X-19.4953 Y4.2329
G01 X-19.2921 Y5.0792
G01 X-19.0522 Y5.9159
G01 X-18.7760 Y6.7413
G01 X-18.4641 Y7.5539
G01 X-18.1170 Y8.3521
G01 X-17.7354 Y9.1344
G01 X-17.3201 Y9.8993
G01 X-16.8718 Y10.6454
G01 X-16.3914 Y11.3712
G01 X-15.8798 Y12.0753
G01 X-15.3380 Y12.7565
G01 X-14.7670 Y13.4134
G01 X-14.1678 Y14.0448
G01 X-13.5417 Y14.6494
G01 X-12.8898 Y15.2261
G01 X-12.2134 Y15.7739
G01 X-11.5137 Y16.2916
G01 X-10.7921 Y16.7783
G01 X-10.0500 Y17.2331
G01 X-9.2887 Y17.6551
G01 X-8.5098 Y18.0434
G01 X-7.7147 Y18.3975
G01 X-6.9048 Y18.7165
G01 X-6.0819 Y18.9998
G01 X-5.2473 Y19.2470
G01 X-4.4028 Y19.4576
G01 X-3.5499 Y19.6311
G01 X-2.6902 Y19.7673
G01 X-1.8254 Y19.8658
G01 X-0.9571 Y19.9265
G01 X-0.0870 Y19.9493
G01 X0.7832 Y19.9341
G01 X1.6520 Y19.8810
G01 X2.5176 Y19.7900
G01 X3.3785 Y19.6613
G01 X4.2329 Y19.4953
G01 X5.0792 Y19.2921
G01 X5.9159 Y19.0522
G01 X6.7413 Y18.7760
G01 X7.5539 Y18.4641
G01 X8.3521 Y18.1170
G01 X9.1344 Y17.7354
G01 X9.8993 Y17.3201
G01 X10.6454 Y16.8718
G01 X11.3712 Y16.3914
G01 X12.0753 Y15.8798
G01 X12.7565 Y15.3380
G01 X13.4134 Y14.7670
G01 X14.0448 Y14.1678
G01 X14.6494 Y13.5417
G01 X15.2261 Y12.8898
G01 X15.7739 Y12.2134
G01 X16.2916 Y11.5137
G01 X16.7783 Y10.7921
G01 X17.2331 Y10.0500
G01 X17.6551 Y9.2887
G01 X18.0434 Y8.5098
G01 X18.3975 Y7.7147
G01 X18.7165 Y6.9048
G01 X18.9998 Y6.0819
G01 X19.2470 Y5.2473
G01 X19.4576 Y4.4028
G01 X19.6311 Y3.5499
G01 X19.7673 Y2.6902
G01 X19.8658 Y1.8254
G01 X19.9265 Y0.9571
G01 X19.9493 Y0.0870
G01 X19.9341 Y-0.7832
G01 X19.8810 Y-1.6520
G01 X19.7900 Y-2.5176
G01 X19.6613 Y-3.3785
G01 X19.4953 Y-4.2329
G01 X19.2921 Y-5.0792
G01 X19.0522 Y-5.9159
G01 X18.7760 Y-6.7413
G01 X18.4641 Y-7.5539
G01 X18.1170 Y-8.3521
G01 X17.7354 Y-9.1344
G01 X17.3201 Y-9.8993
G01 X16.8718 Y-10.6454
G01 X16.3914 Y-11.3712
G01 X15.8798 Y-12.0753
G01 X15.3380 Y-12.7565
G01 X14.7670 Y-13.4134
G01 X14.1678 Y-14.0448
G01 X13.5417 Y-14.6494
G01 X12.8898 Y-15.2261
G01 X12.2134 Y-15.7739
G01 X11.5137 Y-16.2916
G01 X10.7921 Y-16.7783
G01 X10.0500 Y-17.2331
G01 X9.2887 Y-17.6551
G01 X8.5098 Y-18.0434
G01 X7.7147 Y-18.3975
G01 X6.9048 Y-18.7165
G01 X6.0819 Y-18.9998
G01 X5.2473 Y-19.2470
G01 X4.4028 Y-19.4576
G01 X3.5499 Y-19.6311
G01 X2.6902 Y-19.7673
G01 X1.8254 Y-19.8658
G01 X0.9571 Y-19.9265
G01 X0.0870 Y-19.9493
G01 X-0.7832 Y-19.9341
G01 X-1.6520 Y-19.8810
G01 X-2.5176 Y-19.7900
G01 X-3.3785 Y-19.6613
G01 Z-19.0000 F120
G01 X-4.2329 Y-19.4953 F300
G01 X-5.0792 Y-19.2921
G01 X-5.9159 Y-19.0522
G01 X-6.7413 Y-18.7760
G01 X-7.5539 Y-18.4641
G01 X-8.3521 Y-18.1170
G01 X-9.1344 Y-17.7354
G01 X-9.8993 Y-17.3201
G01 X-10.6454 Y-16.8718
G01 X-11.3712 Y-16.3914
G01 X-12.0753 Y-15.8798
G01 X-12.7565 Y-15.3380
G01 X-13.4134 Y-14.7670
G01 X-14.0448 Y-14.1678
G01 X-14.6494 Y-13.5417
G01 X-15.2261 Y-12.8898
G01 X-15.7739 Y-12.2134
G01 X-16.2916 Y-11.5137
G01 X-16.7783 Y-10.7921
G01 X-17.2331 Y-10.0500
G01 X-17.6551 Y-9.2887
G01 X-18.0434 Y-8.5098
G01 X-18.3975 Y-7.7147
G01 X-18.7165 Y-6.9048
G01 X-18.9998 Y-6.0819
G01 X-19.2470 Y-5.2473
G01 X-19.4576 Y-4.4028
G01 X-19.6311 Y-3.5499
G01 X-19.7673 Y-2.6902
G01 X-19.8658 Y-1.8254
G01 X-19.9265 Y-0.9571
G01 X-19.9493 Y-0.0870
G01 X-19.9341 Y0.7832
G01 X-19.8810 Y1.6520
G01 X-19.7900 Y2.5176
G01 X-19.6613 Y3.3785
G01 X-19.4953 Y4.2329
G01 X-19.2921 Y5.0792
G01 X-19.0522 Y5.9159
G01 X-18.7760 Y6.7413
G01 X-18.4641 Y7.5539
G01 X-18.1170 Y8.3521
G01 X-17.7354 Y9.1344
G01 X-17.3201 Y9.8993
G01 X-16.8718 Y10.6454
G01 X-16.3914 Y11.3712
G01 X-15.8798 Y12.0753
G01 X-15.3380 Y12.7565
G01 X-14.7670 Y13.4134
G01 X-14.1678 Y14.0448
G01 X-13.5417 Y14.6494
G01 X-12.8898 Y15.2261
G01 X-12.2134 Y15.7739
G01 X-11.5137 Y16.2916
G01 X-10.7921 Y16.7783
G01 X-10.0500 Y17.2331
G01 X-9.2887 Y17.6551
G01 X-8.5098 Y18.0434
G01 X-7.7147 Y18.3975
G01 X-6.9048 Y18.7165
G01 X-6.0819 Y18.9998
G01 X-5.2473 Y19.2470
G01 X-4.4028 Y19.4576
G01 X-3.5499 Y19.6311
G01 X-2.6902 Y19.7673
G01 X-1.8254 Y19.8658
G01 X-0.9571 Y19.9265
G01 X-0.0870 Y19.9493
G01 X0.7832 Y19.9341
G01 X1.6520 Y19.8810
G01 X2.5176 Y19.7900
G01 X3.3785 Y19.6613
G01 X4.2329 Y19.4953
G01 X5.0792 Y19.2921
G01 X5.9159 Y19.0522
G01 X6.7413 Y18.7760
G01 X7.5539 Y18.4641
G01 X8.3521 Y18.1170
G01 X9.1344 Y17.7354
G01 X9.8993 Y17.3201
G01 X10.6454 Y16.8718
G01 X11.3712 Y16.3914
G01 X12.0753 Y15.8798
G01 X12.7565 Y15.3380
G01 X13.4134 Y14.7670
G01 X14.0448 Y14.1678
G01 X14.6494 Y13.5417
G01 X15.2261 Y12.8898
G01 X15.7739 Y12.2134
G01 X16.2916 Y11.5137
G01 X16.7783 Y10.7921
G01 X17.2331 Y10.0500
G01 X17.6551 Y9.2887
G01 X18.0434 Y8.5098
G01 X18.3975 Y7.7147
G01 X18.7165 Y6.9048
G01 X18.9998 Y6.0819
G01 X19.2470 Y5.2473
G01 X19.4576 Y4.4028
G01 X19.6311 Y3.5499
G01 X19.7673 Y2.6902
G01 X19.8658 Y1.8254
G01 X19.9265 Y0.9571
G01 X19.9493 Y0.0870
G01 X19.9341 Y-0.7832
G01 X19.8810 Y-1.6520
G01 X19.7900 Y-2.5176
G01 X19.6613 Y-3.3785
G01 X19.4953 Y-4.2329
G01 X19.2921 Y-5.0792
G01 X19.0522 Y-5.9159
G01 X18.7760 Y-6.7413
G01 X18.4641 Y-7.5539
G01 X18.1170 Y-8.3521
G01 X17.7354 Y-9.1344
G01 X17.3201 Y-9.8993
G01 X16.8718 Y-10.6454
G01 X16.3914 Y-11.3712
G01 X15.8798 Y-12.0753
G01 X15.3380 Y-12.7565
G01 X14.7670 Y-13.4134
G01 X14.1678 Y-14.0448
G01 X13.5417 Y-14.6494
G01 X12.8898 Y-15.2261
G01 X12.2134 Y-15.7739
G01 X11.5137 Y-16.2916
G01 X10.7921 Y-16.7783
G01 X10.0500 Y-17.2331
G01 X9.2887 Y-17.6551
G01 X8.5098 Y-18.0434
G01 X7.7147 Y-18.3975
G01 X6.9048 Y-18.7165
G01 X6.0819 Y-18.9998
G01 X5.2473 Y-19.2470
G01 X4.4028 Y-19.4576
G01 X3.5499 Y-19.6311
G01 X2.6902 Y-19.7673
G01 X1.8254 Y-19.8658
G01 X0.9571 Y-19.9265
G01 X0.0870 Y-19.9493
G01 X-0.7832 Y-19.9341
G01 X-1.6520 Y-19.8810
G01 X-2.5176 Y-19.7900
G01 X-3.3785 Y-19.6613
G00 Z1.0000 F500
G00 X0.0000 Y0.0000 F3000

M05
