;Project TweezerRupor
;Created by Estlcam version 10 build 11.006
;Machining time about 00:40:53 hours

G90
G92 X0 Y0 Z0
M03 S24000
G00 Z1.0000 F500


;No. 1: Hole 13
G00 X-14.8552 Y-14.8425 F3000
G00 Z0.5000 F500
G01 Z-1.0000 F120
G01 X-15.4885 Y-14.1804 F360
G01 X-16.0923 Y-13.4913
G01 X-16.6655 Y-12.7765
G01 X-17.2069 Y-12.0374
G01 X-17.7156 Y-11.2754
G01 X-18.1906 Y-10.4920
G01 X-18.6309 Y-9.6885
G01 X-19.0358 Y-8.8666
G01 X-19.4044 Y-8.0279
G01 X-19.7361 Y-7.1738
G01 X-20.0303 Y-6.3061
G01 X-20.2863 Y-5.4264
G01 X-20.5037 Y-4.5363
G01 X-20.6820 Y-3.6377
G01 X-20.8210 Y-2.7321
G01 X-20.9204 Y-1.8213
G01 X-20.9799 Y-0.9070
G01 X-20.9995 Y0.0090
G01 X-20.9791 Y0.9250
G01 X-20.9188 Y1.8392
G01 X-20.8187 Y2.7499
G01 X-20.6789 Y3.6554
G01 X-20.4998 Y4.5539
G01 X-20.2816 Y5.4438
G01 X-20.0249 Y6.3232
G01 X-19.7300 Y7.1907
G01 X-19.3976 Y8.0445
G01 X-19.0282 Y8.8829
G01 X-18.6226 Y9.7045
G01 X-18.1816 Y10.5075
G01 X-17.7060 Y11.2906
G01 X-17.1966 Y12.0522
G01 X-16.6545 Y12.7908
G01 X-16.0808 Y13.5051
G01 X-15.4764 Y14.1937
G01 X-14.8425 Y14.8552
G01 X-14.1804 Y15.4885
G01 X-13.4913 Y16.0923
G01 X-12.7765 Y16.6655
G01 X-12.0374 Y17.2069
G01 X-11.2754 Y17.7156
G01 X-10.4920 Y18.1906
G01 X-9.6885 Y18.6309
G01 X-8.8666 Y19.0358
G01 X-8.0279 Y19.4044
G01 X-7.1738 Y19.7361
G01 X-6.3061 Y20.0303
G01 X-5.4264 Y20.2863
G01 X-4.5363 Y20.5037
G01 X-3.6377 Y20.6820
G01 X-2.7321 Y20.8210
G01 X-1.8213 Y20.9204
G01 X-0.9070 Y20.9799
G01 X0.0090 Y20.9995
G01 X0.9250 Y20.9791
G01 X1.8392 Y20.9188
G01 X2.7499 Y20.8187
G01 X3.6554 Y20.6789
G01 X4.5539 Y20.4998
G01 X5.4438 Y20.2816
G01 X6.3232 Y20.0249
G01 X7.1907 Y19.7300
G01 X8.0445 Y19.3976
G01 X8.8829 Y19.0282
G01 X9.7045 Y18.6226
G01 X10.5075 Y18.1816
G01 X11.2906 Y17.7060
G01 X12.0522 Y17.1966
G01 X12.7908 Y16.6545
G01 X13.5051 Y16.0808
G01 X14.1937 Y15.4764
G01 X14.8552 Y14.8425
G01 X15.4885 Y14.1804
G01 X16.0923 Y13.4913
G01 X16.6655 Y12.7765
G01 X17.2069 Y12.0374
G01 X17.7156 Y11.2754
G01 X18.1906 Y10.4920
G01 X18.6309 Y9.6885
G01 X19.0358 Y8.8666
G01 X19.4044 Y8.0279
G01 X19.7361 Y7.1738
G01 X20.0303 Y6.3061
G01 X20.2863 Y5.4264
G01 X20.5037 Y4.5363
G01 X20.6820 Y3.6377
G01 X20.8210 Y2.7321
G01 X20.9204 Y1.8213
G01 X20.9799 Y0.9070
G01 X20.9995 Y-0.0090
G01 X20.9791 Y-0.9250
G01 X20.9188 Y-1.8392
G01 X20.8187 Y-2.7499
G01 X20.6789 Y-3.6554
G01 X20.4998 Y-4.5539
G01 X20.2816 Y-5.4438
G01 X20.0249 Y-6.3232
G01 X19.7300 Y-7.1907
G01 X19.3976 Y-8.0445
G01 X19.0282 Y-8.8829
G01 X18.6226 Y-9.7045
G01 X18.1816 Y-10.5075
G01 X17.7060 Y-11.2906
G01 X17.1966 Y-12.0522
G01 X16.6545 Y-12.7908
G01 X16.0808 Y-13.5051
G01 X15.4764 Y-14.1937
G01 X14.8425 Y-14.8552
G01 X14.1804 Y-15.4885
G01 X13.4913 Y-16.0923
G01 X12.7765 Y-16.6655
G01 X12.0374 Y-17.2069
G01 X11.2754 Y-17.7156
G01 X10.4920 Y-18.1906
G01 X9.6885 Y-18.6309
G01 X8.8666 Y-19.0358
G01 X8.0279 Y-19.4044
G01 X7.1738 Y-19.7361
G01 X6.3061 Y-20.0303
G01 X5.4264 Y-20.2863
G01 X4.5363 Y-20.5037
G01 X3.6377 Y-20.6820
G01 X2.7321 Y-20.8210
G01 X1.8213 Y-20.9204
G01 X0.9070 Y-20.9799
G01 X-0.0090 Y-20.9995
G01 X-0.9250 Y-20.9791
G01 X-1.8392 Y-20.9188
G01 X-2.7499 Y-20.8187
G01 X-3.6554 Y-20.6789
G01 X-4.5539 Y-20.4998
G01 X-5.4438 Y-20.2816
G01 X-6.3232 Y-20.0249
G01 X-7.1907 Y-19.7300
G01 X-8.0445 Y-19.3976
G01 X-8.8829 Y-19.0282
G01 X-9.7045 Y-18.6226
G01 X-10.5075 Y-18.1816
G01 X-11.2906 Y-17.7060
G01 X-12.0522 Y-17.1966
G01 X-12.7908 Y-16.6545
G01 X-13.5051 Y-16.0808
G01 X-14.1937 Y-15.4764
G01 X-14.8552 Y-14.8425
G01 Z-2.0000 F120
G01 X-15.4885 Y-14.1804 F360
G01 X-16.0923 Y-13.4913
G01 X-16.6655 Y-12.7765
G01 X-17.2069 Y-12.0374
G01 X-17.7156 Y-11.2754
G01 X-18.1906 Y-10.4920
G01 X-18.6309 Y-9.6885
G01 X-19.0358 Y-8.8666
G01 X-19.4044 Y-8.0279
G01 X-19.7361 Y-7.1738
G01 X-20.0303 Y-6.3061
G01 X-20.2863 Y-5.4264
G01 X-20.5037 Y-4.5363
G01 X-20.6820 Y-3.6377
G01 X-20.8210 Y-2.7321
G01 X-20.9204 Y-1.8213
G01 X-20.9799 Y-0.9070
G01 X-20.9995 Y0.0090
G01 X-20.9791 Y0.9250
G01 X-20.9188 Y1.8392
G01 X-20.8187 Y2.7499
G01 X-20.6789 Y3.6554
G01 X-20.4998 Y4.5539
G01 X-20.2816 Y5.4438
G01 X-20.0249 Y6.3232
G01 X-19.7300 Y7.1907
G01 X-19.3976 Y8.0445
G01 X-19.0282 Y8.8829
G01 X-18.6226 Y9.7045
G01 X-18.1816 Y10.5075
G01 X-17.7060 Y11.2906
G01 X-17.1966 Y12.0522
G01 X-16.6545 Y12.7908
G01 X-16.0808 Y13.5051
G01 X-15.4764 Y14.1937
G01 X-14.8425 Y14.8552
G01 X-14.1804 Y15.4885
G01 X-13.4913 Y16.0923
G01 X-12.7765 Y16.6655
G01 X-12.0374 Y17.2069
G01 X-11.2754 Y17.7156
G01 X-10.4920 Y18.1906
G01 X-9.6885 Y18.6309
G01 X-8.8666 Y19.0358
G01 X-8.0279 Y19.4044
G01 X-7.1738 Y19.7361
G01 X-6.3061 Y20.0303
G01 X-5.4264 Y20.2863
G01 X-4.5363 Y20.5037
G01 X-3.6377 Y20.6820
G01 X-2.7321 Y20.8210
G01 X-1.8213 Y20.9204
G01 X-0.9070 Y20.9799
G01 X0.0090 Y20.9995
G01 X0.9250 Y20.9791
G01 X1.8392 Y20.9188
G01 X2.7499 Y20.8187
G01 X3.6554 Y20.6789
G01 X4.5539 Y20.4998
G01 X5.4438 Y20.2816
G01 X6.3232 Y20.0249
G01 X7.1907 Y19.7300
G01 X8.0445 Y19.3976
G01 X8.8829 Y19.0282
G01 X9.7045 Y18.6226
G01 X10.5075 Y18.1816
G01 X11.2906 Y17.7060
G01 X12.0522 Y17.1966
G01 X12.7908 Y16.6545
G01 X13.5051 Y16.0808
G01 X14.1937 Y15.4764
G01 X14.8552 Y14.8425
G01 X15.4885 Y14.1804
G01 X16.0923 Y13.4913
G01 X16.6655 Y12.7765
G01 X17.2069 Y12.0374
G01 X17.7156 Y11.2754
G01 X18.1906 Y10.4920
G01 X18.6309 Y9.6885
G01 X19.0358 Y8.8666
G01 X19.4044 Y8.0279
G01 X19.7361 Y7.1738
G01 X20.0303 Y6.3061
G01 X20.2863 Y5.4264
G01 X20.5037 Y4.5363
G01 X20.6820 Y3.6377
G01 X20.8210 Y2.7321
G01 X20.9204 Y1.8213
G01 X20.9799 Y0.9070
G01 X20.9995 Y-0.0090
G01 X20.9791 Y-0.9250
G01 X20.9188 Y-1.8392
G01 X20.8187 Y-2.7499
G01 X20.6789 Y-3.6554
G01 X20.4998 Y-4.5539
G01 X20.2816 Y-5.4438
G01 X20.0249 Y-6.3232
G01 X19.7300 Y-7.1907
G01 X19.3976 Y-8.0445
G01 X19.0282 Y-8.8829
G01 X18.6226 Y-9.7045
G01 X18.1816 Y-10.5075
G01 X17.7060 Y-11.2906
G01 X17.1966 Y-12.0522
G01 X16.6545 Y-12.7908
G01 X16.0808 Y-13.5051
G01 X15.4764 Y-14.1937
G01 X14.8425 Y-14.8552
G01 X14.1804 Y-15.4885
G01 X13.4913 Y-16.0923
G01 X12.7765 Y-16.6655
G01 X12.0374 Y-17.2069
G01 X11.2754 Y-17.7156
G01 X10.4920 Y-18.1906
G01 X9.6885 Y-18.6309
G01 X8.8666 Y-19.0358
G01 X8.0279 Y-19.4044
G01 X7.1738 Y-19.7361
G01 X6.3061 Y-20.0303
G01 X5.4264 Y-20.2863
G01 X4.5363 Y-20.5037
G01 X3.6377 Y-20.6820
G01 X2.7321 Y-20.8210
G01 X1.8213 Y-20.9204
G01 X0.9070 Y-20.9799
G01 X-0.0090 Y-20.9995
G01 X-0.9250 Y-20.9791
G01 X-1.8392 Y-20.9188
G01 X-2.7499 Y-20.8187
G01 X-3.6554 Y-20.6789
G01 X-4.5539 Y-20.4998
G01 X-5.4438 Y-20.2816
G01 X-6.3232 Y-20.0249
G01 X-7.1907 Y-19.7300
G01 X-8.0445 Y-19.3976
G01 X-8.8829 Y-19.0282
G01 X-9.7045 Y-18.6226
G01 X-10.5075 Y-18.1816
G01 X-11.2906 Y-17.7060
G01 X-12.0522 Y-17.1966
G01 X-12.7908 Y-16.6545
G01 X-13.5051 Y-16.0808
G01 X-14.1937 Y-15.4764
G01 X-14.8552 Y-14.8425
G01 Z-3.0000 F120
G01 X-15.4885 Y-14.1804 F360
G01 X-16.0923 Y-13.4913
G01 X-16.6655 Y-12.7765
G01 X-17.2069 Y-12.0374
G01 X-17.7156 Y-11.2754
G01 X-18.1906 Y-10.4920
G01 X-18.6309 Y-9.6885
G01 X-19.0358 Y-8.8666
G01 X-19.4044 Y-8.0279
G01 X-19.7361 Y-7.1738
G01 X-20.0303 Y-6.3061
G01 X-20.2863 Y-5.4264
G01 X-20.5037 Y-4.5363
G01 X-20.6820 Y-3.6377
G01 X-20.8210 Y-2.7321
G01 X-20.9204 Y-1.8213
G01 X-20.9799 Y-0.9070
G01 X-20.9995 Y0.0090
G01 X-20.9791 Y0.9250
G01 X-20.9188 Y1.8392
G01 X-20.8187 Y2.7499
G01 X-20.6789 Y3.6554
G01 X-20.4998 Y4.5539
G01 X-20.2816 Y5.4438
G01 X-20.0249 Y6.3232
G01 X-19.7300 Y7.1907
G01 X-19.3976 Y8.0445
G01 X-19.0282 Y8.8829
G01 X-18.6226 Y9.7045
G01 X-18.1816 Y10.5075
G01 X-17.7060 Y11.2906
G01 X-17.1966 Y12.0522
G01 X-16.6545 Y12.7908
G01 X-16.0808 Y13.5051
G01 X-15.4764 Y14.1937
G01 X-14.8425 Y14.8552
G01 X-14.1804 Y15.4885
G01 X-13.4913 Y16.0923
G01 X-12.7765 Y16.6655
G01 X-12.0374 Y17.2069
G01 X-11.2754 Y17.7156
G01 X-10.4920 Y18.1906
G01 X-9.6885 Y18.6309
G01 X-8.8666 Y19.0358
G01 X-8.0279 Y19.4044
G01 X-7.1738 Y19.7361
G01 X-6.3061 Y20.0303
G01 X-5.4264 Y20.2863
G01 X-4.5363 Y20.5037
G01 X-3.6377 Y20.6820
G01 X-2.7321 Y20.8210
G01 X-1.8213 Y20.9204
G01 X-0.9070 Y20.9799
G01 X0.0090 Y20.9995
G01 X0.9250 Y20.9791
G01 X1.8392 Y20.9188
G01 X2.7499 Y20.8187
G01 X3.6554 Y20.6789
G01 X4.5539 Y20.4998
G01 X5.4438 Y20.2816
G01 X6.3232 Y20.0249
G01 X7.1907 Y19.7300
G01 X8.0445 Y19.3976
G01 X8.8829 Y19.0282
G01 X9.7045 Y18.6226
G01 X10.5075 Y18.1816
G01 X11.2906 Y17.7060
G01 X12.0522 Y17.1966
G01 X12.7908 Y16.6545
G01 X13.5051 Y16.0808
G01 X14.1937 Y15.4764
G01 X14.8552 Y14.8425
G01 X15.4885 Y14.1804
G01 X16.0923 Y13.4913
G01 X16.6655 Y12.7765
G01 X17.2069 Y12.0374
G01 X17.7156 Y11.2754
G01 X18.1906 Y10.4920
G01 X18.6309 Y9.6885
G01 X19.0358 Y8.8666
G01 X19.4044 Y8.0279
G01 X19.7361 Y7.1738
G01 X20.0303 Y6.3061
G01 X20.2863 Y5.4264
G01 X20.5037 Y4.5363
G01 X20.6820 Y3.6377
G01 X20.8210 Y2.7321
G01 X20.9204 Y1.8213
G01 X20.9799 Y0.9070
G01 X20.9995 Y-0.0090
G01 X20.9791 Y-0.9250
G01 X20.9188 Y-1.8392
G01 X20.8187 Y-2.7499
G01 X20.6789 Y-3.6554
G01 X20.4998 Y-4.5539
G01 X20.2816 Y-5.4438
G01 X20.0249 Y-6.3232
G01 X19.7300 Y-7.1907
G01 X19.3976 Y-8.0445
G01 X19.0282 Y-8.8829
G01 X18.6226 Y-9.7045
G01 X18.1816 Y-10.5075
G01 X17.7060 Y-11.2906
G01 X17.1966 Y-12.0522
G01 X16.6545 Y-12.7908
G01 X16.0808 Y-13.5051
G01 X15.4764 Y-14.1937
G01 X14.8425 Y-14.8552
G01 X14.1804 Y-15.4885
G01 X13.4913 Y-16.0923
G01 X12.7765 Y-16.6655
G01 X12.0374 Y-17.2069
G01 X11.2754 Y-17.7156
G01 X10.4920 Y-18.1906
G01 X9.6885 Y-18.6309
G01 X8.8666 Y-19.0358
G01 X8.0279 Y-19.4044
G01 X7.1738 Y-19.7361
G01 X6.3061 Y-20.0303
G01 X5.4264 Y-20.2863
G01 X4.5363 Y-20.5037
G01 X3.6377 Y-20.6820
G01 X2.7321 Y-20.8210
G01 X1.8213 Y-20.9204
G01 X0.9070 Y-20.9799
G01 X-0.0090 Y-20.9995
G01 X-0.9250 Y-20.9791
G01 X-1.8392 Y-20.9188
G01 X-2.7499 Y-20.8187
G01 X-3.6554 Y-20.6789
G01 X-4.5539 Y-20.4998
G01 X-5.4438 Y-20.2816
G01 X-6.3232 Y-20.0249
G01 X-7.1907 Y-19.7300
G01 X-8.0445 Y-19.3976
G01 X-8.8829 Y-19.0282
G01 X-9.7045 Y-18.6226
G01 X-10.5075 Y-18.1816
G01 X-11.2906 Y-17.7060
G01 X-12.0522 Y-17.1966
G01 X-12.7908 Y-16.6545
G01 X-13.5051 Y-16.0808
G01 X-14.1937 Y-15.4764
G01 X-14.8552 Y-14.8425
G01 Z-4.0000 F120
G01 X-15.4885 Y-14.1804 F360
G01 X-16.0923 Y-13.4913
G01 X-16.6655 Y-12.7765
G01 X-17.2069 Y-12.0374
G01 X-17.7156 Y-11.2754
G01 X-18.1906 Y-10.4920
G01 X-18.6309 Y-9.6885
G01 X-19.0358 Y-8.8666
G01 X-19.4044 Y-8.0279
G01 X-19.7361 Y-7.1738
G01 X-20.0303 Y-6.3061
G01 X-20.2863 Y-5.4264
G01 X-20.5037 Y-4.5363
G01 X-20.6820 Y-3.6377
G01 X-20.8210 Y-2.7321
G01 X-20.9204 Y-1.8213
G01 X-20.9799 Y-0.9070
G01 X-20.9995 Y0.0090
G01 X-20.9791 Y0.9250
G01 X-20.9188 Y1.8392
G01 X-20.8187 Y2.7499
G01 X-20.6789 Y3.6554
G01 X-20.4998 Y4.5539
G01 X-20.2816 Y5.4438
G01 X-20.0249 Y6.3232
G01 X-19.7300 Y7.1907
G01 X-19.3976 Y8.0445
G01 X-19.0282 Y8.8829
G01 X-18.6226 Y9.7045
G01 X-18.1816 Y10.5075
G01 X-17.7060 Y11.2906
G01 X-17.1966 Y12.0522
G01 X-16.6545 Y12.7908
G01 X-16.0808 Y13.5051
G01 X-15.4764 Y14.1937
G01 X-14.8425 Y14.8552
G01 X-14.1804 Y15.4885
G01 X-13.4913 Y16.0923
G01 X-12.7765 Y16.6655
G01 X-12.0374 Y17.2069
G01 X-11.2754 Y17.7156
G01 X-10.4920 Y18.1906
G01 X-9.6885 Y18.6309
G01 X-8.8666 Y19.0358
G01 X-8.0279 Y19.4044
G01 X-7.1738 Y19.7361
G01 X-6.3061 Y20.0303
G01 X-5.4264 Y20.2863
G01 X-4.5363 Y20.5037
G01 X-3.6377 Y20.6820
G01 X-2.7321 Y20.8210
G01 X-1.8213 Y20.9204
G01 X-0.9070 Y20.9799
G01 X0.0090 Y20.9995
G01 X0.9250 Y20.9791
G01 X1.8392 Y20.9188
G01 X2.7499 Y20.8187
G01 X3.6554 Y20.6789
G01 X4.5539 Y20.4998
G01 X5.4438 Y20.2816
G01 X6.3232 Y20.0249
G01 X7.1907 Y19.7300
G01 X8.0445 Y19.3976
G01 X8.8829 Y19.0282
G01 X9.7045 Y18.6226
G01 X10.5075 Y18.1816
G01 X11.2906 Y17.7060
G01 X12.0522 Y17.1966
G01 X12.7908 Y16.6545
G01 X13.5051 Y16.0808
G01 X14.1937 Y15.4764
G01 X14.8552 Y14.8425
G01 X15.4885 Y14.1804
G01 X16.0923 Y13.4913
G01 X16.6655 Y12.7765
G01 X17.2069 Y12.0374
G01 X17.7156 Y11.2754
G01 X18.1906 Y10.4920
G01 X18.6309 Y9.6885
G01 X19.0358 Y8.8666
G01 X19.4044 Y8.0279
G01 X19.7361 Y7.1738
G01 X20.0303 Y6.3061
G01 X20.2863 Y5.4264
G01 X20.5037 Y4.5363
G01 X20.6820 Y3.6377
G01 X20.8210 Y2.7321
G01 X20.9204 Y1.8213
G01 X20.9799 Y0.9070
G01 X20.9995 Y-0.0090
G01 X20.9791 Y-0.9250
G01 X20.9188 Y-1.8392
G01 X20.8187 Y-2.7499
G01 X20.6789 Y-3.6554
G01 X20.4998 Y-4.5539
G01 X20.2816 Y-5.4438
G01 X20.0249 Y-6.3232
G01 X19.7300 Y-7.1907
G01 X19.3976 Y-8.0445
G01 X19.0282 Y-8.8829
G01 X18.6226 Y-9.7045
G01 X18.1816 Y-10.5075
G01 X17.7060 Y-11.2906
G01 X17.1966 Y-12.0522
G01 X16.6545 Y-12.7908
G01 X16.0808 Y-13.5051
G01 X15.4764 Y-14.1937
G01 X14.8425 Y-14.8552
G01 X14.1804 Y-15.4885
G01 X13.4913 Y-16.0923
G01 X12.7765 Y-16.6655
G01 X12.0374 Y-17.2069
G01 X11.2754 Y-17.7156
G01 X10.4920 Y-18.1906
G01 X9.6885 Y-18.6309
G01 X8.8666 Y-19.0358
G01 X8.0279 Y-19.4044
G01 X7.1738 Y-19.7361
G01 X6.3061 Y-20.0303
G01 X5.4264 Y-20.2863
G01 X4.5363 Y-20.5037
G01 X3.6377 Y-20.6820
G01 X2.7321 Y-20.8210
G01 X1.8213 Y-20.9204
G01 X0.9070 Y-20.9799
G01 X-0.0090 Y-20.9995
G01 X-0.9250 Y-20.9791
G01 X-1.8392 Y-20.9188
G01 X-2.7499 Y-20.8187
G01 X-3.6554 Y-20.6789
G01 X-4.5539 Y-20.4998
G01 X-5.4438 Y-20.2816
G01 X-6.3232 Y-20.0249
G01 X-7.1907 Y-19.7300
G01 X-8.0445 Y-19.3976
G01 X-8.8829 Y-19.0282
G01 X-9.7045 Y-18.6226
G01 X-10.5075 Y-18.1816
G01 X-11.2906 Y-17.7060
G01 X-12.0522 Y-17.1966
G01 X-12.7908 Y-16.6545
G01 X-13.5051 Y-16.0808
G01 X-14.1937 Y-15.4764
G01 X-14.8552 Y-14.8425
G01 Z-5.0000 F120
G01 X-15.4885 Y-14.1804 F360
G01 X-16.0923 Y-13.4913
G01 X-16.6655 Y-12.7765
G01 X-17.2069 Y-12.0374
G01 X-17.7156 Y-11.2754
G01 X-18.1906 Y-10.4920
G01 X-18.6309 Y-9.6885
G01 X-19.0358 Y-8.8666
G01 X-19.4044 Y-8.0279
G01 X-19.7361 Y-7.1738
G01 X-20.0303 Y-6.3061
G01 X-20.2863 Y-5.4264
G01 X-20.5037 Y-4.5363
G01 X-20.6820 Y-3.6377
G01 X-20.8210 Y-2.7321
G01 X-20.9204 Y-1.8213
G01 X-20.9799 Y-0.9070
G01 X-20.9995 Y0.0090
G01 X-20.9791 Y0.9250
G01 X-20.9188 Y1.8392
G01 X-20.8187 Y2.7499
G01 X-20.6789 Y3.6554
G01 X-20.4998 Y4.5539
G01 X-20.2816 Y5.4438
G01 X-20.0249 Y6.3232
G01 X-19.7300 Y7.1907
G01 X-19.3976 Y8.0445
G01 X-19.0282 Y8.8829
G01 X-18.6226 Y9.7045
G01 X-18.1816 Y10.5075
G01 X-17.7060 Y11.2906
G01 X-17.1966 Y12.0522
G01 X-16.6545 Y12.7908
G01 X-16.0808 Y13.5051
G01 X-15.4764 Y14.1937
G01 X-14.8425 Y14.8552
G01 X-14.1804 Y15.4885
G01 X-13.4913 Y16.0923
G01 X-12.7765 Y16.6655
G01 X-12.0374 Y17.2069
G01 X-11.2754 Y17.7156
G01 X-10.4920 Y18.1906
G01 X-9.6885 Y18.6309
G01 X-8.8666 Y19.0358
G01 X-8.0279 Y19.4044
G01 X-7.1738 Y19.7361
G01 X-6.3061 Y20.0303
G01 X-5.4264 Y20.2863
G01 X-4.5363 Y20.5037
G01 X-3.6377 Y20.6820
G01 X-2.7321 Y20.8210
G01 X-1.8213 Y20.9204
G01 X-0.9070 Y20.9799
G01 X0.0090 Y20.9995
G01 X0.9250 Y20.9791
G01 X1.8392 Y20.9188
G01 X2.7499 Y20.8187
G01 X3.6554 Y20.6789
G01 X4.5539 Y20.4998
G01 X5.4438 Y20.2816
G01 X6.3232 Y20.0249
G01 X7.1907 Y19.7300
G01 X8.0445 Y19.3976
G01 X8.8829 Y19.0282
G01 X9.7045 Y18.6226
G01 X10.5075 Y18.1816
G01 X11.2906 Y17.7060
G01 X12.0522 Y17.1966
G01 X12.7908 Y16.6545
G01 X13.5051 Y16.0808
G01 X14.1937 Y15.4764
G01 X14.8552 Y14.8425
G01 X15.4885 Y14.1804
G01 X16.0923 Y13.4913
G01 X16.6655 Y12.7765
G01 X17.2069 Y12.0374
G01 X17.7156 Y11.2754
G01 X18.1906 Y10.4920
G01 X18.6309 Y9.6885
G01 X19.0358 Y8.8666
G01 X19.4044 Y8.0279
G01 X19.7361 Y7.1738
G01 X20.0303 Y6.3061
G01 X20.2863 Y5.4264
G01 X20.5037 Y4.5363
G01 X20.6820 Y3.6377
G01 X20.8210 Y2.7321
G01 X20.9204 Y1.8213
G01 X20.9799 Y0.9070
G01 X20.9995 Y-0.0090
G01 X20.9791 Y-0.9250
G01 X20.9188 Y-1.8392
G01 X20.8187 Y-2.7499
G01 X20.6789 Y-3.6554
G01 X20.4998 Y-4.5539
G01 X20.2816 Y-5.4438
G01 X20.0249 Y-6.3232
G01 X19.7300 Y-7.1907
G01 X19.3976 Y-8.0445
G01 X19.0282 Y-8.8829
G01 X18.6226 Y-9.7045
G01 X18.1816 Y-10.5075
G01 X17.7060 Y-11.2906
G01 X17.1966 Y-12.0522
G01 X16.6545 Y-12.7908
G01 X16.0808 Y-13.5051
G01 X15.4764 Y-14.1937
G01 X14.8425 Y-14.8552
G01 X14.1804 Y-15.4885
G01 X13.4913 Y-16.0923
G01 X12.7765 Y-16.6655
G01 X12.0374 Y-17.2069
G01 X11.2754 Y-17.7156
G01 X10.4920 Y-18.1906
G01 X9.6885 Y-18.6309
G01 X8.8666 Y-19.0358
G01 X8.0279 Y-19.4044
G01 X7.1738 Y-19.7361
G01 X6.3061 Y-20.0303
G01 X5.4264 Y-20.2863
G01 X4.5363 Y-20.5037
G01 X3.6377 Y-20.6820
G01 X2.7321 Y-20.8210
G01 X1.8213 Y-20.9204
G01 X0.9070 Y-20.9799
G01 X-0.0090 Y-20.9995
G01 X-0.9250 Y-20.9791
G01 X-1.8392 Y-20.9188
G01 X-2.7499 Y-20.8187
G01 X-3.6554 Y-20.6789
G01 X-4.5539 Y-20.4998
G01 X-5.4438 Y-20.2816
G01 X-6.3232 Y-20.0249
G01 X-7.1907 Y-19.7300
G01 X-8.0445 Y-19.3976
G01 X-8.8829 Y-19.0282
G01 X-9.7045 Y-18.6226
G01 X-10.5075 Y-18.1816
G01 X-11.2906 Y-17.7060
G01 X-12.0522 Y-17.1966
G01 X-12.7908 Y-16.6545
G01 X-13.5051 Y-16.0808
G01 X-14.1937 Y-15.4764
G01 X-14.8552 Y-14.8425
G01 Z-6.0000 F120
G01 X-15.4885 Y-14.1804 F360
G01 X-16.0923 Y-13.4913
G01 X-16.6655 Y-12.7765
G01 X-17.2069 Y-12.0374
G01 X-17.7156 Y-11.2754
G01 X-18.1906 Y-10.4920
G01 X-18.6309 Y-9.6885
G01 X-19.0358 Y-8.8666
G01 X-19.4044 Y-8.0279
G01 X-19.7361 Y-7.1738
G01 X-20.0303 Y-6.3061
G01 X-20.2863 Y-5.4264
G01 X-20.5037 Y-4.5363
G01 X-20.6820 Y-3.6377
G01 X-20.8210 Y-2.7321
G01 X-20.9204 Y-1.8213
G01 X-20.9799 Y-0.9070
G01 X-20.9995 Y0.0090
G01 X-20.9791 Y0.9250
G01 X-20.9188 Y1.8392
G01 X-20.8187 Y2.7499
G01 X-20.6789 Y3.6554
G01 X-20.4998 Y4.5539
G01 X-20.2816 Y5.4438
G01 X-20.0249 Y6.3232
G01 X-19.7300 Y7.1907
G01 X-19.3976 Y8.0445
G01 X-19.0282 Y8.8829
G01 X-18.6226 Y9.7045
G01 X-18.1816 Y10.5075
G01 X-17.7060 Y11.2906
G01 X-17.1966 Y12.0522
G01 X-16.6545 Y12.7908
G01 X-16.0808 Y13.5051
G01 X-15.4764 Y14.1937
G01 X-14.8425 Y14.8552
G01 X-14.1804 Y15.4885
G01 X-13.4913 Y16.0923
G01 X-12.7765 Y16.6655
G01 X-12.0374 Y17.2069
G01 X-11.2754 Y17.7156
G01 X-10.4920 Y18.1906
G01 X-9.6885 Y18.6309
G01 X-8.8666 Y19.0358
G01 X-8.0279 Y19.4044
G01 X-7.1738 Y19.7361
G01 X-6.3061 Y20.0303
G01 X-5.4264 Y20.2863
G01 X-4.5363 Y20.5037
G01 X-3.6377 Y20.6820
G01 X-2.7321 Y20.8210
G01 X-1.8213 Y20.9204
G01 X-0.9070 Y20.9799
G01 X0.0090 Y20.9995
G01 X0.9250 Y20.9791
G01 X1.8392 Y20.9188
G01 X2.7499 Y20.8187
G01 X3.6554 Y20.6789
G01 X4.5539 Y20.4998
G01 X5.4438 Y20.2816
G01 X6.3232 Y20.0249
G01 X7.1907 Y19.7300
G01 X8.0445 Y19.3976
G01 X8.8829 Y19.0282
G01 X9.7045 Y18.6226
G01 X10.5075 Y18.1816
G01 X11.2906 Y17.7060
G01 X12.0522 Y17.1966
G01 X12.7908 Y16.6545
G01 X13.5051 Y16.0808
G01 X14.1937 Y15.4764
G01 X14.8552 Y14.8425
G01 X15.4885 Y14.1804
G01 X16.0923 Y13.4913
G01 X16.6655 Y12.7765
G01 X17.2069 Y12.0374
G01 X17.7156 Y11.2754
G01 X18.1906 Y10.4920
G01 X18.6309 Y9.6885
G01 X19.0358 Y8.8666
G01 X19.4044 Y8.0279
G01 X19.7361 Y7.1738
G01 X20.0303 Y6.3061
G01 X20.2863 Y5.4264
G01 X20.5037 Y4.5363
G01 X20.6820 Y3.6377
G01 X20.8210 Y2.7321
G01 X20.9204 Y1.8213
G01 X20.9799 Y0.9070
G01 X20.9995 Y-0.0090
G01 X20.9791 Y-0.9250
G01 X20.9188 Y-1.8392
G01 X20.8187 Y-2.7499
G01 X20.6789 Y-3.6554
G01 X20.4998 Y-4.5539
G01 X20.2816 Y-5.4438
G01 X20.0249 Y-6.3232
G01 X19.7300 Y-7.1907
G01 X19.3976 Y-8.0445
G01 X19.0282 Y-8.8829
G01 X18.6226 Y-9.7045
G01 X18.1816 Y-10.5075
G01 X17.7060 Y-11.2906
G01 X17.1966 Y-12.0522
G01 X16.6545 Y-12.7908
G01 X16.0808 Y-13.5051
G01 X15.4764 Y-14.1937
G01 X14.8425 Y-14.8552
G01 X14.1804 Y-15.4885
G01 X13.4913 Y-16.0923
G01 X12.7765 Y-16.6655
G01 X12.0374 Y-17.2069
G01 X11.2754 Y-17.7156
G01 X10.4920 Y-18.1906
G01 X9.6885 Y-18.6309
G01 X8.8666 Y-19.0358
G01 X8.0279 Y-19.4044
G01 X7.1738 Y-19.7361
G01 X6.3061 Y-20.0303
G01 X5.4264 Y-20.2863
G01 X4.5363 Y-20.5037
G01 X3.6377 Y-20.6820
G01 X2.7321 Y-20.8210
G01 X1.8213 Y-20.9204
G01 X0.9070 Y-20.9799
G01 X-0.0090 Y-20.9995
G01 X-0.9250 Y-20.9791
G01 X-1.8392 Y-20.9188
G01 X-2.7499 Y-20.8187
G01 X-3.6554 Y-20.6789
G01 X-4.5539 Y-20.4998
G01 X-5.4438 Y-20.2816
G01 X-6.3232 Y-20.0249
G01 X-7.1907 Y-19.7300
G01 X-8.0445 Y-19.3976
G01 X-8.8829 Y-19.0282
G01 X-9.7045 Y-18.6226
G01 X-10.5075 Y-18.1816
G01 X-11.2906 Y-17.7060
G01 X-12.0522 Y-17.1966
G01 X-12.7908 Y-16.6545
G01 X-13.5051 Y-16.0808
G01 X-14.1937 Y-15.4764
G01 X-14.8552 Y-14.8425
G01 Z-7.0000 F120
G01 X-15.4885 Y-14.1804 F360
G01 X-16.0923 Y-13.4913
G01 X-16.6655 Y-12.7765
G01 X-17.2069 Y-12.0374
G01 X-17.7156 Y-11.2754
G01 X-18.1906 Y-10.4920
G01 X-18.6309 Y-9.6885
G01 X-19.0358 Y-8.8666
G01 X-19.4044 Y-8.0279
G01 X-19.7361 Y-7.1738
G01 X-20.0303 Y-6.3061
G01 X-20.2863 Y-5.4264
G01 X-20.5037 Y-4.5363
G01 X-20.6820 Y-3.6377
G01 X-20.8210 Y-2.7321
G01 X-20.9204 Y-1.8213
G01 X-20.9799 Y-0.9070
G01 X-20.9995 Y0.0090
G01 X-20.9791 Y0.9250
G01 X-20.9188 Y1.8392
G01 X-20.8187 Y2.7499
G01 X-20.6789 Y3.6554
G01 X-20.4998 Y4.5539
G01 X-20.2816 Y5.4438
G01 X-20.0249 Y6.3232
G01 X-19.7300 Y7.1907
G01 X-19.3976 Y8.0445
G01 X-19.0282 Y8.8829
G01 X-18.6226 Y9.7045
G01 X-18.1816 Y10.5075
G01 X-17.7060 Y11.2906
G01 X-17.1966 Y12.0522
G01 X-16.6545 Y12.7908
G01 X-16.0808 Y13.5051
G01 X-15.4764 Y14.1937
G01 X-14.8425 Y14.8552
G01 X-14.1804 Y15.4885
G01 X-13.4913 Y16.0923
G01 X-12.7765 Y16.6655
G01 X-12.0374 Y17.2069
G01 X-11.2754 Y17.7156
G01 X-10.4920 Y18.1906
G01 X-9.6885 Y18.6309
G01 X-8.8666 Y19.0358
G01 X-8.0279 Y19.4044
G01 X-7.1738 Y19.7361
G01 X-6.3061 Y20.0303
G01 X-5.4264 Y20.2863
G01 X-4.5363 Y20.5037
G01 X-3.6377 Y20.6820
G01 X-2.7321 Y20.8210
G01 X-1.8213 Y20.9204
G01 X-0.9070 Y20.9799
G01 X0.0090 Y20.9995
G01 X0.9250 Y20.9791
G01 X1.8392 Y20.9188
G01 X2.7499 Y20.8187
G01 X3.6554 Y20.6789
G01 X4.5539 Y20.4998
G01 X5.4438 Y20.2816
G01 X6.3232 Y20.0249
G01 X7.1907 Y19.7300
G01 X8.0445 Y19.3976
G01 X8.8829 Y19.0282
G01 X9.7045 Y18.6226
G01 X10.5075 Y18.1816
G01 X11.2906 Y17.7060
G01 X12.0522 Y17.1966
G01 X12.7908 Y16.6545
G01 X13.5051 Y16.0808
G01 X14.1937 Y15.4764
G01 X14.8552 Y14.8425
G01 X15.4885 Y14.1804
G01 X16.0923 Y13.4913
G01 X16.6655 Y12.7765
G01 X17.2069 Y12.0374
G01 X17.7156 Y11.2754
G01 X18.1906 Y10.4920
G01 X18.6309 Y9.6885
G01 X19.0358 Y8.8666
G01 X19.4044 Y8.0279
G01 X19.7361 Y7.1738
G01 X20.0303 Y6.3061
G01 X20.2863 Y5.4264
G01 X20.5037 Y4.5363
G01 X20.6820 Y3.6377
G01 X20.8210 Y2.7321
G01 X20.9204 Y1.8213
G01 X20.9799 Y0.9070
G01 X20.9995 Y-0.0090
G01 X20.9791 Y-0.9250
G01 X20.9188 Y-1.8392
G01 X20.8187 Y-2.7499
G01 X20.6789 Y-3.6554
G01 X20.4998 Y-4.5539
G01 X20.2816 Y-5.4438
G01 X20.0249 Y-6.3232
G01 X19.7300 Y-7.1907
G01 X19.3976 Y-8.0445
G01 X19.0282 Y-8.8829
G01 X18.6226 Y-9.7045
G01 X18.1816 Y-10.5075
G01 X17.7060 Y-11.2906
G01 X17.1966 Y-12.0522
G01 X16.6545 Y-12.7908
G01 X16.0808 Y-13.5051
G01 X15.4764 Y-14.1937
G01 X14.8425 Y-14.8552
G01 X14.1804 Y-15.4885
G01 X13.4913 Y-16.0923
G01 X12.7765 Y-16.6655
G01 X12.0374 Y-17.2069
G01 X11.2754 Y-17.7156
G01 X10.4920 Y-18.1906
G01 X9.6885 Y-18.6309
G01 X8.8666 Y-19.0358
G01 X8.0279 Y-19.4044
G01 X7.1738 Y-19.7361
G01 X6.3061 Y-20.0303
G01 X5.4264 Y-20.2863
G01 X4.5363 Y-20.5037
G01 X3.6377 Y-20.6820
G01 X2.7321 Y-20.8210
G01 X1.8213 Y-20.9204
G01 X0.9070 Y-20.9799
G01 X-0.0090 Y-20.9995
G01 X-0.9250 Y-20.9791
G01 X-1.8392 Y-20.9188
G01 X-2.7499 Y-20.8187
G01 X-3.6554 Y-20.6789
G01 X-4.5539 Y-20.4998
G01 X-5.4438 Y-20.2816
G01 X-6.3232 Y-20.0249
G01 X-7.1907 Y-19.7300
G01 X-8.0445 Y-19.3976
G01 X-8.8829 Y-19.0282
G01 X-9.7045 Y-18.6226
G01 X-10.5075 Y-18.1816
G01 X-11.2906 Y-17.7060
G01 X-12.0522 Y-17.1966
G01 X-12.7908 Y-16.6545
G01 X-13.5051 Y-16.0808
G01 X-14.1937 Y-15.4764
G01 X-14.8552 Y-14.8425
G01 Z-8.0000 F120
G01 X-15.4885 Y-14.1804 F360
G01 X-16.0923 Y-13.4913
G01 X-16.6655 Y-12.7765
G01 X-17.2069 Y-12.0374
G01 X-17.7156 Y-11.2754
G01 X-18.1906 Y-10.4920
G01 X-18.6309 Y-9.6885
G01 X-19.0358 Y-8.8666
G01 X-19.4044 Y-8.0279
G01 X-19.7361 Y-7.1738
G01 X-20.0303 Y-6.3061
G01 X-20.2863 Y-5.4264
G01 X-20.5037 Y-4.5363
G01 X-20.6820 Y-3.6377
G01 X-20.8210 Y-2.7321
G01 X-20.9204 Y-1.8213
G01 X-20.9799 Y-0.9070
G01 X-20.9995 Y0.0090
G01 X-20.9791 Y0.9250
G01 X-20.9188 Y1.8392
G01 X-20.8187 Y2.7499
G01 X-20.6789 Y3.6554
G01 X-20.4998 Y4.5539
G01 X-20.2816 Y5.4438
G01 X-20.0249 Y6.3232
G01 X-19.7300 Y7.1907
G01 X-19.3976 Y8.0445
G01 X-19.0282 Y8.8829
G01 X-18.6226 Y9.7045
G01 X-18.1816 Y10.5075
G01 X-17.7060 Y11.2906
G01 X-17.1966 Y12.0522
G01 X-16.6545 Y12.7908
G01 X-16.0808 Y13.5051
G01 X-15.4764 Y14.1937
G01 X-14.8425 Y14.8552
G01 X-14.1804 Y15.4885
G01 X-13.4913 Y16.0923
G01 X-12.7765 Y16.6655
G01 X-12.0374 Y17.2069
G01 X-11.2754 Y17.7156
G01 X-10.4920 Y18.1906
G01 X-9.6885 Y18.6309
G01 X-8.8666 Y19.0358
G01 X-8.0279 Y19.4044
G01 X-7.1738 Y19.7361
G01 X-6.3061 Y20.0303
G01 X-5.4264 Y20.2863
G01 X-4.5363 Y20.5037
G01 X-3.6377 Y20.6820
G01 X-2.7321 Y20.8210
G01 X-1.8213 Y20.9204
G01 X-0.9070 Y20.9799
G01 X0.0090 Y20.9995
G01 X0.9250 Y20.9791
G01 X1.8392 Y20.9188
G01 X2.7499 Y20.8187
G01 X3.6554 Y20.6789
G01 X4.5539 Y20.4998
G01 X5.4438 Y20.2816
G01 X6.3232 Y20.0249
G01 X7.1907 Y19.7300
G01 X8.0445 Y19.3976
G01 X8.8829 Y19.0282
G01 X9.7045 Y18.6226
G01 X10.5075 Y18.1816
G01 X11.2906 Y17.7060
G01 X12.0522 Y17.1966
G01 X12.7908 Y16.6545
G01 X13.5051 Y16.0808
G01 X14.1937 Y15.4764
G01 X14.8552 Y14.8425
G01 X15.4885 Y14.1804
G01 X16.0923 Y13.4913
G01 X16.6655 Y12.7765
G01 X17.2069 Y12.0374
G01 X17.7156 Y11.2754
G01 X18.1906 Y10.4920
G01 X18.6309 Y9.6885
G01 X19.0358 Y8.8666
G01 X19.4044 Y8.0279
G01 X19.7361 Y7.1738
G01 X20.0303 Y6.3061
G01 X20.2863 Y5.4264
G01 X20.5037 Y4.5363
G01 X20.6820 Y3.6377
G01 X20.8210 Y2.7321
G01 X20.9204 Y1.8213
G01 X20.9799 Y0.9070
G01 X20.9995 Y-0.0090
G01 X20.9791 Y-0.9250
G01 X20.9188 Y-1.8392
G01 X20.8187 Y-2.7499
G01 X20.6789 Y-3.6554
G01 X20.4998 Y-4.5539
G01 X20.2816 Y-5.4438
G01 X20.0249 Y-6.3232
G01 X19.7300 Y-7.1907
G01 X19.3976 Y-8.0445
G01 X19.0282 Y-8.8829
G01 X18.6226 Y-9.7045
G01 X18.1816 Y-10.5075
G01 X17.7060 Y-11.2906
G01 X17.1966 Y-12.0522
G01 X16.6545 Y-12.7908
G01 X16.0808 Y-13.5051
G01 X15.4764 Y-14.1937
G01 X14.8425 Y-14.8552
G01 X14.1804 Y-15.4885
G01 X13.4913 Y-16.0923
G01 X12.7765 Y-16.6655
G01 X12.0374 Y-17.2069
G01 X11.2754 Y-17.7156
G01 X10.4920 Y-18.1906
G01 X9.6885 Y-18.6309
G01 X8.8666 Y-19.0358
G01 X8.0279 Y-19.4044
G01 X7.1738 Y-19.7361
G01 X6.3061 Y-20.0303
G01 X5.4264 Y-20.2863
G01 X4.5363 Y-20.5037
G01 X3.6377 Y-20.6820
G01 X2.7321 Y-20.8210
G01 X1.8213 Y-20.9204
G01 X0.9070 Y-20.9799
G01 X-0.0090 Y-20.9995
G01 X-0.9250 Y-20.9791
G01 X-1.8392 Y-20.9188
G01 X-2.7499 Y-20.8187
G01 X-3.6554 Y-20.6789
G01 X-4.5539 Y-20.4998
G01 X-5.4438 Y-20.2816
G01 X-6.3232 Y-20.0249
G01 X-7.1907 Y-19.7300
G01 X-8.0445 Y-19.3976
G01 X-8.8829 Y-19.0282
G01 X-9.7045 Y-18.6226
G01 X-10.5075 Y-18.1816
G01 X-11.2906 Y-17.7060
G01 X-12.0522 Y-17.1966
G01 X-12.7908 Y-16.6545
G01 X-13.5051 Y-16.0808
G01 X-14.1937 Y-15.4764
G01 X-14.8552 Y-14.8425
G01 Z-9.0000 F120
G01 X-15.4885 Y-14.1804 F360
G01 X-16.0923 Y-13.4913
G01 X-16.6655 Y-12.7765
G01 X-17.2069 Y-12.0374
G01 X-17.7156 Y-11.2754
G01 X-18.1906 Y-10.4920
G01 X-18.6309 Y-9.6885
G01 X-19.0358 Y-8.8666
G01 X-19.4044 Y-8.0279
G01 X-19.7361 Y-7.1738
G01 X-20.0303 Y-6.3061
G01 X-20.2863 Y-5.4264
G01 X-20.5037 Y-4.5363
G01 X-20.6820 Y-3.6377
G01 X-20.8210 Y-2.7321
G01 X-20.9204 Y-1.8213
G01 X-20.9799 Y-0.9070
G01 X-20.9995 Y0.0090
G01 X-20.9791 Y0.9250
G01 X-20.9188 Y1.8392
G01 X-20.8187 Y2.7499
G01 X-20.6789 Y3.6554
G01 X-20.4998 Y4.5539
G01 X-20.2816 Y5.4438
G01 X-20.0249 Y6.3232
G01 X-19.7300 Y7.1907
G01 X-19.3976 Y8.0445
G01 X-19.0282 Y8.8829
G01 X-18.6226 Y9.7045
G01 X-18.1816 Y10.5075
G01 X-17.7060 Y11.2906
G01 X-17.1966 Y12.0522
G01 X-16.6545 Y12.7908
G01 X-16.0808 Y13.5051
G01 X-15.4764 Y14.1937
G01 X-14.8425 Y14.8552
G01 X-14.1804 Y15.4885
G01 X-13.4913 Y16.0923
G01 X-12.7765 Y16.6655
G01 X-12.0374 Y17.2069
G01 X-11.2754 Y17.7156
G01 X-10.4920 Y18.1906
G01 X-9.6885 Y18.6309
G01 X-8.8666 Y19.0358
G01 X-8.0279 Y19.4044
G01 X-7.1738 Y19.7361
G01 X-6.3061 Y20.0303
G01 X-5.4264 Y20.2863
G01 X-4.5363 Y20.5037
G01 X-3.6377 Y20.6820
G01 X-2.7321 Y20.8210
G01 X-1.8213 Y20.9204
G01 X-0.9070 Y20.9799
G01 X0.0090 Y20.9995
G01 X0.9250 Y20.9791
G01 X1.8392 Y20.9188
G01 X2.7499 Y20.8187
G01 X3.6554 Y20.6789
G01 X4.5539 Y20.4998
G01 X5.4438 Y20.2816
G01 X6.3232 Y20.0249
G01 X7.1907 Y19.7300
G01 X8.0445 Y19.3976
G01 X8.8829 Y19.0282
G01 X9.7045 Y18.6226
G01 X10.5075 Y18.1816
G01 X11.2906 Y17.7060
G01 X12.0522 Y17.1966
G01 X12.7908 Y16.6545
G01 X13.5051 Y16.0808
G01 X14.1937 Y15.4764
G01 X14.8552 Y14.8425
G01 X15.4885 Y14.1804
G01 X16.0923 Y13.4913
G01 X16.6655 Y12.7765
G01 X17.2069 Y12.0374
G01 X17.7156 Y11.2754
G01 X18.1906 Y10.4920
G01 X18.6309 Y9.6885
G01 X19.0358 Y8.8666
G01 X19.4044 Y8.0279
G01 X19.7361 Y7.1738
G01 X20.0303 Y6.3061
G01 X20.2863 Y5.4264
G01 X20.5037 Y4.5363
G01 X20.6820 Y3.6377
G01 X20.8210 Y2.7321
G01 X20.9204 Y1.8213
G01 X20.9799 Y0.9070
G01 X20.9995 Y-0.0090
G01 X20.9791 Y-0.9250
G01 X20.9188 Y-1.8392
G01 X20.8187 Y-2.7499
G01 X20.6789 Y-3.6554
G01 X20.4998 Y-4.5539
G01 X20.2816 Y-5.4438
G01 X20.0249 Y-6.3232
G01 X19.7300 Y-7.1907
G01 X19.3976 Y-8.0445
G01 X19.0282 Y-8.8829
G01 X18.6226 Y-9.7045
G01 X18.1816 Y-10.5075
G01 X17.7060 Y-11.2906
G01 X17.1966 Y-12.0522
G01 X16.6545 Y-12.7908
G01 X16.0808 Y-13.5051
G01 X15.4764 Y-14.1937
G01 X14.8425 Y-14.8552
G01 X14.1804 Y-15.4885
G01 X13.4913 Y-16.0923
G01 X12.7765 Y-16.6655
G01 X12.0374 Y-17.2069
G01 X11.2754 Y-17.7156
G01 X10.4920 Y-18.1906
G01 X9.6885 Y-18.6309
G01 X8.8666 Y-19.0358
G01 X8.0279 Y-19.4044
G01 X7.1738 Y-19.7361
G01 X6.3061 Y-20.0303
G01 X5.4264 Y-20.2863
G01 X4.5363 Y-20.5037
G01 X3.6377 Y-20.6820
G01 X2.7321 Y-20.8210
G01 X1.8213 Y-20.9204
G01 X0.9070 Y-20.9799
G01 X-0.0090 Y-20.9995
G01 X-0.9250 Y-20.9791
G01 X-1.8392 Y-20.9188
G01 X-2.7499 Y-20.8187
G01 X-3.6554 Y-20.6789
G01 X-4.5539 Y-20.4998
G01 X-5.4438 Y-20.2816
G01 X-6.3232 Y-20.0249
G01 X-7.1907 Y-19.7300
G01 X-8.0445 Y-19.3976
G01 X-8.8829 Y-19.0282
G01 X-9.7045 Y-18.6226
G01 X-10.5075 Y-18.1816
G01 X-11.2906 Y-17.7060
G01 X-12.0522 Y-17.1966
G01 X-12.7908 Y-16.6545
G01 X-13.5051 Y-16.0808
G01 X-14.1937 Y-15.4764
G01 X-14.8552 Y-14.8425
G01 Z-10.0000 F120
G01 X-15.4885 Y-14.1804 F360
G01 X-16.0923 Y-13.4913
G01 X-16.6655 Y-12.7765
G01 X-17.2069 Y-12.0374
G01 X-17.7156 Y-11.2754
G01 X-18.1906 Y-10.4920
G01 X-18.6309 Y-9.6885
G01 X-19.0358 Y-8.8666
G01 X-19.4044 Y-8.0279
G01 X-19.7361 Y-7.1738
G01 X-20.0303 Y-6.3061
G01 X-20.2863 Y-5.4264
G01 X-20.5037 Y-4.5363
G01 X-20.6820 Y-3.6377
G01 X-20.8210 Y-2.7321
G01 X-20.9204 Y-1.8213
G01 X-20.9799 Y-0.9070
G01 X-20.9995 Y0.0090
G01 X-20.9791 Y0.9250
G01 X-20.9188 Y1.8392
G01 X-20.8187 Y2.7499
G01 X-20.6789 Y3.6554
G01 X-20.4998 Y4.5539
G01 X-20.2816 Y5.4438
G01 X-20.0249 Y6.3232
G01 X-19.7300 Y7.1907
G01 X-19.3976 Y8.0445
G01 X-19.0282 Y8.8829
G01 X-18.6226 Y9.7045
G01 X-18.1816 Y10.5075
G01 X-17.7060 Y11.2906
G01 X-17.1966 Y12.0522
G01 X-16.6545 Y12.7908
G01 X-16.0808 Y13.5051
G01 X-15.4764 Y14.1937
G01 X-14.8425 Y14.8552
G01 X-14.1804 Y15.4885
G01 X-13.4913 Y16.0923
G01 X-12.7765 Y16.6655
G01 X-12.0374 Y17.2069
G01 X-11.2754 Y17.7156
G01 X-10.4920 Y18.1906
G01 X-9.6885 Y18.6309
G01 X-8.8666 Y19.0358
G01 X-8.0279 Y19.4044
G01 X-7.1738 Y19.7361
G01 X-6.3061 Y20.0303
G01 X-5.4264 Y20.2863
G01 X-4.5363 Y20.5037
G01 X-3.6377 Y20.6820
G01 X-2.7321 Y20.8210
G01 X-1.8213 Y20.9204
G01 X-0.9070 Y20.9799
G01 X0.0090 Y20.9995
G01 X0.9250 Y20.9791
G01 X1.8392 Y20.9188
G01 X2.7499 Y20.8187
G01 X3.6554 Y20.6789
G01 X4.5539 Y20.4998
G01 X5.4438 Y20.2816
G01 X6.3232 Y20.0249
G01 X7.1907 Y19.7300
G01 X8.0445 Y19.3976
G01 X8.8829 Y19.0282
G01 X9.7045 Y18.6226
G01 X10.5075 Y18.1816
G01 X11.2906 Y17.7060
G01 X12.0522 Y17.1966
G01 X12.7908 Y16.6545
G01 X13.5051 Y16.0808
G01 X14.1937 Y15.4764
G01 X14.8552 Y14.8425
G01 X15.4885 Y14.1804
G01 X16.0923 Y13.4913
G01 X16.6655 Y12.7765
G01 X17.2069 Y12.0374
G01 X17.7156 Y11.2754
G01 X18.1906 Y10.4920
G01 X18.6309 Y9.6885
G01 X19.0358 Y8.8666
G01 X19.4044 Y8.0279
G01 X19.7361 Y7.1738
G01 X20.0303 Y6.3061
G01 X20.2863 Y5.4264
G01 X20.5037 Y4.5363
G01 X20.6820 Y3.6377
G01 X20.8210 Y2.7321
G01 X20.9204 Y1.8213
G01 X20.9799 Y0.9070
G01 X20.9995 Y-0.0090
G01 X20.9791 Y-0.9250
G01 X20.9188 Y-1.8392
G01 X20.8187 Y-2.7499
G01 X20.6789 Y-3.6554
G01 X20.4998 Y-4.5539
G01 X20.2816 Y-5.4438
G01 X20.0249 Y-6.3232
G01 X19.7300 Y-7.1907
G01 X19.3976 Y-8.0445
G01 X19.0282 Y-8.8829
G01 X18.6226 Y-9.7045
G01 X18.1816 Y-10.5075
G01 X17.7060 Y-11.2906
G01 X17.1966 Y-12.0522
G01 X16.6545 Y-12.7908
G01 X16.0808 Y-13.5051
G01 X15.4764 Y-14.1937
G01 X14.8425 Y-14.8552
G01 X14.1804 Y-15.4885
G01 X13.4913 Y-16.0923
G01 X12.7765 Y-16.6655
G01 X12.0374 Y-17.2069
G01 X11.2754 Y-17.7156
G01 X10.4920 Y-18.1906
G01 X9.6885 Y-18.6309
G01 X8.8666 Y-19.0358
G01 X8.0279 Y-19.4044
G01 X7.1738 Y-19.7361
G01 X6.3061 Y-20.0303
G01 X5.4264 Y-20.2863
G01 X4.5363 Y-20.5037
G01 X3.6377 Y-20.6820
G01 X2.7321 Y-20.8210
G01 X1.8213 Y-20.9204
G01 X0.9070 Y-20.9799
G01 X-0.0090 Y-20.9995
G01 X-0.9250 Y-20.9791
G01 X-1.8392 Y-20.9188
G01 X-2.7499 Y-20.8187
G01 X-3.6554 Y-20.6789
G01 X-4.5539 Y-20.4998
G01 X-5.4438 Y-20.2816
G01 X-6.3232 Y-20.0249
G01 X-7.1907 Y-19.7300
G01 X-8.0445 Y-19.3976
G01 X-8.8829 Y-19.0282
G01 X-9.7045 Y-18.6226
G01 X-10.5075 Y-18.1816
G01 X-11.2906 Y-17.7060
G01 X-12.0522 Y-17.1966
G01 X-12.7908 Y-16.6545
G01 X-13.5051 Y-16.0808
G01 X-14.1937 Y-15.4764
G01 X-14.8552 Y-14.8425
G01 Z-11.0000 F120
G01 X-15.4885 Y-14.1804 F360
G01 X-16.0923 Y-13.4913
G01 X-16.6655 Y-12.7765
G01 X-17.2069 Y-12.0374
G01 X-17.7156 Y-11.2754
G01 X-18.1906 Y-10.4920
G01 X-18.6309 Y-9.6885
G01 X-19.0358 Y-8.8666
G01 X-19.4044 Y-8.0279
G01 X-19.7361 Y-7.1738
G01 X-20.0303 Y-6.3061
G01 X-20.2863 Y-5.4264
G01 X-20.5037 Y-4.5363
G01 X-20.6820 Y-3.6377
G01 X-20.8210 Y-2.7321
G01 X-20.9204 Y-1.8213
G01 X-20.9799 Y-0.9070
G01 X-20.9995 Y0.0090
G01 X-20.9791 Y0.9250
G01 X-20.9188 Y1.8392
G01 X-20.8187 Y2.7499
G01 X-20.6789 Y3.6554
G01 X-20.4998 Y4.5539
G01 X-20.2816 Y5.4438
G01 X-20.0249 Y6.3232
G01 X-19.7300 Y7.1907
G01 X-19.3976 Y8.0445
G01 X-19.0282 Y8.8829
G01 X-18.6226 Y9.7045
G01 X-18.1816 Y10.5075
G01 X-17.7060 Y11.2906
G01 X-17.1966 Y12.0522
G01 X-16.6545 Y12.7908
G01 X-16.0808 Y13.5051
G01 X-15.4764 Y14.1937
G01 X-14.8425 Y14.8552
G01 X-14.1804 Y15.4885
G01 X-13.4913 Y16.0923
G01 X-12.7765 Y16.6655
G01 X-12.0374 Y17.2069
G01 X-11.2754 Y17.7156
G01 X-10.4920 Y18.1906
G01 X-9.6885 Y18.6309
G01 X-8.8666 Y19.0358
G01 X-8.0279 Y19.4044
G01 X-7.1738 Y19.7361
G01 X-6.3061 Y20.0303
G01 X-5.4264 Y20.2863
G01 X-4.5363 Y20.5037
G01 X-3.6377 Y20.6820
G01 X-2.7321 Y20.8210
G01 X-1.8213 Y20.9204
G01 X-0.9070 Y20.9799
G01 X0.0090 Y20.9995
G01 X0.9250 Y20.9791
G01 X1.8392 Y20.9188
G01 X2.7499 Y20.8187
G01 X3.6554 Y20.6789
G01 X4.5539 Y20.4998
G01 X5.4438 Y20.2816
G01 X6.3232 Y20.0249
G01 X7.1907 Y19.7300
G01 X8.0445 Y19.3976
G01 X8.8829 Y19.0282
G01 X9.7045 Y18.6226
G01 X10.5075 Y18.1816
G01 X11.2906 Y17.7060
G01 X12.0522 Y17.1966
G01 X12.7908 Y16.6545
G01 X13.5051 Y16.0808
G01 X14.1937 Y15.4764
G01 X14.8552 Y14.8425
G01 X15.4885 Y14.1804
G01 X16.0923 Y13.4913
G01 X16.6655 Y12.7765
G01 X17.2069 Y12.0374
G01 X17.7156 Y11.2754
G01 X18.1906 Y10.4920
G01 X18.6309 Y9.6885
G01 X19.0358 Y8.8666
G01 X19.4044 Y8.0279
G01 X19.7361 Y7.1738
G01 X20.0303 Y6.3061
G01 X20.2863 Y5.4264
G01 X20.5037 Y4.5363
G01 X20.6820 Y3.6377
G01 X20.8210 Y2.7321
G01 X20.9204 Y1.8213
G01 X20.9799 Y0.9070
G01 X20.9995 Y-0.0090
G01 X20.9791 Y-0.9250
G01 X20.9188 Y-1.8392
G01 X20.8187 Y-2.7499
G01 X20.6789 Y-3.6554
G01 X20.4998 Y-4.5539
G01 X20.2816 Y-5.4438
G01 X20.0249 Y-6.3232
G01 X19.7300 Y-7.1907
G01 X19.3976 Y-8.0445
G01 X19.0282 Y-8.8829
G01 X18.6226 Y-9.7045
G01 X18.1816 Y-10.5075
G01 X17.7060 Y-11.2906
G01 X17.1966 Y-12.0522
G01 X16.6545 Y-12.7908
G01 X16.0808 Y-13.5051
G01 X15.4764 Y-14.1937
G01 X14.8425 Y-14.8552
G01 X14.1804 Y-15.4885
G01 X13.4913 Y-16.0923
G01 X12.7765 Y-16.6655
G01 X12.0374 Y-17.2069
G01 X11.2754 Y-17.7156
G01 X10.4920 Y-18.1906
G01 X9.6885 Y-18.6309
G01 X8.8666 Y-19.0358
G01 X8.0279 Y-19.4044
G01 X7.1738 Y-19.7361
G01 X6.3061 Y-20.0303
G01 X5.4264 Y-20.2863
G01 X4.5363 Y-20.5037
G01 X3.6377 Y-20.6820
G01 X2.7321 Y-20.8210
G01 X1.8213 Y-20.9204
G01 X0.9070 Y-20.9799
G01 X-0.0090 Y-20.9995
G01 X-0.9250 Y-20.9791
G01 X-1.8392 Y-20.9188
G01 X-2.7499 Y-20.8187
G01 X-3.6554 Y-20.6789
G01 X-4.5539 Y-20.4998
G01 X-5.4438 Y-20.2816
G01 X-6.3232 Y-20.0249
G01 X-7.1907 Y-19.7300
G01 X-8.0445 Y-19.3976
G01 X-8.8829 Y-19.0282
G01 X-9.7045 Y-18.6226
G01 X-10.5075 Y-18.1816
G01 X-11.2906 Y-17.7060
G01 X-12.0522 Y-17.1966
G01 X-12.7908 Y-16.6545
G01 X-13.5051 Y-16.0808
G01 X-14.1937 Y-15.4764
G01 X-14.8552 Y-14.8425
G01 Z-12.0000 F120
G01 X-15.4885 Y-14.1804 F360
G01 X-16.0923 Y-13.4913
G01 X-16.6655 Y-12.7765
G01 X-17.2069 Y-12.0374
G01 X-17.7156 Y-11.2754
G01 X-18.1906 Y-10.4920
G01 X-18.6309 Y-9.6885
G01 X-19.0358 Y-8.8666
G01 X-19.4044 Y-8.0279
G01 X-19.7361 Y-7.1738
G01 X-20.0303 Y-6.3061
G01 X-20.2863 Y-5.4264
G01 X-20.5037 Y-4.5363
G01 X-20.6820 Y-3.6377
G01 X-20.8210 Y-2.7321
G01 X-20.9204 Y-1.8213
G01 X-20.9799 Y-0.9070
G01 X-20.9995 Y0.0090
G01 X-20.9791 Y0.9250
G01 X-20.9188 Y1.8392
G01 X-20.8187 Y2.7499
G01 X-20.6789 Y3.6554
G01 X-20.4998 Y4.5539
G01 X-20.2816 Y5.4438
G01 X-20.0249 Y6.3232
G01 X-19.7300 Y7.1907
G01 X-19.3976 Y8.0445
G01 X-19.0282 Y8.8829
G01 X-18.6226 Y9.7045
G01 X-18.1816 Y10.5075
G01 X-17.7060 Y11.2906
G01 X-17.1966 Y12.0522
G01 X-16.6545 Y12.7908
G01 X-16.0808 Y13.5051
G01 X-15.4764 Y14.1937
G01 X-14.8425 Y14.8552
G01 X-14.1804 Y15.4885
G01 X-13.4913 Y16.0923
G01 X-12.7765 Y16.6655
G01 X-12.0374 Y17.2069
G01 X-11.2754 Y17.7156
G01 X-10.4920 Y18.1906
G01 X-9.6885 Y18.6309
G01 X-8.8666 Y19.0358
G01 X-8.0279 Y19.4044
G01 X-7.1738 Y19.7361
G01 X-6.3061 Y20.0303
G01 X-5.4264 Y20.2863
G01 X-4.5363 Y20.5037
G01 X-3.6377 Y20.6820
G01 X-2.7321 Y20.8210
G01 X-1.8213 Y20.9204
G01 X-0.9070 Y20.9799
G01 X0.0090 Y20.9995
G01 X0.9250 Y20.9791
G01 X1.8392 Y20.9188
G01 X2.7499 Y20.8187
G01 X3.6554 Y20.6789
G01 X4.5539 Y20.4998
G01 X5.4438 Y20.2816
G01 X6.3232 Y20.0249
G01 X7.1907 Y19.7300
G01 X8.0445 Y19.3976
G01 X8.8829 Y19.0282
G01 X9.7045 Y18.6226
G01 X10.5075 Y18.1816
G01 X11.2906 Y17.7060
G01 X12.0522 Y17.1966
G01 X12.7908 Y16.6545
G01 X13.5051 Y16.0808
G01 X14.1937 Y15.4764
G01 X14.8552 Y14.8425
G01 X15.4885 Y14.1804
G01 X16.0923 Y13.4913
G01 X16.6655 Y12.7765
G01 X17.2069 Y12.0374
G01 X17.7156 Y11.2754
G01 X18.1906 Y10.4920
G01 X18.6309 Y9.6885
G01 X19.0358 Y8.8666
G01 X19.4044 Y8.0279
G01 X19.7361 Y7.1738
G01 X20.0303 Y6.3061
G01 X20.2863 Y5.4264
G01 X20.5037 Y4.5363
G01 X20.6820 Y3.6377
G01 X20.8210 Y2.7321
G01 X20.9204 Y1.8213
G01 X20.9799 Y0.9070
G01 X20.9995 Y-0.0090
G01 X20.9791 Y-0.9250
G01 X20.9188 Y-1.8392
G01 X20.8187 Y-2.7499
G01 X20.6789 Y-3.6554
G01 X20.4998 Y-4.5539
G01 X20.2816 Y-5.4438
G01 X20.0249 Y-6.3232
G01 X19.7300 Y-7.1907
G01 X19.3976 Y-8.0445
G01 X19.0282 Y-8.8829
G01 X18.6226 Y-9.7045
G01 X18.1816 Y-10.5075
G01 X17.7060 Y-11.2906
G01 X17.1966 Y-12.0522
G01 X16.6545 Y-12.7908
G01 X16.0808 Y-13.5051
G01 X15.4764 Y-14.1937
G01 X14.8425 Y-14.8552
G01 X14.1804 Y-15.4885
G01 X13.4913 Y-16.0923
G01 X12.7765 Y-16.6655
G01 X12.0374 Y-17.2069
G01 X11.2754 Y-17.7156
G01 X10.4920 Y-18.1906
G01 X9.6885 Y-18.6309
G01 X8.8666 Y-19.0358
G01 X8.0279 Y-19.4044
G01 X7.1738 Y-19.7361
G01 X6.3061 Y-20.0303
G01 X5.4264 Y-20.2863
G01 X4.5363 Y-20.5037
G01 X3.6377 Y-20.6820
G01 X2.7321 Y-20.8210
G01 X1.8213 Y-20.9204
G01 X0.9070 Y-20.9799
G01 X-0.0090 Y-20.9995
G01 X-0.9250 Y-20.9791
G01 X-1.8392 Y-20.9188
G01 X-2.7499 Y-20.8187
G01 X-3.6554 Y-20.6789
G01 X-4.5539 Y-20.4998
G01 X-5.4438 Y-20.2816
G01 X-6.3232 Y-20.0249
G01 X-7.1907 Y-19.7300
G01 X-8.0445 Y-19.3976
G01 X-8.8829 Y-19.0282
G01 X-9.7045 Y-18.6226
G01 X-10.5075 Y-18.1816
G01 X-11.2906 Y-17.7060
G01 X-12.0522 Y-17.1966
G01 X-12.7908 Y-16.6545
G01 X-13.5051 Y-16.0808
G01 X-14.1937 Y-15.4764
G01 X-14.8552 Y-14.8425
G01 Z-13.0000 F120
G01 X-15.4885 Y-14.1804 F360
G01 X-16.0923 Y-13.4913
G01 X-16.6655 Y-12.7765
G01 X-17.2069 Y-12.0374
G01 X-17.7156 Y-11.2754
G01 X-18.1906 Y-10.4920
G01 X-18.6309 Y-9.6885
G01 X-19.0358 Y-8.8666
G01 X-19.4044 Y-8.0279
G01 X-19.7361 Y-7.1738
G01 X-20.0303 Y-6.3061
G01 X-20.2863 Y-5.4264
G01 X-20.5037 Y-4.5363
G01 X-20.6820 Y-3.6377
G01 X-20.8210 Y-2.7321
G01 X-20.9204 Y-1.8213
G01 X-20.9799 Y-0.9070
G01 X-20.9995 Y0.0090
G01 X-20.9791 Y0.9250
G01 X-20.9188 Y1.8392
G01 X-20.8187 Y2.7499
G01 X-20.6789 Y3.6554
G01 X-20.4998 Y4.5539
G01 X-20.2816 Y5.4438
G01 X-20.0249 Y6.3232
G01 X-19.7300 Y7.1907
G01 X-19.3976 Y8.0445
G01 X-19.0282 Y8.8829
G01 X-18.6226 Y9.7045
G01 X-18.1816 Y10.5075
G01 X-17.7060 Y11.2906
G01 X-17.1966 Y12.0522
G01 X-16.6545 Y12.7908
G01 X-16.0808 Y13.5051
G01 X-15.4764 Y14.1937
G01 X-14.8425 Y14.8552
G01 X-14.1804 Y15.4885
G01 X-13.4913 Y16.0923
G01 X-12.7765 Y16.6655
G01 X-12.0374 Y17.2069
G01 X-11.2754 Y17.7156
G01 X-10.4920 Y18.1906
G01 X-9.6885 Y18.6309
G01 X-8.8666 Y19.0358
G01 X-8.0279 Y19.4044
G01 X-7.1738 Y19.7361
G01 X-6.3061 Y20.0303
G01 X-5.4264 Y20.2863
G01 X-4.5363 Y20.5037
G01 X-3.6377 Y20.6820
G01 X-2.7321 Y20.8210
G01 X-1.8213 Y20.9204
G01 X-0.9070 Y20.9799
G01 X0.0090 Y20.9995
G01 X0.9250 Y20.9791
G01 X1.8392 Y20.9188
G01 X2.7499 Y20.8187
G01 X3.6554 Y20.6789
G01 X4.5539 Y20.4998
G01 X5.4438 Y20.2816
G01 X6.3232 Y20.0249
G01 X7.1907 Y19.7300
G01 X8.0445 Y19.3976
G01 X8.8829 Y19.0282
G01 X9.7045 Y18.6226
G01 X10.5075 Y18.1816
G01 X11.2906 Y17.7060
G01 X12.0522 Y17.1966
G01 X12.7908 Y16.6545
G01 X13.5051 Y16.0808
G01 X14.1937 Y15.4764
G01 X14.8552 Y14.8425
G01 X15.4885 Y14.1804
G01 X16.0923 Y13.4913
G01 X16.6655 Y12.7765
G01 X17.2069 Y12.0374
G01 X17.7156 Y11.2754
G01 X18.1906 Y10.4920
G01 X18.6309 Y9.6885
G01 X19.0358 Y8.8666
G01 X19.4044 Y8.0279
G01 X19.7361 Y7.1738
G01 X20.0303 Y6.3061
G01 X20.2863 Y5.4264
G01 X20.5037 Y4.5363
G01 X20.6820 Y3.6377
G01 X20.8210 Y2.7321
G01 X20.9204 Y1.8213
G01 X20.9799 Y0.9070
G01 X20.9995 Y-0.0090
G01 X20.9791 Y-0.9250
G01 X20.9188 Y-1.8392
G01 X20.8187 Y-2.7499
G01 X20.6789 Y-3.6554
G01 X20.4998 Y-4.5539
G01 X20.2816 Y-5.4438
G01 X20.0249 Y-6.3232
G01 X19.7300 Y-7.1907
G01 X19.3976 Y-8.0445
G01 X19.0282 Y-8.8829
G01 X18.6226 Y-9.7045
G01 X18.1816 Y-10.5075
G01 X17.7060 Y-11.2906
G01 X17.1966 Y-12.0522
G01 X16.6545 Y-12.7908
G01 X16.0808 Y-13.5051
G01 X15.4764 Y-14.1937
G01 X14.8425 Y-14.8552
G01 X14.1804 Y-15.4885
G01 X13.4913 Y-16.0923
G01 X12.7765 Y-16.6655
G01 X12.0374 Y-17.2069
G01 X11.2754 Y-17.7156
G01 X10.4920 Y-18.1906
G01 X9.6885 Y-18.6309
G01 X8.8666 Y-19.0358
G01 X8.0279 Y-19.4044
G01 X7.1738 Y-19.7361
G01 X6.3061 Y-20.0303
G01 X5.4264 Y-20.2863
G01 X4.5363 Y-20.5037
G01 X3.6377 Y-20.6820
G01 X2.7321 Y-20.8210
G01 X1.8213 Y-20.9204
G01 X0.9070 Y-20.9799
G01 X-0.0090 Y-20.9995
G01 X-0.9250 Y-20.9791
G01 X-1.8392 Y-20.9188
G01 X-2.7499 Y-20.8187
G01 X-3.6554 Y-20.6789
G01 X-4.5539 Y-20.4998
G01 X-5.4438 Y-20.2816
G01 X-6.3232 Y-20.0249
G01 X-7.1907 Y-19.7300
G01 X-8.0445 Y-19.3976
G01 X-8.8829 Y-19.0282
G01 X-9.7045 Y-18.6226
G01 X-10.5075 Y-18.1816
G01 X-11.2906 Y-17.7060
G01 X-12.0522 Y-17.1966
G01 X-12.7908 Y-16.6545
G01 X-13.5051 Y-16.0808
G01 X-14.1937 Y-15.4764
G01 X-14.8552 Y-14.8425
G00 Z1.0000 F500


;No. 2: Hole 12
G00 X-15.5623 Y-15.5496 Z1.0000 F3000
G00 Z0.5000 F500
G01 Z-1.0000 F120
G01 X-16.1608 Y-14.9267 F360
G01 X-16.7344 Y-14.2807
G01 X-17.2821 Y-13.6127
G01 X-17.8032 Y-12.9237
G01 X-18.2969 Y-12.2148
G01 X-18.7623 Y-11.4870
G01 X-19.1989 Y-10.7416
G01 X-19.6058 Y-9.9796
G01 X-19.9825 Y-9.2021
G01 X-20.3283 Y-8.4105
G01 X-20.6428 Y-7.6060
G01 X-20.9255 Y-6.7897
G01 X-21.1760 Y-5.9629
G01 X-21.3937 Y-5.1269
G01 X-21.5785 Y-4.2831
G01 X-21.7300 Y-3.4326
G01 X-21.8481 Y-2.5768
G01 X-21.9324 Y-1.7171
G01 X-21.9829 Y-0.8547
G01 X-21.9995 Y0.0090
G01 X-21.9822 Y0.8727
G01 X-21.9310 Y1.7350
G01 X-21.8459 Y2.5947
G01 X-21.7272 Y3.4504
G01 X-21.5750 Y4.3007
G01 X-21.3895 Y5.1444
G01 X-21.1711 Y5.9802
G01 X-20.9200 Y6.8068
G01 X-20.6366 Y7.6228
G01 X-20.3214 Y8.4271
G01 X-19.9749 Y9.2185
G01 X-19.5976 Y9.9956
G01 X-19.1901 Y10.7573
G01 X-18.7530 Y11.5024
G01 X-18.2869 Y12.2297
G01 X-17.7927 Y12.9383
G01 X-17.2710 Y13.6268
G01 X-16.7227 Y14.2944
G01 X-16.1486 Y14.9399
G01 X-15.5496 Y15.5623
G01 X-14.9267 Y16.1608
G01 X-14.2807 Y16.7344
G01 X-13.6127 Y17.2821
G01 X-12.9237 Y17.8032
G01 X-12.2148 Y18.2969
G01 X-11.4870 Y18.7623
G01 X-10.7416 Y19.1989
G01 X-9.9796 Y19.6058
G01 X-9.2021 Y19.9825
G01 X-8.4105 Y20.3283
G01 X-7.6060 Y20.6428
G01 X-6.7897 Y20.9255
G01 X-5.9629 Y21.1760
G01 X-5.1269 Y21.3937
G01 X-4.2831 Y21.5785
G01 X-3.4326 Y21.7300
G01 X-2.5768 Y21.8481
G01 X-1.7171 Y21.9324
G01 X-0.8547 Y21.9829
G01 X0.0090 Y21.9995
G01 X0.8727 Y21.9822
G01 X1.7350 Y21.9310
G01 X2.5947 Y21.8459
G01 X3.4504 Y21.7272
G01 X4.3007 Y21.5750
G01 X5.1444 Y21.3895
G01 X5.9802 Y21.1711
G01 X6.8068 Y20.9200
G01 X7.6228 Y20.6366
G01 X8.4271 Y20.3214
G01 X9.2185 Y19.9749
G01 X9.9956 Y19.5976
G01 X10.7573 Y19.1901
G01 X11.5024 Y18.7530
G01 X12.2297 Y18.2869
G01 X12.9383 Y17.7927
G01 X13.6268 Y17.2710
G01 X14.2944 Y16.7227
G01 X14.9399 Y16.1486
G01 X15.5623 Y15.5496
G01 X16.1608 Y14.9267
G01 X16.7344 Y14.2807
G01 X17.2821 Y13.6127
G01 X17.8032 Y12.9237
G01 X18.2969 Y12.2148
G01 X18.7623 Y11.4870
G01 X19.1989 Y10.7416
G01 X19.6058 Y9.9796
G01 X19.9825 Y9.2021
G01 X20.3283 Y8.4105
G01 X20.6428 Y7.6060
G01 X20.9255 Y6.7897
G01 X21.1760 Y5.9629
G01 X21.3937 Y5.1269
G01 X21.5785 Y4.2831
G01 X21.7300 Y3.4326
G01 X21.8481 Y2.5768
G01 X21.9324 Y1.7171
G01 X21.9829 Y0.8547
G01 X21.9995 Y-0.0090
G01 X21.9822 Y-0.8727
G01 X21.9310 Y-1.7350
G01 X21.8459 Y-2.5947
G01 X21.7272 Y-3.4504
G01 X21.5750 Y-4.3007
G01 X21.3895 Y-5.1444
G01 X21.1711 Y-5.9802
G01 X20.9200 Y-6.8068
G01 X20.6366 Y-7.6228
G01 X20.3214 Y-8.4271
G01 X19.9749 Y-9.2185
G01 X19.5976 Y-9.9956
G01 X19.1901 Y-10.7573
G01 X18.7530 Y-11.5024
G01 X18.2869 Y-12.2297
G01 X17.7927 Y-12.9383
G01 X17.2710 Y-13.6268
G01 X16.7227 Y-14.2944
G01 X16.1486 Y-14.9399
G01 X15.5496 Y-15.5623
G01 X14.9267 Y-16.1608
G01 X14.2807 Y-16.7344
G01 X13.6127 Y-17.2821
G01 X12.9237 Y-17.8032
G01 X12.2148 Y-18.2969
G01 X11.4870 Y-18.7623
G01 X10.7416 Y-19.1989
G01 X9.9796 Y-19.6058
G01 X9.2021 Y-19.9825
G01 X8.4105 Y-20.3283
G01 X7.6060 Y-20.6428
G01 X6.7897 Y-20.9255
G01 X5.9629 Y-21.1760
G01 X5.1269 Y-21.3937
G01 X4.2831 Y-21.5785
G01 X3.4326 Y-21.7300
G01 X2.5768 Y-21.8481
G01 X1.7171 Y-21.9324
G01 X0.8547 Y-21.9829
G01 X-0.0090 Y-21.9995
G01 X-0.8727 Y-21.9822
G01 X-1.7350 Y-21.9310
G01 X-2.5947 Y-21.8459
G01 X-3.4504 Y-21.7272
G01 X-4.3007 Y-21.5750
G01 X-5.1444 Y-21.3895
G01 X-5.9802 Y-21.1711
G01 X-6.8068 Y-20.9200
G01 X-7.6228 Y-20.6366
G01 X-8.4271 Y-20.3214
G01 X-9.2185 Y-19.9749
G01 X-9.9956 Y-19.5976
G01 X-10.7573 Y-19.1901
G01 X-11.5024 Y-18.7530
G01 X-12.2297 Y-18.2869
G01 X-12.9383 Y-17.7927
G01 X-13.6268 Y-17.2710
G01 X-14.2944 Y-16.7227
G01 X-14.9399 Y-16.1486
G01 X-15.5623 Y-15.5496
G01 Z-2.0000 F120
G01 X-16.1608 Y-14.9267 F360
G01 X-16.7344 Y-14.2807
G01 X-17.2821 Y-13.6127
G01 X-17.8032 Y-12.9237
G01 X-18.2969 Y-12.2148
G01 X-18.7623 Y-11.4870
G01 X-19.1989 Y-10.7416
G01 X-19.6058 Y-9.9796
G01 X-19.9825 Y-9.2021
G01 X-20.3283 Y-8.4105
G01 X-20.6428 Y-7.6060
G01 X-20.9255 Y-6.7897
G01 X-21.1760 Y-5.9629
G01 X-21.3937 Y-5.1269
G01 X-21.5785 Y-4.2831
G01 X-21.7300 Y-3.4326
G01 X-21.8481 Y-2.5768
G01 X-21.9324 Y-1.7171
G01 X-21.9829 Y-0.8547
G01 X-21.9995 Y0.0090
G01 X-21.9822 Y0.8727
G01 X-21.9310 Y1.7350
G01 X-21.8459 Y2.5947
G01 X-21.7272 Y3.4504
G01 X-21.5750 Y4.3007
G01 X-21.3895 Y5.1444
G01 X-21.1711 Y5.9802
G01 X-20.9200 Y6.8068
G01 X-20.6366 Y7.6228
G01 X-20.3214 Y8.4271
G01 X-19.9749 Y9.2185
G01 X-19.5976 Y9.9956
G01 X-19.1901 Y10.7573
G01 X-18.7530 Y11.5024
G01 X-18.2869 Y12.2297
G01 X-17.7927 Y12.9383
G01 X-17.2710 Y13.6268
G01 X-16.7227 Y14.2944
G01 X-16.1486 Y14.9399
G01 X-15.5496 Y15.5623
G01 X-14.9267 Y16.1608
G01 X-14.2807 Y16.7344
G01 X-13.6127 Y17.2821
G01 X-12.9237 Y17.8032
G01 X-12.2148 Y18.2969
G01 X-11.4870 Y18.7623
G01 X-10.7416 Y19.1989
G01 X-9.9796 Y19.6058
G01 X-9.2021 Y19.9825
G01 X-8.4105 Y20.3283
G01 X-7.6060 Y20.6428
G01 X-6.7897 Y20.9255
G01 X-5.9629 Y21.1760
G01 X-5.1269 Y21.3937
G01 X-4.2831 Y21.5785
G01 X-3.4326 Y21.7300
G01 X-2.5768 Y21.8481
G01 X-1.7171 Y21.9324
G01 X-0.8547 Y21.9829
G01 X0.0090 Y21.9995
G01 X0.8727 Y21.9822
G01 X1.7350 Y21.9310
G01 X2.5947 Y21.8459
G01 X3.4504 Y21.7272
G01 X4.3007 Y21.5750
G01 X5.1444 Y21.3895
G01 X5.9802 Y21.1711
G01 X6.8068 Y20.9200
G01 X7.6228 Y20.6366
G01 X8.4271 Y20.3214
G01 X9.2185 Y19.9749
G01 X9.9956 Y19.5976
G01 X10.7573 Y19.1901
G01 X11.5024 Y18.7530
G01 X12.2297 Y18.2869
G01 X12.9383 Y17.7927
G01 X13.6268 Y17.2710
G01 X14.2944 Y16.7227
G01 X14.9399 Y16.1486
G01 X15.5623 Y15.5496
G01 X16.1608 Y14.9267
G01 X16.7344 Y14.2807
G01 X17.2821 Y13.6127
G01 X17.8032 Y12.9237
G01 X18.2969 Y12.2148
G01 X18.7623 Y11.4870
G01 X19.1989 Y10.7416
G01 X19.6058 Y9.9796
G01 X19.9825 Y9.2021
G01 X20.3283 Y8.4105
G01 X20.6428 Y7.6060
G01 X20.9255 Y6.7897
G01 X21.1760 Y5.9629
G01 X21.3937 Y5.1269
G01 X21.5785 Y4.2831
G01 X21.7300 Y3.4326
G01 X21.8481 Y2.5768
G01 X21.9324 Y1.7171
G01 X21.9829 Y0.8547
G01 X21.9995 Y-0.0090
G01 X21.9822 Y-0.8727
G01 X21.9310 Y-1.7350
G01 X21.8459 Y-2.5947
G01 X21.7272 Y-3.4504
G01 X21.5750 Y-4.3007
G01 X21.3895 Y-5.1444
G01 X21.1711 Y-5.9802
G01 X20.9200 Y-6.8068
G01 X20.6366 Y-7.6228
G01 X20.3214 Y-8.4271
G01 X19.9749 Y-9.2185
G01 X19.5976 Y-9.9956
G01 X19.1901 Y-10.7573
G01 X18.7530 Y-11.5024
G01 X18.2869 Y-12.2297
G01 X17.7927 Y-12.9383
G01 X17.2710 Y-13.6268
G01 X16.7227 Y-14.2944
G01 X16.1486 Y-14.9399
G01 X15.5496 Y-15.5623
G01 X14.9267 Y-16.1608
G01 X14.2807 Y-16.7344
G01 X13.6127 Y-17.2821
G01 X12.9237 Y-17.8032
G01 X12.2148 Y-18.2969
G01 X11.4870 Y-18.7623
G01 X10.7416 Y-19.1989
G01 X9.9796 Y-19.6058
G01 X9.2021 Y-19.9825
G01 X8.4105 Y-20.3283
G01 X7.6060 Y-20.6428
G01 X6.7897 Y-20.9255
G01 X5.9629 Y-21.1760
G01 X5.1269 Y-21.3937
G01 X4.2831 Y-21.5785
G01 X3.4326 Y-21.7300
G01 X2.5768 Y-21.8481
G01 X1.7171 Y-21.9324
G01 X0.8547 Y-21.9829
G01 X-0.0090 Y-21.9995
G01 X-0.8727 Y-21.9822
G01 X-1.7350 Y-21.9310
G01 X-2.5947 Y-21.8459
G01 X-3.4504 Y-21.7272
G01 X-4.3007 Y-21.5750
G01 X-5.1444 Y-21.3895
G01 X-5.9802 Y-21.1711
G01 X-6.8068 Y-20.9200
G01 X-7.6228 Y-20.6366
G01 X-8.4271 Y-20.3214
G01 X-9.2185 Y-19.9749
G01 X-9.9956 Y-19.5976
G01 X-10.7573 Y-19.1901
G01 X-11.5024 Y-18.7530
G01 X-12.2297 Y-18.2869
G01 X-12.9383 Y-17.7927
G01 X-13.6268 Y-17.2710
G01 X-14.2944 Y-16.7227
G01 X-14.9399 Y-16.1486
G01 X-15.5623 Y-15.5496
G01 Z-3.0000 F120
G01 X-16.1608 Y-14.9267 F360
G01 X-16.7344 Y-14.2807
G01 X-17.2821 Y-13.6127
G01 X-17.8032 Y-12.9237
G01 X-18.2969 Y-12.2148
G01 X-18.7623 Y-11.4870
G01 X-19.1989 Y-10.7416
G01 X-19.6058 Y-9.9796
G01 X-19.9825 Y-9.2021
G01 X-20.3283 Y-8.4105
G01 X-20.6428 Y-7.6060
G01 X-20.9255 Y-6.7897
G01 X-21.1760 Y-5.9629
G01 X-21.3937 Y-5.1269
G01 X-21.5785 Y-4.2831
G01 X-21.7300 Y-3.4326
G01 X-21.8481 Y-2.5768
G01 X-21.9324 Y-1.7171
G01 X-21.9829 Y-0.8547
G01 X-21.9995 Y0.0090
G01 X-21.9822 Y0.8727
G01 X-21.9310 Y1.7350
G01 X-21.8459 Y2.5947
G01 X-21.7272 Y3.4504
G01 X-21.5750 Y4.3007
G01 X-21.3895 Y5.1444
G01 X-21.1711 Y5.9802
G01 X-20.9200 Y6.8068
G01 X-20.6366 Y7.6228
G01 X-20.3214 Y8.4271
G01 X-19.9749 Y9.2185
G01 X-19.5976 Y9.9956
G01 X-19.1901 Y10.7573
G01 X-18.7530 Y11.5024
G01 X-18.2869 Y12.2297
G01 X-17.7927 Y12.9383
G01 X-17.2710 Y13.6268
G01 X-16.7227 Y14.2944
G01 X-16.1486 Y14.9399
G01 X-15.5496 Y15.5623
G01 X-14.9267 Y16.1608
G01 X-14.2807 Y16.7344
G01 X-13.6127 Y17.2821
G01 X-12.9237 Y17.8032
G01 X-12.2148 Y18.2969
G01 X-11.4870 Y18.7623
G01 X-10.7416 Y19.1989
G01 X-9.9796 Y19.6058
G01 X-9.2021 Y19.9825
G01 X-8.4105 Y20.3283
G01 X-7.6060 Y20.6428
G01 X-6.7897 Y20.9255
G01 X-5.9629 Y21.1760
G01 X-5.1269 Y21.3937
G01 X-4.2831 Y21.5785
G01 X-3.4326 Y21.7300
G01 X-2.5768 Y21.8481
G01 X-1.7171 Y21.9324
G01 X-0.8547 Y21.9829
G01 X0.0090 Y21.9995
G01 X0.8727 Y21.9822
G01 X1.7350 Y21.9310
G01 X2.5947 Y21.8459
G01 X3.4504 Y21.7272
G01 X4.3007 Y21.5750
G01 X5.1444 Y21.3895
G01 X5.9802 Y21.1711
G01 X6.8068 Y20.9200
G01 X7.6228 Y20.6366
G01 X8.4271 Y20.3214
G01 X9.2185 Y19.9749
G01 X9.9956 Y19.5976
G01 X10.7573 Y19.1901
G01 X11.5024 Y18.7530
G01 X12.2297 Y18.2869
G01 X12.9383 Y17.7927
G01 X13.6268 Y17.2710
G01 X14.2944 Y16.7227
G01 X14.9399 Y16.1486
G01 X15.5623 Y15.5496
G01 X16.1608 Y14.9267
G01 X16.7344 Y14.2807
G01 X17.2821 Y13.6127
G01 X17.8032 Y12.9237
G01 X18.2969 Y12.2148
G01 X18.7623 Y11.4870
G01 X19.1989 Y10.7416
G01 X19.6058 Y9.9796
G01 X19.9825 Y9.2021
G01 X20.3283 Y8.4105
G01 X20.6428 Y7.6060
G01 X20.9255 Y6.7897
G01 X21.1760 Y5.9629
G01 X21.3937 Y5.1269
G01 X21.5785 Y4.2831
G01 X21.7300 Y3.4326
G01 X21.8481 Y2.5768
G01 X21.9324 Y1.7171
G01 X21.9829 Y0.8547
G01 X21.9995 Y-0.0090
G01 X21.9822 Y-0.8727
G01 X21.9310 Y-1.7350
G01 X21.8459 Y-2.5947
G01 X21.7272 Y-3.4504
G01 X21.5750 Y-4.3007
G01 X21.3895 Y-5.1444
G01 X21.1711 Y-5.9802
G01 X20.9200 Y-6.8068
G01 X20.6366 Y-7.6228
G01 X20.3214 Y-8.4271
G01 X19.9749 Y-9.2185
G01 X19.5976 Y-9.9956
G01 X19.1901 Y-10.7573
G01 X18.7530 Y-11.5024
G01 X18.2869 Y-12.2297
G01 X17.7927 Y-12.9383
G01 X17.2710 Y-13.6268
G01 X16.7227 Y-14.2944
G01 X16.1486 Y-14.9399
G01 X15.5496 Y-15.5623
G01 X14.9267 Y-16.1608
G01 X14.2807 Y-16.7344
G01 X13.6127 Y-17.2821
G01 X12.9237 Y-17.8032
G01 X12.2148 Y-18.2969
G01 X11.4870 Y-18.7623
G01 X10.7416 Y-19.1989
G01 X9.9796 Y-19.6058
G01 X9.2021 Y-19.9825
G01 X8.4105 Y-20.3283
G01 X7.6060 Y-20.6428
G01 X6.7897 Y-20.9255
G01 X5.9629 Y-21.1760
G01 X5.1269 Y-21.3937
G01 X4.2831 Y-21.5785
G01 X3.4326 Y-21.7300
G01 X2.5768 Y-21.8481
G01 X1.7171 Y-21.9324
G01 X0.8547 Y-21.9829
G01 X-0.0090 Y-21.9995
G01 X-0.8727 Y-21.9822
G01 X-1.7350 Y-21.9310
G01 X-2.5947 Y-21.8459
G01 X-3.4504 Y-21.7272
G01 X-4.3007 Y-21.5750
G01 X-5.1444 Y-21.3895
G01 X-5.9802 Y-21.1711
G01 X-6.8068 Y-20.9200
G01 X-7.6228 Y-20.6366
G01 X-8.4271 Y-20.3214
G01 X-9.2185 Y-19.9749
G01 X-9.9956 Y-19.5976
G01 X-10.7573 Y-19.1901
G01 X-11.5024 Y-18.7530
G01 X-12.2297 Y-18.2869
G01 X-12.9383 Y-17.7927
G01 X-13.6268 Y-17.2710
G01 X-14.2944 Y-16.7227
G01 X-14.9399 Y-16.1486
G01 X-15.5623 Y-15.5496
G01 Z-4.0000 F120
G01 X-16.1608 Y-14.9267 F360
G01 X-16.7344 Y-14.2807
G01 X-17.2821 Y-13.6127
G01 X-17.8032 Y-12.9237
G01 X-18.2969 Y-12.2148
G01 X-18.7623 Y-11.4870
G01 X-19.1989 Y-10.7416
G01 X-19.6058 Y-9.9796
G01 X-19.9825 Y-9.2021
G01 X-20.3283 Y-8.4105
G01 X-20.6428 Y-7.6060
G01 X-20.9255 Y-6.7897
G01 X-21.1760 Y-5.9629
G01 X-21.3937 Y-5.1269
G01 X-21.5785 Y-4.2831
G01 X-21.7300 Y-3.4326
G01 X-21.8481 Y-2.5768
G01 X-21.9324 Y-1.7171
G01 X-21.9829 Y-0.8547
G01 X-21.9995 Y0.0090
G01 X-21.9822 Y0.8727
G01 X-21.9310 Y1.7350
G01 X-21.8459 Y2.5947
G01 X-21.7272 Y3.4504
G01 X-21.5750 Y4.3007
G01 X-21.3895 Y5.1444
G01 X-21.1711 Y5.9802
G01 X-20.9200 Y6.8068
G01 X-20.6366 Y7.6228
G01 X-20.3214 Y8.4271
G01 X-19.9749 Y9.2185
G01 X-19.5976 Y9.9956
G01 X-19.1901 Y10.7573
G01 X-18.7530 Y11.5024
G01 X-18.2869 Y12.2297
G01 X-17.7927 Y12.9383
G01 X-17.2710 Y13.6268
G01 X-16.7227 Y14.2944
G01 X-16.1486 Y14.9399
G01 X-15.5496 Y15.5623
G01 X-14.9267 Y16.1608
G01 X-14.2807 Y16.7344
G01 X-13.6127 Y17.2821
G01 X-12.9237 Y17.8032
G01 X-12.2148 Y18.2969
G01 X-11.4870 Y18.7623
G01 X-10.7416 Y19.1989
G01 X-9.9796 Y19.6058
G01 X-9.2021 Y19.9825
G01 X-8.4105 Y20.3283
G01 X-7.6060 Y20.6428
G01 X-6.7897 Y20.9255
G01 X-5.9629 Y21.1760
G01 X-5.1269 Y21.3937
G01 X-4.2831 Y21.5785
G01 X-3.4326 Y21.7300
G01 X-2.5768 Y21.8481
G01 X-1.7171 Y21.9324
G01 X-0.8547 Y21.9829
G01 X0.0090 Y21.9995
G01 X0.8727 Y21.9822
G01 X1.7350 Y21.9310
G01 X2.5947 Y21.8459
G01 X3.4504 Y21.7272
G01 X4.3007 Y21.5750
G01 X5.1444 Y21.3895
G01 X5.9802 Y21.1711
G01 X6.8068 Y20.9200
G01 X7.6228 Y20.6366
G01 X8.4271 Y20.3214
G01 X9.2185 Y19.9749
G01 X9.9956 Y19.5976
G01 X10.7573 Y19.1901
G01 X11.5024 Y18.7530
G01 X12.2297 Y18.2869
G01 X12.9383 Y17.7927
G01 X13.6268 Y17.2710
G01 X14.2944 Y16.7227
G01 X14.9399 Y16.1486
G01 X15.5623 Y15.5496
G01 X16.1608 Y14.9267
G01 X16.7344 Y14.2807
G01 X17.2821 Y13.6127
G01 X17.8032 Y12.9237
G01 X18.2969 Y12.2148
G01 X18.7623 Y11.4870
G01 X19.1989 Y10.7416
G01 X19.6058 Y9.9796
G01 X19.9825 Y9.2021
G01 X20.3283 Y8.4105
G01 X20.6428 Y7.6060
G01 X20.9255 Y6.7897
G01 X21.1760 Y5.9629
G01 X21.3937 Y5.1269
G01 X21.5785 Y4.2831
G01 X21.7300 Y3.4326
G01 X21.8481 Y2.5768
G01 X21.9324 Y1.7171
G01 X21.9829 Y0.8547
G01 X21.9995 Y-0.0090
G01 X21.9822 Y-0.8727
G01 X21.9310 Y-1.7350
G01 X21.8459 Y-2.5947
G01 X21.7272 Y-3.4504
G01 X21.5750 Y-4.3007
G01 X21.3895 Y-5.1444
G01 X21.1711 Y-5.9802
G01 X20.9200 Y-6.8068
G01 X20.6366 Y-7.6228
G01 X20.3214 Y-8.4271
G01 X19.9749 Y-9.2185
G01 X19.5976 Y-9.9956
G01 X19.1901 Y-10.7573
G01 X18.7530 Y-11.5024
G01 X18.2869 Y-12.2297
G01 X17.7927 Y-12.9383
G01 X17.2710 Y-13.6268
G01 X16.7227 Y-14.2944
G01 X16.1486 Y-14.9399
G01 X15.5496 Y-15.5623
G01 X14.9267 Y-16.1608
G01 X14.2807 Y-16.7344
G01 X13.6127 Y-17.2821
G01 X12.9237 Y-17.8032
G01 X12.2148 Y-18.2969
G01 X11.4870 Y-18.7623
G01 X10.7416 Y-19.1989
G01 X9.9796 Y-19.6058
G01 X9.2021 Y-19.9825
G01 X8.4105 Y-20.3283
G01 X7.6060 Y-20.6428
G01 X6.7897 Y-20.9255
G01 X5.9629 Y-21.1760
G01 X5.1269 Y-21.3937
G01 X4.2831 Y-21.5785
G01 X3.4326 Y-21.7300
G01 X2.5768 Y-21.8481
G01 X1.7171 Y-21.9324
G01 X0.8547 Y-21.9829
G01 X-0.0090 Y-21.9995
G01 X-0.8727 Y-21.9822
G01 X-1.7350 Y-21.9310
G01 X-2.5947 Y-21.8459
G01 X-3.4504 Y-21.7272
G01 X-4.3007 Y-21.5750
G01 X-5.1444 Y-21.3895
G01 X-5.9802 Y-21.1711
G01 X-6.8068 Y-20.9200
G01 X-7.6228 Y-20.6366
G01 X-8.4271 Y-20.3214
G01 X-9.2185 Y-19.9749
G01 X-9.9956 Y-19.5976
G01 X-10.7573 Y-19.1901
G01 X-11.5024 Y-18.7530
G01 X-12.2297 Y-18.2869
G01 X-12.9383 Y-17.7927
G01 X-13.6268 Y-17.2710
G01 X-14.2944 Y-16.7227
G01 X-14.9399 Y-16.1486
G01 X-15.5623 Y-15.5496
G01 Z-5.0000 F120
G01 X-16.1608 Y-14.9267 F360
G01 X-16.7344 Y-14.2807
G01 X-17.2821 Y-13.6127
G01 X-17.8032 Y-12.9237
G01 X-18.2969 Y-12.2148
G01 X-18.7623 Y-11.4870
G01 X-19.1989 Y-10.7416
G01 X-19.6058 Y-9.9796
G01 X-19.9825 Y-9.2021
G01 X-20.3283 Y-8.4105
G01 X-20.6428 Y-7.6060
G01 X-20.9255 Y-6.7897
G01 X-21.1760 Y-5.9629
G01 X-21.3937 Y-5.1269
G01 X-21.5785 Y-4.2831
G01 X-21.7300 Y-3.4326
G01 X-21.8481 Y-2.5768
G01 X-21.9324 Y-1.7171
G01 X-21.9829 Y-0.8547
G01 X-21.9995 Y0.0090
G01 X-21.9822 Y0.8727
G01 X-21.9310 Y1.7350
G01 X-21.8459 Y2.5947
G01 X-21.7272 Y3.4504
G01 X-21.5750 Y4.3007
G01 X-21.3895 Y5.1444
G01 X-21.1711 Y5.9802
G01 X-20.9200 Y6.8068
G01 X-20.6366 Y7.6228
G01 X-20.3214 Y8.4271
G01 X-19.9749 Y9.2185
G01 X-19.5976 Y9.9956
G01 X-19.1901 Y10.7573
G01 X-18.7530 Y11.5024
G01 X-18.2869 Y12.2297
G01 X-17.7927 Y12.9383
G01 X-17.2710 Y13.6268
G01 X-16.7227 Y14.2944
G01 X-16.1486 Y14.9399
G01 X-15.5496 Y15.5623
G01 X-14.9267 Y16.1608
G01 X-14.2807 Y16.7344
G01 X-13.6127 Y17.2821
G01 X-12.9237 Y17.8032
G01 X-12.2148 Y18.2969
G01 X-11.4870 Y18.7623
G01 X-10.7416 Y19.1989
G01 X-9.9796 Y19.6058
G01 X-9.2021 Y19.9825
G01 X-8.4105 Y20.3283
G01 X-7.6060 Y20.6428
G01 X-6.7897 Y20.9255
G01 X-5.9629 Y21.1760
G01 X-5.1269 Y21.3937
G01 X-4.2831 Y21.5785
G01 X-3.4326 Y21.7300
G01 X-2.5768 Y21.8481
G01 X-1.7171 Y21.9324
G01 X-0.8547 Y21.9829
G01 X0.0090 Y21.9995
G01 X0.8727 Y21.9822
G01 X1.7350 Y21.9310
G01 X2.5947 Y21.8459
G01 X3.4504 Y21.7272
G01 X4.3007 Y21.5750
G01 X5.1444 Y21.3895
G01 X5.9802 Y21.1711
G01 X6.8068 Y20.9200
G01 X7.6228 Y20.6366
G01 X8.4271 Y20.3214
G01 X9.2185 Y19.9749
G01 X9.9956 Y19.5976
G01 X10.7573 Y19.1901
G01 X11.5024 Y18.7530
G01 X12.2297 Y18.2869
G01 X12.9383 Y17.7927
G01 X13.6268 Y17.2710
G01 X14.2944 Y16.7227
G01 X14.9399 Y16.1486
G01 X15.5623 Y15.5496
G01 X16.1608 Y14.9267
G01 X16.7344 Y14.2807
G01 X17.2821 Y13.6127
G01 X17.8032 Y12.9237
G01 X18.2969 Y12.2148
G01 X18.7623 Y11.4870
G01 X19.1989 Y10.7416
G01 X19.6058 Y9.9796
G01 X19.9825 Y9.2021
G01 X20.3283 Y8.4105
G01 X20.6428 Y7.6060
G01 X20.9255 Y6.7897
G01 X21.1760 Y5.9629
G01 X21.3937 Y5.1269
G01 X21.5785 Y4.2831
G01 X21.7300 Y3.4326
G01 X21.8481 Y2.5768
G01 X21.9324 Y1.7171
G01 X21.9829 Y0.8547
G01 X21.9995 Y-0.0090
G01 X21.9822 Y-0.8727
G01 X21.9310 Y-1.7350
G01 X21.8459 Y-2.5947
G01 X21.7272 Y-3.4504
G01 X21.5750 Y-4.3007
G01 X21.3895 Y-5.1444
G01 X21.1711 Y-5.9802
G01 X20.9200 Y-6.8068
G01 X20.6366 Y-7.6228
G01 X20.3214 Y-8.4271
G01 X19.9749 Y-9.2185
G01 X19.5976 Y-9.9956
G01 X19.1901 Y-10.7573
G01 X18.7530 Y-11.5024
G01 X18.2869 Y-12.2297
G01 X17.7927 Y-12.9383
G01 X17.2710 Y-13.6268
G01 X16.7227 Y-14.2944
G01 X16.1486 Y-14.9399
G01 X15.5496 Y-15.5623
G01 X14.9267 Y-16.1608
G01 X14.2807 Y-16.7344
G01 X13.6127 Y-17.2821
G01 X12.9237 Y-17.8032
G01 X12.2148 Y-18.2969
G01 X11.4870 Y-18.7623
G01 X10.7416 Y-19.1989
G01 X9.9796 Y-19.6058
G01 X9.2021 Y-19.9825
G01 X8.4105 Y-20.3283
G01 X7.6060 Y-20.6428
G01 X6.7897 Y-20.9255
G01 X5.9629 Y-21.1760
G01 X5.1269 Y-21.3937
G01 X4.2831 Y-21.5785
G01 X3.4326 Y-21.7300
G01 X2.5768 Y-21.8481
G01 X1.7171 Y-21.9324
G01 X0.8547 Y-21.9829
G01 X-0.0090 Y-21.9995
G01 X-0.8727 Y-21.9822
G01 X-1.7350 Y-21.9310
G01 X-2.5947 Y-21.8459
G01 X-3.4504 Y-21.7272
G01 X-4.3007 Y-21.5750
G01 X-5.1444 Y-21.3895
G01 X-5.9802 Y-21.1711
G01 X-6.8068 Y-20.9200
G01 X-7.6228 Y-20.6366
G01 X-8.4271 Y-20.3214
G01 X-9.2185 Y-19.9749
G01 X-9.9956 Y-19.5976
G01 X-10.7573 Y-19.1901
G01 X-11.5024 Y-18.7530
G01 X-12.2297 Y-18.2869
G01 X-12.9383 Y-17.7927
G01 X-13.6268 Y-17.2710
G01 X-14.2944 Y-16.7227
G01 X-14.9399 Y-16.1486
G01 X-15.5623 Y-15.5496
G01 Z-6.0000 F120
G01 X-16.1608 Y-14.9267 F360
G01 X-16.7344 Y-14.2807
G01 X-17.2821 Y-13.6127
G01 X-17.8032 Y-12.9237
G01 X-18.2969 Y-12.2148
G01 X-18.7623 Y-11.4870
G01 X-19.1989 Y-10.7416
G01 X-19.6058 Y-9.9796
G01 X-19.9825 Y-9.2021
G01 X-20.3283 Y-8.4105
G01 X-20.6428 Y-7.6060
G01 X-20.9255 Y-6.7897
G01 X-21.1760 Y-5.9629
G01 X-21.3937 Y-5.1269
G01 X-21.5785 Y-4.2831
G01 X-21.7300 Y-3.4326
G01 X-21.8481 Y-2.5768
G01 X-21.9324 Y-1.7171
G01 X-21.9829 Y-0.8547
G01 X-21.9995 Y0.0090
G01 X-21.9822 Y0.8727
G01 X-21.9310 Y1.7350
G01 X-21.8459 Y2.5947
G01 X-21.7272 Y3.4504
G01 X-21.5750 Y4.3007
G01 X-21.3895 Y5.1444
G01 X-21.1711 Y5.9802
G01 X-20.9200 Y6.8068
G01 X-20.6366 Y7.6228
G01 X-20.3214 Y8.4271
G01 X-19.9749 Y9.2185
G01 X-19.5976 Y9.9956
G01 X-19.1901 Y10.7573
G01 X-18.7530 Y11.5024
G01 X-18.2869 Y12.2297
G01 X-17.7927 Y12.9383
G01 X-17.2710 Y13.6268
G01 X-16.7227 Y14.2944
G01 X-16.1486 Y14.9399
G01 X-15.5496 Y15.5623
G01 X-14.9267 Y16.1608
G01 X-14.2807 Y16.7344
G01 X-13.6127 Y17.2821
G01 X-12.9237 Y17.8032
G01 X-12.2148 Y18.2969
G01 X-11.4870 Y18.7623
G01 X-10.7416 Y19.1989
G01 X-9.9796 Y19.6058
G01 X-9.2021 Y19.9825
G01 X-8.4105 Y20.3283
G01 X-7.6060 Y20.6428
G01 X-6.7897 Y20.9255
G01 X-5.9629 Y21.1760
G01 X-5.1269 Y21.3937
G01 X-4.2831 Y21.5785
G01 X-3.4326 Y21.7300
G01 X-2.5768 Y21.8481
G01 X-1.7171 Y21.9324
G01 X-0.8547 Y21.9829
G01 X0.0090 Y21.9995
G01 X0.8727 Y21.9822
G01 X1.7350 Y21.9310
G01 X2.5947 Y21.8459
G01 X3.4504 Y21.7272
G01 X4.3007 Y21.5750
G01 X5.1444 Y21.3895
G01 X5.9802 Y21.1711
G01 X6.8068 Y20.9200
G01 X7.6228 Y20.6366
G01 X8.4271 Y20.3214
G01 X9.2185 Y19.9749
G01 X9.9956 Y19.5976
G01 X10.7573 Y19.1901
G01 X11.5024 Y18.7530
G01 X12.2297 Y18.2869
G01 X12.9383 Y17.7927
G01 X13.6268 Y17.2710
G01 X14.2944 Y16.7227
G01 X14.9399 Y16.1486
G01 X15.5623 Y15.5496
G01 X16.1608 Y14.9267
G01 X16.7344 Y14.2807
G01 X17.2821 Y13.6127
G01 X17.8032 Y12.9237
G01 X18.2969 Y12.2148
G01 X18.7623 Y11.4870
G01 X19.1989 Y10.7416
G01 X19.6058 Y9.9796
G01 X19.9825 Y9.2021
G01 X20.3283 Y8.4105
G01 X20.6428 Y7.6060
G01 X20.9255 Y6.7897
G01 X21.1760 Y5.9629
G01 X21.3937 Y5.1269
G01 X21.5785 Y4.2831
G01 X21.7300 Y3.4326
G01 X21.8481 Y2.5768
G01 X21.9324 Y1.7171
G01 X21.9829 Y0.8547
G01 X21.9995 Y-0.0090
G01 X21.9822 Y-0.8727
G01 X21.9310 Y-1.7350
G01 X21.8459 Y-2.5947
G01 X21.7272 Y-3.4504
G01 X21.5750 Y-4.3007
G01 X21.3895 Y-5.1444
G01 X21.1711 Y-5.9802
G01 X20.9200 Y-6.8068
G01 X20.6366 Y-7.6228
G01 X20.3214 Y-8.4271
G01 X19.9749 Y-9.2185
G01 X19.5976 Y-9.9956
G01 X19.1901 Y-10.7573
G01 X18.7530 Y-11.5024
G01 X18.2869 Y-12.2297
G01 X17.7927 Y-12.9383
G01 X17.2710 Y-13.6268
G01 X16.7227 Y-14.2944
G01 X16.1486 Y-14.9399
G01 X15.5496 Y-15.5623
G01 X14.9267 Y-16.1608
G01 X14.2807 Y-16.7344
G01 X13.6127 Y-17.2821
G01 X12.9237 Y-17.8032
G01 X12.2148 Y-18.2969
G01 X11.4870 Y-18.7623
G01 X10.7416 Y-19.1989
G01 X9.9796 Y-19.6058
G01 X9.2021 Y-19.9825
G01 X8.4105 Y-20.3283
G01 X7.6060 Y-20.6428
G01 X6.7897 Y-20.9255
G01 X5.9629 Y-21.1760
G01 X5.1269 Y-21.3937
G01 X4.2831 Y-21.5785
G01 X3.4326 Y-21.7300
G01 X2.5768 Y-21.8481
G01 X1.7171 Y-21.9324
G01 X0.8547 Y-21.9829
G01 X-0.0090 Y-21.9995
G01 X-0.8727 Y-21.9822
G01 X-1.7350 Y-21.9310
G01 X-2.5947 Y-21.8459
G01 X-3.4504 Y-21.7272
G01 X-4.3007 Y-21.5750
G01 X-5.1444 Y-21.3895
G01 X-5.9802 Y-21.1711
G01 X-6.8068 Y-20.9200
G01 X-7.6228 Y-20.6366
G01 X-8.4271 Y-20.3214
G01 X-9.2185 Y-19.9749
G01 X-9.9956 Y-19.5976
G01 X-10.7573 Y-19.1901
G01 X-11.5024 Y-18.7530
G01 X-12.2297 Y-18.2869
G01 X-12.9383 Y-17.7927
G01 X-13.6268 Y-17.2710
G01 X-14.2944 Y-16.7227
G01 X-14.9399 Y-16.1486
G01 X-15.5623 Y-15.5496
G01 Z-7.0000 F120
G01 X-16.1608 Y-14.9267 F360
G01 X-16.7344 Y-14.2807
G01 X-17.2821 Y-13.6127
G01 X-17.8032 Y-12.9237
G01 X-18.2969 Y-12.2148
G01 X-18.7623 Y-11.4870
G01 X-19.1989 Y-10.7416
G01 X-19.6058 Y-9.9796
G01 X-19.9825 Y-9.2021
G01 X-20.3283 Y-8.4105
G01 X-20.6428 Y-7.6060
G01 X-20.9255 Y-6.7897
G01 X-21.1760 Y-5.9629
G01 X-21.3937 Y-5.1269
G01 X-21.5785 Y-4.2831
G01 X-21.7300 Y-3.4326
G01 X-21.8481 Y-2.5768
G01 X-21.9324 Y-1.7171
G01 X-21.9829 Y-0.8547
G01 X-21.9995 Y0.0090
G01 X-21.9822 Y0.8727
G01 X-21.9310 Y1.7350
G01 X-21.8459 Y2.5947
G01 X-21.7272 Y3.4504
G01 X-21.5750 Y4.3007
G01 X-21.3895 Y5.1444
G01 X-21.1711 Y5.9802
G01 X-20.9200 Y6.8068
G01 X-20.6366 Y7.6228
G01 X-20.3214 Y8.4271
G01 X-19.9749 Y9.2185
G01 X-19.5976 Y9.9956
G01 X-19.1901 Y10.7573
G01 X-18.7530 Y11.5024
G01 X-18.2869 Y12.2297
G01 X-17.7927 Y12.9383
G01 X-17.2710 Y13.6268
G01 X-16.7227 Y14.2944
G01 X-16.1486 Y14.9399
G01 X-15.5496 Y15.5623
G01 X-14.9267 Y16.1608
G01 X-14.2807 Y16.7344
G01 X-13.6127 Y17.2821
G01 X-12.9237 Y17.8032
G01 X-12.2148 Y18.2969
G01 X-11.4870 Y18.7623
G01 X-10.7416 Y19.1989
G01 X-9.9796 Y19.6058
G01 X-9.2021 Y19.9825
G01 X-8.4105 Y20.3283
G01 X-7.6060 Y20.6428
G01 X-6.7897 Y20.9255
G01 X-5.9629 Y21.1760
G01 X-5.1269 Y21.3937
G01 X-4.2831 Y21.5785
G01 X-3.4326 Y21.7300
G01 X-2.5768 Y21.8481
G01 X-1.7171 Y21.9324
G01 X-0.8547 Y21.9829
G01 X0.0090 Y21.9995
G01 X0.8727 Y21.9822
G01 X1.7350 Y21.9310
G01 X2.5947 Y21.8459
G01 X3.4504 Y21.7272
G01 X4.3007 Y21.5750
G01 X5.1444 Y21.3895
G01 X5.9802 Y21.1711
G01 X6.8068 Y20.9200
G01 X7.6228 Y20.6366
G01 X8.4271 Y20.3214
G01 X9.2185 Y19.9749
G01 X9.9956 Y19.5976
G01 X10.7573 Y19.1901
G01 X11.5024 Y18.7530
G01 X12.2297 Y18.2869
G01 X12.9383 Y17.7927
G01 X13.6268 Y17.2710
G01 X14.2944 Y16.7227
G01 X14.9399 Y16.1486
G01 X15.5623 Y15.5496
G01 X16.1608 Y14.9267
G01 X16.7344 Y14.2807
G01 X17.2821 Y13.6127
G01 X17.8032 Y12.9237
G01 X18.2969 Y12.2148
G01 X18.7623 Y11.4870
G01 X19.1989 Y10.7416
G01 X19.6058 Y9.9796
G01 X19.9825 Y9.2021
G01 X20.3283 Y8.4105
G01 X20.6428 Y7.6060
G01 X20.9255 Y6.7897
G01 X21.1760 Y5.9629
G01 X21.3937 Y5.1269
G01 X21.5785 Y4.2831
G01 X21.7300 Y3.4326
G01 X21.8481 Y2.5768
G01 X21.9324 Y1.7171
G01 X21.9829 Y0.8547
G01 X21.9995 Y-0.0090
G01 X21.9822 Y-0.8727
G01 X21.9310 Y-1.7350
G01 X21.8459 Y-2.5947
G01 X21.7272 Y-3.4504
G01 X21.5750 Y-4.3007
G01 X21.3895 Y-5.1444
G01 X21.1711 Y-5.9802
G01 X20.9200 Y-6.8068
G01 X20.6366 Y-7.6228
G01 X20.3214 Y-8.4271
G01 X19.9749 Y-9.2185
G01 X19.5976 Y-9.9956
G01 X19.1901 Y-10.7573
G01 X18.7530 Y-11.5024
G01 X18.2869 Y-12.2297
G01 X17.7927 Y-12.9383
G01 X17.2710 Y-13.6268
G01 X16.7227 Y-14.2944
G01 X16.1486 Y-14.9399
G01 X15.5496 Y-15.5623
G01 X14.9267 Y-16.1608
G01 X14.2807 Y-16.7344
G01 X13.6127 Y-17.2821
G01 X12.9237 Y-17.8032
G01 X12.2148 Y-18.2969
G01 X11.4870 Y-18.7623
G01 X10.7416 Y-19.1989
G01 X9.9796 Y-19.6058
G01 X9.2021 Y-19.9825
G01 X8.4105 Y-20.3283
G01 X7.6060 Y-20.6428
G01 X6.7897 Y-20.9255
G01 X5.9629 Y-21.1760
G01 X5.1269 Y-21.3937
G01 X4.2831 Y-21.5785
G01 X3.4326 Y-21.7300
G01 X2.5768 Y-21.8481
G01 X1.7171 Y-21.9324
G01 X0.8547 Y-21.9829
G01 X-0.0090 Y-21.9995
G01 X-0.8727 Y-21.9822
G01 X-1.7350 Y-21.9310
G01 X-2.5947 Y-21.8459
G01 X-3.4504 Y-21.7272
G01 X-4.3007 Y-21.5750
G01 X-5.1444 Y-21.3895
G01 X-5.9802 Y-21.1711
G01 X-6.8068 Y-20.9200
G01 X-7.6228 Y-20.6366
G01 X-8.4271 Y-20.3214
G01 X-9.2185 Y-19.9749
G01 X-9.9956 Y-19.5976
G01 X-10.7573 Y-19.1901
G01 X-11.5024 Y-18.7530
G01 X-12.2297 Y-18.2869
G01 X-12.9383 Y-17.7927
G01 X-13.6268 Y-17.2710
G01 X-14.2944 Y-16.7227
G01 X-14.9399 Y-16.1486
G01 X-15.5623 Y-15.5496
G01 Z-8.0000 F120
G01 X-16.1608 Y-14.9267 F360
G01 X-16.7344 Y-14.2807
G01 X-17.2821 Y-13.6127
G01 X-17.8032 Y-12.9237
G01 X-18.2969 Y-12.2148
G01 X-18.7623 Y-11.4870
G01 X-19.1989 Y-10.7416
G01 X-19.6058 Y-9.9796
G01 X-19.9825 Y-9.2021
G01 X-20.3283 Y-8.4105
G01 X-20.6428 Y-7.6060
G01 X-20.9255 Y-6.7897
G01 X-21.1760 Y-5.9629
G01 X-21.3937 Y-5.1269
G01 X-21.5785 Y-4.2831
G01 X-21.7300 Y-3.4326
G01 X-21.8481 Y-2.5768
G01 X-21.9324 Y-1.7171
G01 X-21.9829 Y-0.8547
G01 X-21.9995 Y0.0090
G01 X-21.9822 Y0.8727
G01 X-21.9310 Y1.7350
G01 X-21.8459 Y2.5947
G01 X-21.7272 Y3.4504
G01 X-21.5750 Y4.3007
G01 X-21.3895 Y5.1444
G01 X-21.1711 Y5.9802
G01 X-20.9200 Y6.8068
G01 X-20.6366 Y7.6228
G01 X-20.3214 Y8.4271
G01 X-19.9749 Y9.2185
G01 X-19.5976 Y9.9956
G01 X-19.1901 Y10.7573
G01 X-18.7530 Y11.5024
G01 X-18.2869 Y12.2297
G01 X-17.7927 Y12.9383
G01 X-17.2710 Y13.6268
G01 X-16.7227 Y14.2944
G01 X-16.1486 Y14.9399
G01 X-15.5496 Y15.5623
G01 X-14.9267 Y16.1608
G01 X-14.2807 Y16.7344
G01 X-13.6127 Y17.2821
G01 X-12.9237 Y17.8032
G01 X-12.2148 Y18.2969
G01 X-11.4870 Y18.7623
G01 X-10.7416 Y19.1989
G01 X-9.9796 Y19.6058
G01 X-9.2021 Y19.9825
G01 X-8.4105 Y20.3283
G01 X-7.6060 Y20.6428
G01 X-6.7897 Y20.9255
G01 X-5.9629 Y21.1760
G01 X-5.1269 Y21.3937
G01 X-4.2831 Y21.5785
G01 X-3.4326 Y21.7300
G01 X-2.5768 Y21.8481
G01 X-1.7171 Y21.9324
G01 X-0.8547 Y21.9829
G01 X0.0090 Y21.9995
G01 X0.8727 Y21.9822
G01 X1.7350 Y21.9310
G01 X2.5947 Y21.8459
G01 X3.4504 Y21.7272
G01 X4.3007 Y21.5750
G01 X5.1444 Y21.3895
G01 X5.9802 Y21.1711
G01 X6.8068 Y20.9200
G01 X7.6228 Y20.6366
G01 X8.4271 Y20.3214
G01 X9.2185 Y19.9749
G01 X9.9956 Y19.5976
G01 X10.7573 Y19.1901
G01 X11.5024 Y18.7530
G01 X12.2297 Y18.2869
G01 X12.9383 Y17.7927
G01 X13.6268 Y17.2710
G01 X14.2944 Y16.7227
G01 X14.9399 Y16.1486
G01 X15.5623 Y15.5496
G01 X16.1608 Y14.9267
G01 X16.7344 Y14.2807
G01 X17.2821 Y13.6127
G01 X17.8032 Y12.9237
G01 X18.2969 Y12.2148
G01 X18.7623 Y11.4870
G01 X19.1989 Y10.7416
G01 X19.6058 Y9.9796
G01 X19.9825 Y9.2021
G01 X20.3283 Y8.4105
G01 X20.6428 Y7.6060
G01 X20.9255 Y6.7897
G01 X21.1760 Y5.9629
G01 X21.3937 Y5.1269
G01 X21.5785 Y4.2831
G01 X21.7300 Y3.4326
G01 X21.8481 Y2.5768
G01 X21.9324 Y1.7171
G01 X21.9829 Y0.8547
G01 X21.9995 Y-0.0090
G01 X21.9822 Y-0.8727
G01 X21.9310 Y-1.7350
G01 X21.8459 Y-2.5947
G01 X21.7272 Y-3.4504
G01 X21.5750 Y-4.3007
G01 X21.3895 Y-5.1444
G01 X21.1711 Y-5.9802
G01 X20.9200 Y-6.8068
G01 X20.6366 Y-7.6228
G01 X20.3214 Y-8.4271
G01 X19.9749 Y-9.2185
G01 X19.5976 Y-9.9956
G01 X19.1901 Y-10.7573
G01 X18.7530 Y-11.5024
G01 X18.2869 Y-12.2297
G01 X17.7927 Y-12.9383
G01 X17.2710 Y-13.6268
G01 X16.7227 Y-14.2944
G01 X16.1486 Y-14.9399
G01 X15.5496 Y-15.5623
G01 X14.9267 Y-16.1608
G01 X14.2807 Y-16.7344
G01 X13.6127 Y-17.2821
G01 X12.9237 Y-17.8032
G01 X12.2148 Y-18.2969
G01 X11.4870 Y-18.7623
G01 X10.7416 Y-19.1989
G01 X9.9796 Y-19.6058
G01 X9.2021 Y-19.9825
G01 X8.4105 Y-20.3283
G01 X7.6060 Y-20.6428
G01 X6.7897 Y-20.9255
G01 X5.9629 Y-21.1760
G01 X5.1269 Y-21.3937
G01 X4.2831 Y-21.5785
G01 X3.4326 Y-21.7300
G01 X2.5768 Y-21.8481
G01 X1.7171 Y-21.9324
G01 X0.8547 Y-21.9829
G01 X-0.0090 Y-21.9995
G01 X-0.8727 Y-21.9822
G01 X-1.7350 Y-21.9310
G01 X-2.5947 Y-21.8459
G01 X-3.4504 Y-21.7272
G01 X-4.3007 Y-21.5750
G01 X-5.1444 Y-21.3895
G01 X-5.9802 Y-21.1711
G01 X-6.8068 Y-20.9200
G01 X-7.6228 Y-20.6366
G01 X-8.4271 Y-20.3214
G01 X-9.2185 Y-19.9749
G01 X-9.9956 Y-19.5976
G01 X-10.7573 Y-19.1901
G01 X-11.5024 Y-18.7530
G01 X-12.2297 Y-18.2869
G01 X-12.9383 Y-17.7927
G01 X-13.6268 Y-17.2710
G01 X-14.2944 Y-16.7227
G01 X-14.9399 Y-16.1486
G01 X-15.5623 Y-15.5496
G01 Z-9.0000 F120
G01 X-16.1608 Y-14.9267 F360
G01 X-16.7344 Y-14.2807
G01 X-17.2821 Y-13.6127
G01 X-17.8032 Y-12.9237
G01 X-18.2969 Y-12.2148
G01 X-18.7623 Y-11.4870
G01 X-19.1989 Y-10.7416
G01 X-19.6058 Y-9.9796
G01 X-19.9825 Y-9.2021
G01 X-20.3283 Y-8.4105
G01 X-20.6428 Y-7.6060
G01 X-20.9255 Y-6.7897
G01 X-21.1760 Y-5.9629
G01 X-21.3937 Y-5.1269
G01 X-21.5785 Y-4.2831
G01 X-21.7300 Y-3.4326
G01 X-21.8481 Y-2.5768
G01 X-21.9324 Y-1.7171
G01 X-21.9829 Y-0.8547
G01 X-21.9995 Y0.0090
G01 X-21.9822 Y0.8727
G01 X-21.9310 Y1.7350
G01 X-21.8459 Y2.5947
G01 X-21.7272 Y3.4504
G01 X-21.5750 Y4.3007
G01 X-21.3895 Y5.1444
G01 X-21.1711 Y5.9802
G01 X-20.9200 Y6.8068
G01 X-20.6366 Y7.6228
G01 X-20.3214 Y8.4271
G01 X-19.9749 Y9.2185
G01 X-19.5976 Y9.9956
G01 X-19.1901 Y10.7573
G01 X-18.7530 Y11.5024
G01 X-18.2869 Y12.2297
G01 X-17.7927 Y12.9383
G01 X-17.2710 Y13.6268
G01 X-16.7227 Y14.2944
G01 X-16.1486 Y14.9399
G01 X-15.5496 Y15.5623
G01 X-14.9267 Y16.1608
G01 X-14.2807 Y16.7344
G01 X-13.6127 Y17.2821
G01 X-12.9237 Y17.8032
G01 X-12.2148 Y18.2969
G01 X-11.4870 Y18.7623
G01 X-10.7416 Y19.1989
G01 X-9.9796 Y19.6058
G01 X-9.2021 Y19.9825
G01 X-8.4105 Y20.3283
G01 X-7.6060 Y20.6428
G01 X-6.7897 Y20.9255
G01 X-5.9629 Y21.1760
G01 X-5.1269 Y21.3937
G01 X-4.2831 Y21.5785
G01 X-3.4326 Y21.7300
G01 X-2.5768 Y21.8481
G01 X-1.7171 Y21.9324
G01 X-0.8547 Y21.9829
G01 X0.0090 Y21.9995
G01 X0.8727 Y21.9822
G01 X1.7350 Y21.9310
G01 X2.5947 Y21.8459
G01 X3.4504 Y21.7272
G01 X4.3007 Y21.5750
G01 X5.1444 Y21.3895
G01 X5.9802 Y21.1711
G01 X6.8068 Y20.9200
G01 X7.6228 Y20.6366
G01 X8.4271 Y20.3214
G01 X9.2185 Y19.9749
G01 X9.9956 Y19.5976
G01 X10.7573 Y19.1901
G01 X11.5024 Y18.7530
G01 X12.2297 Y18.2869
G01 X12.9383 Y17.7927
G01 X13.6268 Y17.2710
G01 X14.2944 Y16.7227
G01 X14.9399 Y16.1486
G01 X15.5623 Y15.5496
G01 X16.1608 Y14.9267
G01 X16.7344 Y14.2807
G01 X17.2821 Y13.6127
G01 X17.8032 Y12.9237
G01 X18.2969 Y12.2148
G01 X18.7623 Y11.4870
G01 X19.1989 Y10.7416
G01 X19.6058 Y9.9796
G01 X19.9825 Y9.2021
G01 X20.3283 Y8.4105
G01 X20.6428 Y7.6060
G01 X20.9255 Y6.7897
G01 X21.1760 Y5.9629
G01 X21.3937 Y5.1269
G01 X21.5785 Y4.2831
G01 X21.7300 Y3.4326
G01 X21.8481 Y2.5768
G01 X21.9324 Y1.7171
G01 X21.9829 Y0.8547
G01 X21.9995 Y-0.0090
G01 X21.9822 Y-0.8727
G01 X21.9310 Y-1.7350
G01 X21.8459 Y-2.5947
G01 X21.7272 Y-3.4504
G01 X21.5750 Y-4.3007
G01 X21.3895 Y-5.1444
G01 X21.1711 Y-5.9802
G01 X20.9200 Y-6.8068
G01 X20.6366 Y-7.6228
G01 X20.3214 Y-8.4271
G01 X19.9749 Y-9.2185
G01 X19.5976 Y-9.9956
G01 X19.1901 Y-10.7573
G01 X18.7530 Y-11.5024
G01 X18.2869 Y-12.2297
G01 X17.7927 Y-12.9383
G01 X17.2710 Y-13.6268
G01 X16.7227 Y-14.2944
G01 X16.1486 Y-14.9399
G01 X15.5496 Y-15.5623
G01 X14.9267 Y-16.1608
G01 X14.2807 Y-16.7344
G01 X13.6127 Y-17.2821
G01 X12.9237 Y-17.8032
G01 X12.2148 Y-18.2969
G01 X11.4870 Y-18.7623
G01 X10.7416 Y-19.1989
G01 X9.9796 Y-19.6058
G01 X9.2021 Y-19.9825
G01 X8.4105 Y-20.3283
G01 X7.6060 Y-20.6428
G01 X6.7897 Y-20.9255
G01 X5.9629 Y-21.1760
G01 X5.1269 Y-21.3937
G01 X4.2831 Y-21.5785
G01 X3.4326 Y-21.7300
G01 X2.5768 Y-21.8481
G01 X1.7171 Y-21.9324
G01 X0.8547 Y-21.9829
G01 X-0.0090 Y-21.9995
G01 X-0.8727 Y-21.9822
G01 X-1.7350 Y-21.9310
G01 X-2.5947 Y-21.8459
G01 X-3.4504 Y-21.7272
G01 X-4.3007 Y-21.5750
G01 X-5.1444 Y-21.3895
G01 X-5.9802 Y-21.1711
G01 X-6.8068 Y-20.9200
G01 X-7.6228 Y-20.6366
G01 X-8.4271 Y-20.3214
G01 X-9.2185 Y-19.9749
G01 X-9.9956 Y-19.5976
G01 X-10.7573 Y-19.1901
G01 X-11.5024 Y-18.7530
G01 X-12.2297 Y-18.2869
G01 X-12.9383 Y-17.7927
G01 X-13.6268 Y-17.2710
G01 X-14.2944 Y-16.7227
G01 X-14.9399 Y-16.1486
G01 X-15.5623 Y-15.5496
G01 Z-10.0000 F120
G01 X-16.1608 Y-14.9267 F360
G01 X-16.7344 Y-14.2807
G01 X-17.2821 Y-13.6127
G01 X-17.8032 Y-12.9237
G01 X-18.2969 Y-12.2148
G01 X-18.7623 Y-11.4870
G01 X-19.1989 Y-10.7416
G01 X-19.6058 Y-9.9796
G01 X-19.9825 Y-9.2021
G01 X-20.3283 Y-8.4105
G01 X-20.6428 Y-7.6060
G01 X-20.9255 Y-6.7897
G01 X-21.1760 Y-5.9629
G01 X-21.3937 Y-5.1269
G01 X-21.5785 Y-4.2831
G01 X-21.7300 Y-3.4326
G01 X-21.8481 Y-2.5768
G01 X-21.9324 Y-1.7171
G01 X-21.9829 Y-0.8547
G01 X-21.9995 Y0.0090
G01 X-21.9822 Y0.8727
G01 X-21.9310 Y1.7350
G01 X-21.8459 Y2.5947
G01 X-21.7272 Y3.4504
G01 X-21.5750 Y4.3007
G01 X-21.3895 Y5.1444
G01 X-21.1711 Y5.9802
G01 X-20.9200 Y6.8068
G01 X-20.6366 Y7.6228
G01 X-20.3214 Y8.4271
G01 X-19.9749 Y9.2185
G01 X-19.5976 Y9.9956
G01 X-19.1901 Y10.7573
G01 X-18.7530 Y11.5024
G01 X-18.2869 Y12.2297
G01 X-17.7927 Y12.9383
G01 X-17.2710 Y13.6268
G01 X-16.7227 Y14.2944
G01 X-16.1486 Y14.9399
G01 X-15.5496 Y15.5623
G01 X-14.9267 Y16.1608
G01 X-14.2807 Y16.7344
G01 X-13.6127 Y17.2821
G01 X-12.9237 Y17.8032
G01 X-12.2148 Y18.2969
G01 X-11.4870 Y18.7623
G01 X-10.7416 Y19.1989
G01 X-9.9796 Y19.6058
G01 X-9.2021 Y19.9825
G01 X-8.4105 Y20.3283
G01 X-7.6060 Y20.6428
G01 X-6.7897 Y20.9255
G01 X-5.9629 Y21.1760
G01 X-5.1269 Y21.3937
G01 X-4.2831 Y21.5785
G01 X-3.4326 Y21.7300
G01 X-2.5768 Y21.8481
G01 X-1.7171 Y21.9324
G01 X-0.8547 Y21.9829
G01 X0.0090 Y21.9995
G01 X0.8727 Y21.9822
G01 X1.7350 Y21.9310
G01 X2.5947 Y21.8459
G01 X3.4504 Y21.7272
G01 X4.3007 Y21.5750
G01 X5.1444 Y21.3895
G01 X5.9802 Y21.1711
G01 X6.8068 Y20.9200
G01 X7.6228 Y20.6366
G01 X8.4271 Y20.3214
G01 X9.2185 Y19.9749
G01 X9.9956 Y19.5976
G01 X10.7573 Y19.1901
G01 X11.5024 Y18.7530
G01 X12.2297 Y18.2869
G01 X12.9383 Y17.7927
G01 X13.6268 Y17.2710
G01 X14.2944 Y16.7227
G01 X14.9399 Y16.1486
G01 X15.5623 Y15.5496
G01 X16.1608 Y14.9267
G01 X16.7344 Y14.2807
G01 X17.2821 Y13.6127
G01 X17.8032 Y12.9237
G01 X18.2969 Y12.2148
G01 X18.7623 Y11.4870
G01 X19.1989 Y10.7416
G01 X19.6058 Y9.9796
G01 X19.9825 Y9.2021
G01 X20.3283 Y8.4105
G01 X20.6428 Y7.6060
G01 X20.9255 Y6.7897
G01 X21.1760 Y5.9629
G01 X21.3937 Y5.1269
G01 X21.5785 Y4.2831
G01 X21.7300 Y3.4326
G01 X21.8481 Y2.5768
G01 X21.9324 Y1.7171
G01 X21.9829 Y0.8547
G01 X21.9995 Y-0.0090
G01 X21.9822 Y-0.8727
G01 X21.9310 Y-1.7350
G01 X21.8459 Y-2.5947
G01 X21.7272 Y-3.4504
G01 X21.5750 Y-4.3007
G01 X21.3895 Y-5.1444
G01 X21.1711 Y-5.9802
G01 X20.9200 Y-6.8068
G01 X20.6366 Y-7.6228
G01 X20.3214 Y-8.4271
G01 X19.9749 Y-9.2185
G01 X19.5976 Y-9.9956
G01 X19.1901 Y-10.7573
G01 X18.7530 Y-11.5024
G01 X18.2869 Y-12.2297
G01 X17.7927 Y-12.9383
G01 X17.2710 Y-13.6268
G01 X16.7227 Y-14.2944
G01 X16.1486 Y-14.9399
G01 X15.5496 Y-15.5623
G01 X14.9267 Y-16.1608
G01 X14.2807 Y-16.7344
G01 X13.6127 Y-17.2821
G01 X12.9237 Y-17.8032
G01 X12.2148 Y-18.2969
G01 X11.4870 Y-18.7623
G01 X10.7416 Y-19.1989
G01 X9.9796 Y-19.6058
G01 X9.2021 Y-19.9825
G01 X8.4105 Y-20.3283
G01 X7.6060 Y-20.6428
G01 X6.7897 Y-20.9255
G01 X5.9629 Y-21.1760
G01 X5.1269 Y-21.3937
G01 X4.2831 Y-21.5785
G01 X3.4326 Y-21.7300
G01 X2.5768 Y-21.8481
G01 X1.7171 Y-21.9324
G01 X0.8547 Y-21.9829
G01 X-0.0090 Y-21.9995
G01 X-0.8727 Y-21.9822
G01 X-1.7350 Y-21.9310
G01 X-2.5947 Y-21.8459
G01 X-3.4504 Y-21.7272
G01 X-4.3007 Y-21.5750
G01 X-5.1444 Y-21.3895
G01 X-5.9802 Y-21.1711
G01 X-6.8068 Y-20.9200
G01 X-7.6228 Y-20.6366
G01 X-8.4271 Y-20.3214
G01 X-9.2185 Y-19.9749
G01 X-9.9956 Y-19.5976
G01 X-10.7573 Y-19.1901
G01 X-11.5024 Y-18.7530
G01 X-12.2297 Y-18.2869
G01 X-12.9383 Y-17.7927
G01 X-13.6268 Y-17.2710
G01 X-14.2944 Y-16.7227
G01 X-14.9399 Y-16.1486
G01 X-15.5623 Y-15.5496
G01 Z-11.0000 F120
G01 X-16.1608 Y-14.9267 F360
G01 X-16.7344 Y-14.2807
G01 X-17.2821 Y-13.6127
G01 X-17.8032 Y-12.9237
G01 X-18.2969 Y-12.2148
G01 X-18.7623 Y-11.4870
G01 X-19.1989 Y-10.7416
G01 X-19.6058 Y-9.9796
G01 X-19.9825 Y-9.2021
G01 X-20.3283 Y-8.4105
G01 X-20.6428 Y-7.6060
G01 X-20.9255 Y-6.7897
G01 X-21.1760 Y-5.9629
G01 X-21.3937 Y-5.1269
G01 X-21.5785 Y-4.2831
G01 X-21.7300 Y-3.4326
G01 X-21.8481 Y-2.5768
G01 X-21.9324 Y-1.7171
G01 X-21.9829 Y-0.8547
G01 X-21.9995 Y0.0090
G01 X-21.9822 Y0.8727
G01 X-21.9310 Y1.7350
G01 X-21.8459 Y2.5947
G01 X-21.7272 Y3.4504
G01 X-21.5750 Y4.3007
G01 X-21.3895 Y5.1444
G01 X-21.1711 Y5.9802
G01 X-20.9200 Y6.8068
G01 X-20.6366 Y7.6228
G01 X-20.3214 Y8.4271
G01 X-19.9749 Y9.2185
G01 X-19.5976 Y9.9956
G01 X-19.1901 Y10.7573
G01 X-18.7530 Y11.5024
G01 X-18.2869 Y12.2297
G01 X-17.7927 Y12.9383
G01 X-17.2710 Y13.6268
G01 X-16.7227 Y14.2944
G01 X-16.1486 Y14.9399
G01 X-15.5496 Y15.5623
G01 X-14.9267 Y16.1608
G01 X-14.2807 Y16.7344
G01 X-13.6127 Y17.2821
G01 X-12.9237 Y17.8032
G01 X-12.2148 Y18.2969
G01 X-11.4870 Y18.7623
G01 X-10.7416 Y19.1989
G01 X-9.9796 Y19.6058
G01 X-9.2021 Y19.9825
G01 X-8.4105 Y20.3283
G01 X-7.6060 Y20.6428
G01 X-6.7897 Y20.9255
G01 X-5.9629 Y21.1760
G01 X-5.1269 Y21.3937
G01 X-4.2831 Y21.5785
G01 X-3.4326 Y21.7300
G01 X-2.5768 Y21.8481
G01 X-1.7171 Y21.9324
G01 X-0.8547 Y21.9829
G01 X0.0090 Y21.9995
G01 X0.8727 Y21.9822
G01 X1.7350 Y21.9310
G01 X2.5947 Y21.8459
G01 X3.4504 Y21.7272
G01 X4.3007 Y21.5750
G01 X5.1444 Y21.3895
G01 X5.9802 Y21.1711
G01 X6.8068 Y20.9200
G01 X7.6228 Y20.6366
G01 X8.4271 Y20.3214
G01 X9.2185 Y19.9749
G01 X9.9956 Y19.5976
G01 X10.7573 Y19.1901
G01 X11.5024 Y18.7530
G01 X12.2297 Y18.2869
G01 X12.9383 Y17.7927
G01 X13.6268 Y17.2710
G01 X14.2944 Y16.7227
G01 X14.9399 Y16.1486
G01 X15.5623 Y15.5496
G01 X16.1608 Y14.9267
G01 X16.7344 Y14.2807
G01 X17.2821 Y13.6127
G01 X17.8032 Y12.9237
G01 X18.2969 Y12.2148
G01 X18.7623 Y11.4870
G01 X19.1989 Y10.7416
G01 X19.6058 Y9.9796
G01 X19.9825 Y9.2021
G01 X20.3283 Y8.4105
G01 X20.6428 Y7.6060
G01 X20.9255 Y6.7897
G01 X21.1760 Y5.9629
G01 X21.3937 Y5.1269
G01 X21.5785 Y4.2831
G01 X21.7300 Y3.4326
G01 X21.8481 Y2.5768
G01 X21.9324 Y1.7171
G01 X21.9829 Y0.8547
G01 X21.9995 Y-0.0090
G01 X21.9822 Y-0.8727
G01 X21.9310 Y-1.7350
G01 X21.8459 Y-2.5947
G01 X21.7272 Y-3.4504
G01 X21.5750 Y-4.3007
G01 X21.3895 Y-5.1444
G01 X21.1711 Y-5.9802
G01 X20.9200 Y-6.8068
G01 X20.6366 Y-7.6228
G01 X20.3214 Y-8.4271
G01 X19.9749 Y-9.2185
G01 X19.5976 Y-9.9956
G01 X19.1901 Y-10.7573
G01 X18.7530 Y-11.5024
G01 X18.2869 Y-12.2297
G01 X17.7927 Y-12.9383
G01 X17.2710 Y-13.6268
G01 X16.7227 Y-14.2944
G01 X16.1486 Y-14.9399
G01 X15.5496 Y-15.5623
G01 X14.9267 Y-16.1608
G01 X14.2807 Y-16.7344
G01 X13.6127 Y-17.2821
G01 X12.9237 Y-17.8032
G01 X12.2148 Y-18.2969
G01 X11.4870 Y-18.7623
G01 X10.7416 Y-19.1989
G01 X9.9796 Y-19.6058
G01 X9.2021 Y-19.9825
G01 X8.4105 Y-20.3283
G01 X7.6060 Y-20.6428
G01 X6.7897 Y-20.9255
G01 X5.9629 Y-21.1760
G01 X5.1269 Y-21.3937
G01 X4.2831 Y-21.5785
G01 X3.4326 Y-21.7300
G01 X2.5768 Y-21.8481
G01 X1.7171 Y-21.9324
G01 X0.8547 Y-21.9829
G01 X-0.0090 Y-21.9995
G01 X-0.8727 Y-21.9822
G01 X-1.7350 Y-21.9310
G01 X-2.5947 Y-21.8459
G01 X-3.4504 Y-21.7272
G01 X-4.3007 Y-21.5750
G01 X-5.1444 Y-21.3895
G01 X-5.9802 Y-21.1711
G01 X-6.8068 Y-20.9200
G01 X-7.6228 Y-20.6366
G01 X-8.4271 Y-20.3214
G01 X-9.2185 Y-19.9749
G01 X-9.9956 Y-19.5976
G01 X-10.7573 Y-19.1901
G01 X-11.5024 Y-18.7530
G01 X-12.2297 Y-18.2869
G01 X-12.9383 Y-17.7927
G01 X-13.6268 Y-17.2710
G01 X-14.2944 Y-16.7227
G01 X-14.9399 Y-16.1486
G01 X-15.5623 Y-15.5496
G01 Z-12.0000 F120
G01 X-16.1608 Y-14.9267 F360
G01 X-16.7344 Y-14.2807
G01 X-17.2821 Y-13.6127
G01 X-17.8032 Y-12.9237
G01 X-18.2969 Y-12.2148
G01 X-18.7623 Y-11.4870
G01 X-19.1989 Y-10.7416
G01 X-19.6058 Y-9.9796
G01 X-19.9825 Y-9.2021
G01 X-20.3283 Y-8.4105
G01 X-20.6428 Y-7.6060
G01 X-20.9255 Y-6.7897
G01 X-21.1760 Y-5.9629
G01 X-21.3937 Y-5.1269
G01 X-21.5785 Y-4.2831
G01 X-21.7300 Y-3.4326
G01 X-21.8481 Y-2.5768
G01 X-21.9324 Y-1.7171
G01 X-21.9829 Y-0.8547
G01 X-21.9995 Y0.0090
G01 X-21.9822 Y0.8727
G01 X-21.9310 Y1.7350
G01 X-21.8459 Y2.5947
G01 X-21.7272 Y3.4504
G01 X-21.5750 Y4.3007
G01 X-21.3895 Y5.1444
G01 X-21.1711 Y5.9802
G01 X-20.9200 Y6.8068
G01 X-20.6366 Y7.6228
G01 X-20.3214 Y8.4271
G01 X-19.9749 Y9.2185
G01 X-19.5976 Y9.9956
G01 X-19.1901 Y10.7573
G01 X-18.7530 Y11.5024
G01 X-18.2869 Y12.2297
G01 X-17.7927 Y12.9383
G01 X-17.2710 Y13.6268
G01 X-16.7227 Y14.2944
G01 X-16.1486 Y14.9399
G01 X-15.5496 Y15.5623
G01 X-14.9267 Y16.1608
G01 X-14.2807 Y16.7344
G01 X-13.6127 Y17.2821
G01 X-12.9237 Y17.8032
G01 X-12.2148 Y18.2969
G01 X-11.4870 Y18.7623
G01 X-10.7416 Y19.1989
G01 X-9.9796 Y19.6058
G01 X-9.2021 Y19.9825
G01 X-8.4105 Y20.3283
G01 X-7.6060 Y20.6428
G01 X-6.7897 Y20.9255
G01 X-5.9629 Y21.1760
G01 X-5.1269 Y21.3937
G01 X-4.2831 Y21.5785
G01 X-3.4326 Y21.7300
G01 X-2.5768 Y21.8481
G01 X-1.7171 Y21.9324
G01 X-0.8547 Y21.9829
G01 X0.0090 Y21.9995
G01 X0.8727 Y21.9822
G01 X1.7350 Y21.9310
G01 X2.5947 Y21.8459
G01 X3.4504 Y21.7272
G01 X4.3007 Y21.5750
G01 X5.1444 Y21.3895
G01 X5.9802 Y21.1711
G01 X6.8068 Y20.9200
G01 X7.6228 Y20.6366
G01 X8.4271 Y20.3214
G01 X9.2185 Y19.9749
G01 X9.9956 Y19.5976
G01 X10.7573 Y19.1901
G01 X11.5024 Y18.7530
G01 X12.2297 Y18.2869
G01 X12.9383 Y17.7927
G01 X13.6268 Y17.2710
G01 X14.2944 Y16.7227
G01 X14.9399 Y16.1486
G01 X15.5623 Y15.5496
G01 X16.1608 Y14.9267
G01 X16.7344 Y14.2807
G01 X17.2821 Y13.6127
G01 X17.8032 Y12.9237
G01 X18.2969 Y12.2148
G01 X18.7623 Y11.4870
G01 X19.1989 Y10.7416
G01 X19.6058 Y9.9796
G01 X19.9825 Y9.2021
G01 X20.3283 Y8.4105
G01 X20.6428 Y7.6060
G01 X20.9255 Y6.7897
G01 X21.1760 Y5.9629
G01 X21.3937 Y5.1269
G01 X21.5785 Y4.2831
G01 X21.7300 Y3.4326
G01 X21.8481 Y2.5768
G01 X21.9324 Y1.7171
G01 X21.9829 Y0.8547
G01 X21.9995 Y-0.0090
G01 X21.9822 Y-0.8727
G01 X21.9310 Y-1.7350
G01 X21.8459 Y-2.5947
G01 X21.7272 Y-3.4504
G01 X21.5750 Y-4.3007
G01 X21.3895 Y-5.1444
G01 X21.1711 Y-5.9802
G01 X20.9200 Y-6.8068
G01 X20.6366 Y-7.6228
G01 X20.3214 Y-8.4271
G01 X19.9749 Y-9.2185
G01 X19.5976 Y-9.9956
G01 X19.1901 Y-10.7573
G01 X18.7530 Y-11.5024
G01 X18.2869 Y-12.2297
G01 X17.7927 Y-12.9383
G01 X17.2710 Y-13.6268
G01 X16.7227 Y-14.2944
G01 X16.1486 Y-14.9399
G01 X15.5496 Y-15.5623
G01 X14.9267 Y-16.1608
G01 X14.2807 Y-16.7344
G01 X13.6127 Y-17.2821
G01 X12.9237 Y-17.8032
G01 X12.2148 Y-18.2969
G01 X11.4870 Y-18.7623
G01 X10.7416 Y-19.1989
G01 X9.9796 Y-19.6058
G01 X9.2021 Y-19.9825
G01 X8.4105 Y-20.3283
G01 X7.6060 Y-20.6428
G01 X6.7897 Y-20.9255
G01 X5.9629 Y-21.1760
G01 X5.1269 Y-21.3937
G01 X4.2831 Y-21.5785
G01 X3.4326 Y-21.7300
G01 X2.5768 Y-21.8481
G01 X1.7171 Y-21.9324
G01 X0.8547 Y-21.9829
G01 X-0.0090 Y-21.9995
G01 X-0.8727 Y-21.9822
G01 X-1.7350 Y-21.9310
G01 X-2.5947 Y-21.8459
G01 X-3.4504 Y-21.7272
G01 X-4.3007 Y-21.5750
G01 X-5.1444 Y-21.3895
G01 X-5.9802 Y-21.1711
G01 X-6.8068 Y-20.9200
G01 X-7.6228 Y-20.6366
G01 X-8.4271 Y-20.3214
G01 X-9.2185 Y-19.9749
G01 X-9.9956 Y-19.5976
G01 X-10.7573 Y-19.1901
G01 X-11.5024 Y-18.7530
G01 X-12.2297 Y-18.2869
G01 X-12.9383 Y-17.7927
G01 X-13.6268 Y-17.2710
G01 X-14.2944 Y-16.7227
G01 X-14.9399 Y-16.1486
G01 X-15.5623 Y-15.5496
G00 Z1.0000 F500


;No. 3: Hole 11
G00 X-16.5941 Y-15.9253 Z1.0000 F3000
G00 Z0.5000 F500
G01 Z-1.0000 F120
G01 X-17.2065 Y-15.2615 F360
G01 X-17.7924 Y-14.5742
G01 X-18.3509 Y-13.8644
G01 X-18.8810 Y-13.1333
G01 X-19.3821 Y-12.3819
G01 X-19.8533 Y-11.6114
G01 X-20.2938 Y-10.8230
G01 X-20.7031 Y-10.0180
G01 X-21.0804 Y-9.1974
G01 X-21.4253 Y-8.3627
G01 X-21.7371 Y-7.5151
G01 X-22.0153 Y-6.6560
G01 X-22.2597 Y-5.7865
G01 X-22.4697 Y-4.9081
G01 X-22.6451 Y-4.0222
G01 X-22.7855 Y-3.1300
G01 X-22.8908 Y-2.2331
G01 X-22.9609 Y-1.3327
G01 X-22.9955 Y-0.4302
G01 X-22.9946 Y0.4729
G01 X-22.9583 Y1.3753
G01 X-22.8866 Y2.2756
G01 X-22.7797 Y3.1724
G01 X-22.6376 Y4.0643
G01 X-22.4605 Y4.9499
G01 X-22.2489 Y5.8279
G01 X-22.0029 Y6.6968
G01 X-21.7231 Y7.5555
G01 X-21.4097 Y8.4025
G01 X-21.0633 Y9.2366
G01 X-20.6844 Y10.0564
G01 X-20.2737 Y10.8607
G01 X-19.8316 Y11.6483
G01 X-19.3590 Y12.4179
G01 X-18.8566 Y13.1684
G01 X-18.3251 Y13.8985
G01 X-17.7653 Y14.6072
G01 X-17.1781 Y15.2934
G01 X-16.5645 Y15.9561
G01 X-15.9253 Y16.5941
G01 X-15.2615 Y17.2065
G01 X-14.5742 Y17.7924
G01 X-13.8644 Y18.3509
G01 X-13.1333 Y18.8810
G01 X-12.3819 Y19.3821
G01 X-11.6114 Y19.8533
G01 X-10.8230 Y20.2938
G01 X-10.0180 Y20.7031
G01 X-9.1974 Y21.0804
G01 X-8.3627 Y21.4253
G01 X-7.5151 Y21.7371
G01 X-6.6560 Y22.0153
G01 X-5.7865 Y22.2597
G01 X-4.9081 Y22.4697
G01 X-4.0222 Y22.6451
G01 X-3.1300 Y22.7855
G01 X-2.2331 Y22.8908
G01 X-1.3327 Y22.9609
G01 X-0.4302 Y22.9955
G01 X0.4729 Y22.9946
G01 X1.3753 Y22.9583
G01 X2.2756 Y22.8866
G01 X3.1724 Y22.7797
G01 X4.0643 Y22.6376
G01 X4.9499 Y22.4605
G01 X5.8279 Y22.2489
G01 X6.6968 Y22.0029
G01 X7.5555 Y21.7231
G01 X8.4025 Y21.4097
G01 X9.2366 Y21.0633
G01 X10.0564 Y20.6844
G01 X10.8607 Y20.2737
G01 X11.6483 Y19.8316
G01 X12.4179 Y19.3590
G01 X13.1684 Y18.8566
G01 X13.8985 Y18.3251
G01 X14.6072 Y17.7653
G01 X15.2934 Y17.1781
G01 X15.9561 Y16.5645
G01 X16.5941 Y15.9253
G01 X17.2065 Y15.2615
G01 X17.7924 Y14.5742
G01 X18.3509 Y13.8644
G01 X18.8810 Y13.1333
G01 X19.3821 Y12.3819
G01 X19.8533 Y11.6114
G01 X20.2938 Y10.8230
G01 X20.7031 Y10.0180
G01 X21.0804 Y9.1974
G01 X21.4253 Y8.3627
G01 X21.7371 Y7.5151
G01 X22.0153 Y6.6560
G01 X22.2597 Y5.7865
G01 X22.4697 Y4.9081
G01 X22.6451 Y4.0222
G01 X22.7855 Y3.1300
G01 X22.8908 Y2.2331
G01 X22.9609 Y1.3327
G01 X22.9955 Y0.4302
G01 X22.9946 Y-0.4729
G01 X22.9583 Y-1.3753
G01 X22.8866 Y-2.2756
G01 X22.7797 Y-3.1724
G01 X22.6376 Y-4.0643
G01 X22.4605 Y-4.9499
G01 X22.2489 Y-5.8279
G01 X22.0029 Y-6.6968
G01 X21.7231 Y-7.5555
G01 X21.4097 Y-8.4025
G01 X21.0633 Y-9.2366
G01 X20.6844 Y-10.0564
G01 X20.2737 Y-10.8607
G01 X19.8316 Y-11.6483
G01 X19.3590 Y-12.4179
G01 X18.8566 Y-13.1684
G01 X18.3251 Y-13.8985
G01 X17.7653 Y-14.6072
G01 X17.1781 Y-15.2934
G01 X16.5645 Y-15.9561
G01 X15.9253 Y-16.5941
G01 X15.2615 Y-17.2065
G01 X14.5742 Y-17.7924
G01 X13.8644 Y-18.3509
G01 X13.1333 Y-18.8810
G01 X12.3819 Y-19.3821
G01 X11.6114 Y-19.8533
G01 X10.8230 Y-20.2938
G01 X10.0180 Y-20.7031
G01 X9.1974 Y-21.0804
G01 X8.3627 Y-21.4253
G01 X7.5151 Y-21.7371
G01 X6.6560 Y-22.0153
G01 X5.7865 Y-22.2597
G01 X4.9081 Y-22.4697
G01 X4.0222 Y-22.6451
G01 X3.1300 Y-22.7855
G01 X2.2331 Y-22.8908
G01 X1.3327 Y-22.9609
G01 X0.4302 Y-22.9955
G01 X-0.4729 Y-22.9946
G01 X-1.3753 Y-22.9583
G01 X-2.2756 Y-22.8866
G01 X-3.1724 Y-22.7797
G01 X-4.0643 Y-22.6376
G01 X-4.9499 Y-22.4605
G01 X-5.8279 Y-22.2489
G01 X-6.6968 Y-22.0029
G01 X-7.5555 Y-21.7231
G01 X-8.4025 Y-21.4097
G01 X-9.2366 Y-21.0633
G01 X-10.0564 Y-20.6844
G01 X-10.8607 Y-20.2737
G01 X-11.6483 Y-19.8316
G01 X-12.4179 Y-19.3590
G01 X-13.1684 Y-18.8566
G01 X-13.8985 Y-18.3251
G01 X-14.6072 Y-17.7653
G01 X-15.2934 Y-17.1781
G01 X-15.9561 Y-16.5645
G01 X-16.5941 Y-15.9253
G01 Z-2.0000 F120
G01 X-17.2065 Y-15.2615 F360
G01 X-17.7924 Y-14.5742
G01 X-18.3509 Y-13.8644
G01 X-18.8810 Y-13.1333
G01 X-19.3821 Y-12.3819
G01 X-19.8533 Y-11.6114
G01 X-20.2938 Y-10.8230
G01 X-20.7031 Y-10.0180
G01 X-21.0804 Y-9.1974
G01 X-21.4253 Y-8.3627
G01 X-21.7371 Y-7.5151
G01 X-22.0153 Y-6.6560
G01 X-22.2597 Y-5.7865
G01 X-22.4697 Y-4.9081
G01 X-22.6451 Y-4.0222
G01 X-22.7855 Y-3.1300
G01 X-22.8908 Y-2.2331
G01 X-22.9609 Y-1.3327
G01 X-22.9955 Y-0.4302
G01 X-22.9946 Y0.4729
G01 X-22.9583 Y1.3753
G01 X-22.8866 Y2.2756
G01 X-22.7797 Y3.1724
G01 X-22.6376 Y4.0643
G01 X-22.4605 Y4.9499
G01 X-22.2489 Y5.8279
G01 X-22.0029 Y6.6968
G01 X-21.7231 Y7.5555
G01 X-21.4097 Y8.4025
G01 X-21.0633 Y9.2366
G01 X-20.6844 Y10.0564
G01 X-20.2737 Y10.8607
G01 X-19.8316 Y11.6483
G01 X-19.3590 Y12.4179
G01 X-18.8566 Y13.1684
G01 X-18.3251 Y13.8985
G01 X-17.7653 Y14.6072
G01 X-17.1781 Y15.2934
G01 X-16.5645 Y15.9561
G01 X-15.9253 Y16.5941
G01 X-15.2615 Y17.2065
G01 X-14.5742 Y17.7924
G01 X-13.8644 Y18.3509
G01 X-13.1333 Y18.8810
G01 X-12.3819 Y19.3821
G01 X-11.6114 Y19.8533
G01 X-10.8230 Y20.2938
G01 X-10.0180 Y20.7031
G01 X-9.1974 Y21.0804
G01 X-8.3627 Y21.4253
G01 X-7.5151 Y21.7371
G01 X-6.6560 Y22.0153
G01 X-5.7865 Y22.2597
G01 X-4.9081 Y22.4697
G01 X-4.0222 Y22.6451
G01 X-3.1300 Y22.7855
G01 X-2.2331 Y22.8908
G01 X-1.3327 Y22.9609
G01 X-0.4302 Y22.9955
G01 X0.4729 Y22.9946
G01 X1.3753 Y22.9583
G01 X2.2756 Y22.8866
G01 X3.1724 Y22.7797
G01 X4.0643 Y22.6376
G01 X4.9499 Y22.4605
G01 X5.8279 Y22.2489
G01 X6.6968 Y22.0029
G01 X7.5555 Y21.7231
G01 X8.4025 Y21.4097
G01 X9.2366 Y21.0633
G01 X10.0564 Y20.6844
G01 X10.8607 Y20.2737
G01 X11.6483 Y19.8316
G01 X12.4179 Y19.3590
G01 X13.1684 Y18.8566
G01 X13.8985 Y18.3251
G01 X14.6072 Y17.7653
G01 X15.2934 Y17.1781
G01 X15.9561 Y16.5645
G01 X16.5941 Y15.9253
G01 X17.2065 Y15.2615
G01 X17.7924 Y14.5742
G01 X18.3509 Y13.8644
G01 X18.8810 Y13.1333
G01 X19.3821 Y12.3819
G01 X19.8533 Y11.6114
G01 X20.2938 Y10.8230
G01 X20.7031 Y10.0180
G01 X21.0804 Y9.1974
G01 X21.4253 Y8.3627
G01 X21.7371 Y7.5151
G01 X22.0153 Y6.6560
G01 X22.2597 Y5.7865
G01 X22.4697 Y4.9081
G01 X22.6451 Y4.0222
G01 X22.7855 Y3.1300
G01 X22.8908 Y2.2331
G01 X22.9609 Y1.3327
G01 X22.9955 Y0.4302
G01 X22.9946 Y-0.4729
G01 X22.9583 Y-1.3753
G01 X22.8866 Y-2.2756
G01 X22.7797 Y-3.1724
G01 X22.6376 Y-4.0643
G01 X22.4605 Y-4.9499
G01 X22.2489 Y-5.8279
G01 X22.0029 Y-6.6968
G01 X21.7231 Y-7.5555
G01 X21.4097 Y-8.4025
G01 X21.0633 Y-9.2366
G01 X20.6844 Y-10.0564
G01 X20.2737 Y-10.8607
G01 X19.8316 Y-11.6483
G01 X19.3590 Y-12.4179
G01 X18.8566 Y-13.1684
G01 X18.3251 Y-13.8985
G01 X17.7653 Y-14.6072
G01 X17.1781 Y-15.2934
G01 X16.5645 Y-15.9561
G01 X15.9253 Y-16.5941
G01 X15.2615 Y-17.2065
G01 X14.5742 Y-17.7924
G01 X13.8644 Y-18.3509
G01 X13.1333 Y-18.8810
G01 X12.3819 Y-19.3821
G01 X11.6114 Y-19.8533
G01 X10.8230 Y-20.2938
G01 X10.0180 Y-20.7031
G01 X9.1974 Y-21.0804
G01 X8.3627 Y-21.4253
G01 X7.5151 Y-21.7371
G01 X6.6560 Y-22.0153
G01 X5.7865 Y-22.2597
G01 X4.9081 Y-22.4697
G01 X4.0222 Y-22.6451
G01 X3.1300 Y-22.7855
G01 X2.2331 Y-22.8908
G01 X1.3327 Y-22.9609
G01 X0.4302 Y-22.9955
G01 X-0.4729 Y-22.9946
G01 X-1.3753 Y-22.9583
G01 X-2.2756 Y-22.8866
G01 X-3.1724 Y-22.7797
G01 X-4.0643 Y-22.6376
G01 X-4.9499 Y-22.4605
G01 X-5.8279 Y-22.2489
G01 X-6.6968 Y-22.0029
G01 X-7.5555 Y-21.7231
G01 X-8.4025 Y-21.4097
G01 X-9.2366 Y-21.0633
G01 X-10.0564 Y-20.6844
G01 X-10.8607 Y-20.2737
G01 X-11.6483 Y-19.8316
G01 X-12.4179 Y-19.3590
G01 X-13.1684 Y-18.8566
G01 X-13.8985 Y-18.3251
G01 X-14.6072 Y-17.7653
G01 X-15.2934 Y-17.1781
G01 X-15.9561 Y-16.5645
G01 X-16.5941 Y-15.9253
G01 Z-3.0000 F120
G01 X-17.2065 Y-15.2615 F360
G01 X-17.7924 Y-14.5742
G01 X-18.3509 Y-13.8644
G01 X-18.8810 Y-13.1333
G01 X-19.3821 Y-12.3819
G01 X-19.8533 Y-11.6114
G01 X-20.2938 Y-10.8230
G01 X-20.7031 Y-10.0180
G01 X-21.0804 Y-9.1974
G01 X-21.4253 Y-8.3627
G01 X-21.7371 Y-7.5151
G01 X-22.0153 Y-6.6560
G01 X-22.2597 Y-5.7865
G01 X-22.4697 Y-4.9081
G01 X-22.6451 Y-4.0222
G01 X-22.7855 Y-3.1300
G01 X-22.8908 Y-2.2331
G01 X-22.9609 Y-1.3327
G01 X-22.9955 Y-0.4302
G01 X-22.9946 Y0.4729
G01 X-22.9583 Y1.3753
G01 X-22.8866 Y2.2756
G01 X-22.7797 Y3.1724
G01 X-22.6376 Y4.0643
G01 X-22.4605 Y4.9499
G01 X-22.2489 Y5.8279
G01 X-22.0029 Y6.6968
G01 X-21.7231 Y7.5555
G01 X-21.4097 Y8.4025
G01 X-21.0633 Y9.2366
G01 X-20.6844 Y10.0564
G01 X-20.2737 Y10.8607
G01 X-19.8316 Y11.6483
G01 X-19.3590 Y12.4179
G01 X-18.8566 Y13.1684
G01 X-18.3251 Y13.8985
G01 X-17.7653 Y14.6072
G01 X-17.1781 Y15.2934
G01 X-16.5645 Y15.9561
G01 X-15.9253 Y16.5941
G01 X-15.2615 Y17.2065
G01 X-14.5742 Y17.7924
G01 X-13.8644 Y18.3509
G01 X-13.1333 Y18.8810
G01 X-12.3819 Y19.3821
G01 X-11.6114 Y19.8533
G01 X-10.8230 Y20.2938
G01 X-10.0180 Y20.7031
G01 X-9.1974 Y21.0804
G01 X-8.3627 Y21.4253
G01 X-7.5151 Y21.7371
G01 X-6.6560 Y22.0153
G01 X-5.7865 Y22.2597
G01 X-4.9081 Y22.4697
G01 X-4.0222 Y22.6451
G01 X-3.1300 Y22.7855
G01 X-2.2331 Y22.8908
G01 X-1.3327 Y22.9609
G01 X-0.4302 Y22.9955
G01 X0.4729 Y22.9946
G01 X1.3753 Y22.9583
G01 X2.2756 Y22.8866
G01 X3.1724 Y22.7797
G01 X4.0643 Y22.6376
G01 X4.9499 Y22.4605
G01 X5.8279 Y22.2489
G01 X6.6968 Y22.0029
G01 X7.5555 Y21.7231
G01 X8.4025 Y21.4097
G01 X9.2366 Y21.0633
G01 X10.0564 Y20.6844
G01 X10.8607 Y20.2737
G01 X11.6483 Y19.8316
G01 X12.4179 Y19.3590
G01 X13.1684 Y18.8566
G01 X13.8985 Y18.3251
G01 X14.6072 Y17.7653
G01 X15.2934 Y17.1781
G01 X15.9561 Y16.5645
G01 X16.5941 Y15.9253
G01 X17.2065 Y15.2615
G01 X17.7924 Y14.5742
G01 X18.3509 Y13.8644
G01 X18.8810 Y13.1333
G01 X19.3821 Y12.3819
G01 X19.8533 Y11.6114
G01 X20.2938 Y10.8230
G01 X20.7031 Y10.0180
G01 X21.0804 Y9.1974
G01 X21.4253 Y8.3627
G01 X21.7371 Y7.5151
G01 X22.0153 Y6.6560
G01 X22.2597 Y5.7865
G01 X22.4697 Y4.9081
G01 X22.6451 Y4.0222
G01 X22.7855 Y3.1300
G01 X22.8908 Y2.2331
G01 X22.9609 Y1.3327
G01 X22.9955 Y0.4302
G01 X22.9946 Y-0.4729
G01 X22.9583 Y-1.3753
G01 X22.8866 Y-2.2756
G01 X22.7797 Y-3.1724
G01 X22.6376 Y-4.0643
G01 X22.4605 Y-4.9499
G01 X22.2489 Y-5.8279
G01 X22.0029 Y-6.6968
G01 X21.7231 Y-7.5555
G01 X21.4097 Y-8.4025
G01 X21.0633 Y-9.2366
G01 X20.6844 Y-10.0564
G01 X20.2737 Y-10.8607
G01 X19.8316 Y-11.6483
G01 X19.3590 Y-12.4179
G01 X18.8566 Y-13.1684
G01 X18.3251 Y-13.8985
G01 X17.7653 Y-14.6072
G01 X17.1781 Y-15.2934
G01 X16.5645 Y-15.9561
G01 X15.9253 Y-16.5941
G01 X15.2615 Y-17.2065
G01 X14.5742 Y-17.7924
G01 X13.8644 Y-18.3509
G01 X13.1333 Y-18.8810
G01 X12.3819 Y-19.3821
G01 X11.6114 Y-19.8533
G01 X10.8230 Y-20.2938
G01 X10.0180 Y-20.7031
G01 X9.1974 Y-21.0804
G01 X8.3627 Y-21.4253
G01 X7.5151 Y-21.7371
G01 X6.6560 Y-22.0153
G01 X5.7865 Y-22.2597
G01 X4.9081 Y-22.4697
G01 X4.0222 Y-22.6451
G01 X3.1300 Y-22.7855
G01 X2.2331 Y-22.8908
G01 X1.3327 Y-22.9609
G01 X0.4302 Y-22.9955
G01 X-0.4729 Y-22.9946
G01 X-1.3753 Y-22.9583
G01 X-2.2756 Y-22.8866
G01 X-3.1724 Y-22.7797
G01 X-4.0643 Y-22.6376
G01 X-4.9499 Y-22.4605
G01 X-5.8279 Y-22.2489
G01 X-6.6968 Y-22.0029
G01 X-7.5555 Y-21.7231
G01 X-8.4025 Y-21.4097
G01 X-9.2366 Y-21.0633
G01 X-10.0564 Y-20.6844
G01 X-10.8607 Y-20.2737
G01 X-11.6483 Y-19.8316
G01 X-12.4179 Y-19.3590
G01 X-13.1684 Y-18.8566
G01 X-13.8985 Y-18.3251
G01 X-14.6072 Y-17.7653
G01 X-15.2934 Y-17.1781
G01 X-15.9561 Y-16.5645
G01 X-16.5941 Y-15.9253
G01 Z-4.0000 F120
G01 X-17.2065 Y-15.2615 F360
G01 X-17.7924 Y-14.5742
G01 X-18.3509 Y-13.8644
G01 X-18.8810 Y-13.1333
G01 X-19.3821 Y-12.3819
G01 X-19.8533 Y-11.6114
G01 X-20.2938 Y-10.8230
G01 X-20.7031 Y-10.0180
G01 X-21.0804 Y-9.1974
G01 X-21.4253 Y-8.3627
G01 X-21.7371 Y-7.5151
G01 X-22.0153 Y-6.6560
G01 X-22.2597 Y-5.7865
G01 X-22.4697 Y-4.9081
G01 X-22.6451 Y-4.0222
G01 X-22.7855 Y-3.1300
G01 X-22.8908 Y-2.2331
G01 X-22.9609 Y-1.3327
G01 X-22.9955 Y-0.4302
G01 X-22.9946 Y0.4729
G01 X-22.9583 Y1.3753
G01 X-22.8866 Y2.2756
G01 X-22.7797 Y3.1724
G01 X-22.6376 Y4.0643
G01 X-22.4605 Y4.9499
G01 X-22.2489 Y5.8279
G01 X-22.0029 Y6.6968
G01 X-21.7231 Y7.5555
G01 X-21.4097 Y8.4025
G01 X-21.0633 Y9.2366
G01 X-20.6844 Y10.0564
G01 X-20.2737 Y10.8607
G01 X-19.8316 Y11.6483
G01 X-19.3590 Y12.4179
G01 X-18.8566 Y13.1684
G01 X-18.3251 Y13.8985
G01 X-17.7653 Y14.6072
G01 X-17.1781 Y15.2934
G01 X-16.5645 Y15.9561
G01 X-15.9253 Y16.5941
G01 X-15.2615 Y17.2065
G01 X-14.5742 Y17.7924
G01 X-13.8644 Y18.3509
G01 X-13.1333 Y18.8810
G01 X-12.3819 Y19.3821
G01 X-11.6114 Y19.8533
G01 X-10.8230 Y20.2938
G01 X-10.0180 Y20.7031
G01 X-9.1974 Y21.0804
G01 X-8.3627 Y21.4253
G01 X-7.5151 Y21.7371
G01 X-6.6560 Y22.0153
G01 X-5.7865 Y22.2597
G01 X-4.9081 Y22.4697
G01 X-4.0222 Y22.6451
G01 X-3.1300 Y22.7855
G01 X-2.2331 Y22.8908
G01 X-1.3327 Y22.9609
G01 X-0.4302 Y22.9955
G01 X0.4729 Y22.9946
G01 X1.3753 Y22.9583
G01 X2.2756 Y22.8866
G01 X3.1724 Y22.7797
G01 X4.0643 Y22.6376
G01 X4.9499 Y22.4605
G01 X5.8279 Y22.2489
G01 X6.6968 Y22.0029
G01 X7.5555 Y21.7231
G01 X8.4025 Y21.4097
G01 X9.2366 Y21.0633
G01 X10.0564 Y20.6844
G01 X10.8607 Y20.2737
G01 X11.6483 Y19.8316
G01 X12.4179 Y19.3590
G01 X13.1684 Y18.8566
G01 X13.8985 Y18.3251
G01 X14.6072 Y17.7653
G01 X15.2934 Y17.1781
G01 X15.9561 Y16.5645
G01 X16.5941 Y15.9253
G01 X17.2065 Y15.2615
G01 X17.7924 Y14.5742
G01 X18.3509 Y13.8644
G01 X18.8810 Y13.1333
G01 X19.3821 Y12.3819
G01 X19.8533 Y11.6114
G01 X20.2938 Y10.8230
G01 X20.7031 Y10.0180
G01 X21.0804 Y9.1974
G01 X21.4253 Y8.3627
G01 X21.7371 Y7.5151
G01 X22.0153 Y6.6560
G01 X22.2597 Y5.7865
G01 X22.4697 Y4.9081
G01 X22.6451 Y4.0222
G01 X22.7855 Y3.1300
G01 X22.8908 Y2.2331
G01 X22.9609 Y1.3327
G01 X22.9955 Y0.4302
G01 X22.9946 Y-0.4729
G01 X22.9583 Y-1.3753
G01 X22.8866 Y-2.2756
G01 X22.7797 Y-3.1724
G01 X22.6376 Y-4.0643
G01 X22.4605 Y-4.9499
G01 X22.2489 Y-5.8279
G01 X22.0029 Y-6.6968
G01 X21.7231 Y-7.5555
G01 X21.4097 Y-8.4025
G01 X21.0633 Y-9.2366
G01 X20.6844 Y-10.0564
G01 X20.2737 Y-10.8607
G01 X19.8316 Y-11.6483
G01 X19.3590 Y-12.4179
G01 X18.8566 Y-13.1684
G01 X18.3251 Y-13.8985
G01 X17.7653 Y-14.6072
G01 X17.1781 Y-15.2934
G01 X16.5645 Y-15.9561
G01 X15.9253 Y-16.5941
G01 X15.2615 Y-17.2065
G01 X14.5742 Y-17.7924
G01 X13.8644 Y-18.3509
G01 X13.1333 Y-18.8810
G01 X12.3819 Y-19.3821
G01 X11.6114 Y-19.8533
G01 X10.8230 Y-20.2938
G01 X10.0180 Y-20.7031
G01 X9.1974 Y-21.0804
G01 X8.3627 Y-21.4253
G01 X7.5151 Y-21.7371
G01 X6.6560 Y-22.0153
G01 X5.7865 Y-22.2597
G01 X4.9081 Y-22.4697
G01 X4.0222 Y-22.6451
G01 X3.1300 Y-22.7855
G01 X2.2331 Y-22.8908
G01 X1.3327 Y-22.9609
G01 X0.4302 Y-22.9955
G01 X-0.4729 Y-22.9946
G01 X-1.3753 Y-22.9583
G01 X-2.2756 Y-22.8866
G01 X-3.1724 Y-22.7797
G01 X-4.0643 Y-22.6376
G01 X-4.9499 Y-22.4605
G01 X-5.8279 Y-22.2489
G01 X-6.6968 Y-22.0029
G01 X-7.5555 Y-21.7231
G01 X-8.4025 Y-21.4097
