;Project DC-DC-Drossels-F.Cu
;Created by Estlcam version 10 build 11.006
;Machining time about 00:03:27 hours

G90
G92 X0 Y0 Z0
M03 S24000
G00 Z1.0000 F500


;No. 1: Part 11
G00 X-0.1610 Y-0.5307 F3000
G00 Z0.5000 F500
G01 Z-1.0000 F120
G01 X-0.1006 Y-0.5509
G01 X-0.0385 Y-0.5652
G01 X0.0247 Y-0.5732
G01 X0.0884 Y-0.5750
G01 X64.5820
G01 X64.7094 Y-0.5609
G01 X64.8315 Y-0.5222
G01 X64.9437 Y-0.4602
G01 X65.0416 Y-0.3774
G01 X65.1213 Y-0.2771
G01 X65.1798 Y-0.1630
G01 X65.2148 Y-0.0398
G01 X65.2250 Y0.0880
G01 Y36.0816
G01 X65.2110 Y36.2091
G01 X65.1723 Y36.3313
G01 X65.1104 Y36.4436
G01 X65.0276 Y36.5415
G01 X64.9273 Y36.6213
G01 X64.8132 Y36.6799
G01 X64.6898 Y36.7149
G01 X64.5620 Y36.7250
G01 X0.0684
G01 X-0.0513 Y36.7127
G01 X-0.1667 Y36.6785
G01 X-0.2738 Y36.6237
G01 X-0.3690 Y36.5500
G01 X-0.4490 Y36.4601
G01 X-0.5110 Y36.3569
G01 X-0.5529 Y36.2441
G01 X-0.5733 Y36.1255
G01 X-0.5750 Y36.0609
G01 X-0.5318 Y0.0063
G01 X-0.5251 Y-0.0801
G01 X-0.5056 Y-0.1645
G01 X-0.4736 Y-0.2450
G01 X-0.4299 Y-0.3198
G01 X-0.3754 Y-0.3872
G01 X-0.3115 Y-0.4457
G01 X-0.2395 Y-0.4938
G01 X-0.1610 Y-0.5307
G01 Z-1.7000
G01 X-0.1006 Y-0.5509
G01 X-0.0385 Y-0.5652
G01 X0.0247 Y-0.5732
G01 X0.0884 Y-0.5750
G01 X64.5820
G01 X64.7094 Y-0.5609
G01 X64.8315 Y-0.5222
G01 X64.9437 Y-0.4602
G01 X65.0416 Y-0.3774
G01 X65.1213 Y-0.2771
G01 X65.1798 Y-0.1630
G01 X65.2148 Y-0.0398
G01 X65.2250 Y0.0880
G01 Y36.0816
G01 X65.2110 Y36.2091
G01 X65.1723 Y36.3313
G01 X65.1104 Y36.4436
G01 X65.0276 Y36.5415
G01 X64.9273 Y36.6213
G01 X64.8132 Y36.6799
G01 X64.6898 Y36.7149
G01 X64.5620 Y36.7250
G01 X0.0684
G01 X-0.0513 Y36.7127
G01 X-0.1667 Y36.6785
G01 X-0.2738 Y36.6237
G01 X-0.3690 Y36.5500
G01 X-0.4490 Y36.4601
G01 X-0.5110 Y36.3569
G01 X-0.5529 Y36.2441
G01 X-0.5733 Y36.1255
G01 X-0.5750 Y36.0609
G01 X-0.5318 Y0.0063
G01 X-0.5251 Y-0.0801
G01 X-0.5056 Y-0.1645
G01 X-0.4736 Y-0.2450
G01 X-0.4299 Y-0.3198
G01 X-0.3754 Y-0.3872
G01 X-0.3115 Y-0.4457
G01 X-0.2395 Y-0.4938
G01 X-0.1610 Y-0.5307
G00 Z1.0000 F500
G00 X0.0000 Y0.0000 F3000

M05
