;Project DC-DC-Drossels-F.Cu
;Created by Estlcam version 10 build 11.006
;Machining time about 00:33:09 hours

G90
G92 X0 Y0 Z0
M03 S24000
G00 Z1.0000 F500


;No. 1: Part 10
G00 X-0.2770 Y0.1550 F3000
G00 Z0.5000 F500
G01 Z-0.3000 F120
G01 X15.8847
G01 X14.7521
G01 Y0.7150
G01 X-0.2776
G01 X-0.2783 Y1.2750
G01 X14.1728
G01 X1.9933
G01 Y1.8350
G01 X-0.2790
G01 X-0.2797 Y2.3950
G01 X1.4202
G01 X1.0771 Y2.9550
G01 X-0.2803
G01 X-0.2810 Y3.5150
G01 X0.8738
G01 X0.8446 Y4.0750
G01 X-0.2817
G01 X-0.2823 Y4.6350
G01 X0.8732
G01 X1.0770 Y5.1950
G01 X-0.2830
G01 X-0.2837 Y5.7550
G01 X1.4203
G01 X1.9939 Y6.3150
G01 X-0.2844
G01 X-0.2850 Y6.8750
G01 X6.3671
G01 X6.5949 Y7.4350
G01 X-0.2857
G01 X-0.2864 Y7.9950
G01 X6.5948
G01 X6.5947 Y8.5550
G01 X-0.2870
G01 X-0.2877 Y9.1150
G01 X6.5946
G01 X6.5945 Y9.6750
G01 X-0.2884
G01 X-0.2890 Y10.2350
G01 X6.5944
G01 X6.5942 Y10.7950
G01 X-0.2897
G01 X-0.2904 Y11.3550
G01 X3.2777
G01 X1.8565
G01 Y11.9150
G01 X-0.2911
G01 X-0.2917 Y12.4750
G01 X1.3538
G01 X1.0479 Y13.0350
G01 X-0.2924
G01 X-0.2931 Y13.5950
G01 X0.8523
G01 X0.8446 Y14.1550
G01 X-0.2937
G01 X-0.2944 Y14.7150
G01 X0.9023
G01 X1.0950 Y15.2750
G01 X-0.2951
G01 X-0.2958 Y15.8350
G01 X1.0950
G01 X1.0951 Y16.3950
G01 X-0.2964
G01 X-0.2971 Y16.9550
G01 X1.0951
G01 X1.0952 Y17.5150
G01 X-0.2978
G01 X-0.2984 Y18.0750
G01 X1.0952
G01 X1.0953 Y18.6350
G01 X-0.2991
G01 X-0.2998 Y19.1950
G01 X1.0953
G01 X1.0954 Y19.7550
G01 X-0.3004
G01 X-0.3011 Y20.3150
G01 X1.0954
G01 X1.0955 Y20.8750
G01 X-0.3018
G01 X-0.3025 Y21.4350
G01 X1.0955
G01 X1.0956 Y21.9950
G01 X-0.3031
G01 X-0.3038 Y22.5550
G01 X1.1688
G01 X1.3732 Y23.1150
G01 X-0.3045
G01 X-0.3051 Y23.6750
G01 X1.8143
G01 Y24.2350
G01 X2.6343
G01 X-0.3058
G01 X-0.3065 Y24.7950
G01 X6.0950
G01 X6.2416 Y24.2350
G01 X4.5167
G01 X5.3357
G01 Y23.6750
G01 X6.5127
G01 X6.5917 Y23.1150
G01 X5.7762
G01 X5.9812 Y22.5550
G01 X6.5918
G01 X6.5919 Y21.9950
G01 X6.0550
G01 Y21.4350
G01 X6.5920
G01 X6.5922 Y20.8750
G01 X6.0550
G01 Y20.3150
G01 X6.5923
G01 X6.5924 Y19.7550
G01 X6.0550
G01 Y19.1950
G01 X6.5925
G01 X6.5926 Y18.6350
G01 X6.0550
G01 Y18.0750
G01 X6.5927
G01 X6.5929 Y17.5150
G01 X6.0550
G01 Y16.9550
G01 X6.5930
G01 X6.5931 Y16.3950
G01 X6.0550
G01 Y15.8350
G01 X6.5932
G01 X6.5933 Y15.2750
G01 X6.0550
G00 Z1.0000 F500
G00 X8.1993 Y1.2750 F3000
G00 Z0.5000 F500
G01 Z-0.3000 F120
G01 Y1.8350
G01 X13.8503
G01 X13.6692 Y2.3950
G01 X8.9028
G01 X9.4621 Y2.9550
G01 X13.5950
G01 Y3.5150
G01 X10.0220
G01 X10.5819 Y4.0750
G01 X13.5950
G01 X13.6482 Y4.6350
G01 X11.1069
G01 X11.4253 Y5.1950
G01 X13.7811
G01 X14.1038 Y5.7550
G01 X11.5566
G01 X11.5549 Y6.3150
G01 X14.6082
G01 X15.0518 Y6.8750
G01 X11.5549
G01 Y7.4350
G01 X15.6352
G01 X16.1952 Y7.9950
G01 X11.5549
G01 Y8.5550
G01 X16.7552
G01 X17.3152 Y9.1150
G01 X11.5549
G01 Y9.6750
G01 X17.8752
G01 X18.4352 Y10.2350
G01 X11.5549
G01 Y10.7950
G01 X18.9952
G01 Y11.3550
G01 X11.5549
G01 X11.5550 Y11.9150
G01 X18.4352
G01 X17.8752 Y12.4750
G01 X11.5550
G01 Y13.0350
G01 X17.3152
G01 X16.7552 Y13.5950
G01 X11.5550
G01 Y14.1550
G01 X16.1952
G01 X15.6352 Y14.7150
G01 X11.5550
G01 Y15.2750
G01 X15.0514
G01 X14.6085 Y15.8350
G01 X11.5550
G01 Y16.3950
G01 X14.1039
G01 X13.7817 Y16.9550
G01 X11.5550
G01 Y17.5150
G01 X13.6480
G01 X13.5680 Y18.0750
G01 X11.5550
G01 Y18.6350
G01 X13.0428
G01 X12.7247 Y19.1950
G01 X11.5550
G01 Y19.7550
G01 X12.5939
G01 X12.5949 Y20.3150
G01 X11.5550
G01 Y20.8750
G01 X12.5943
G01 X12.5938 Y21.4350
G01 X11.5550
G01 Y21.9950
G01 X12.5932
G01 X12.5927 Y22.5550
G01 X11.5550
G01 Y23.1150
G01 X12.5921
G01 X12.5126 Y23.6750
G01 X11.6397
G00 Z1.0000 F500
G00 X6.5941 Y10.7950 F3000
G00 Z0.5000 F500
G01 Z-0.3000 F120
G01 Y11.3550
G01 X3.8708
G01 X5.2935
G01 Y11.9150
G01 X6.5940
G01 X6.5939 Y12.4750
G01 X5.7968
G01 X6.1021 Y13.0350
G01 X6.5938
G00 Z1.0000 F500
G00 X6.0950 Y24.7950 F3000
G00 Z0.5000 F500
G01 Z-0.3000 F120
G01 Y25.3550
G01 X-0.3072
G01 X-0.3078 Y25.9150
G01 X6.2418
G01 X6.5123 Y26.4750
G01 X-0.3085
G01 X-0.3092 Y27.0350
G01 X7.0120
G01 Y27.5950
G01 X-0.3098
G01 X22.2974
G01 X13.0124
G01 Y27.0350
G01 X11.1386
G01 X11.6378 Y26.4750
G01 X12.5123
G00 Z1.0000 F500
G00 X22.1819 Y27.5950 F3000
G00 Z0.5000 F500
G01 Z-0.3000 F120
G01 Y28.1550
G01 X-0.3105
G01 X-0.3112 Y28.7150
G01 X7.7189
G01 X6.8480
G01 Y29.2750
G01 X-0.3118
G01 X-0.3125 Y29.8350
G01 X2.4948
G01 X1.7475
G01 Y30.3950
G01 X-0.3132
G01 X-0.3139 Y30.9550
G01 X1.3435
G01 X1.1396 Y31.5150
G01 X-0.3145
G01 X-0.3152 Y32.0750
G01 X1.0950
G01 X1.1396 Y32.6350
G01 X-0.3159
G01 X-0.3165 Y33.1950
G01 X1.3435
G01 X1.7478 Y33.7550
G01 X-0.3172
G01 X-0.3179 Y34.3150
G01 X2.4948
G01 Y34.8750
G01 X-0.3186
G01 X38.0813
G01 X37.2980
G01 Y34.3150
G01 X9.1985
G01 X9.9027
G01 Y33.7550
G01 X36.7478
G01 X36.1879 Y33.1950
G01 X16.8630
G01 X23.3283
G01 Y32.6350
G01 X35.6280
G01 X35.0680 Y32.0750
G01 X23.8755
G01 X26.4846
G01 Y31.5150
G01 X34.5081
G01 X33.9482 Y30.9550
G01 X27.5017
G01 X28.0551 Y30.3950
G01 X33.4720
G01 X33.1915 Y29.8350
G01 X28.6149
G01 X29.1687 Y29.2750
G01 X33.0729
G01 X33.0951 Y28.7150
G01 X29.4705
G01 X29.5692 Y28.1550
G01 X33.0951
G01 Y27.5950
G01 X29.5550
G01 Y27.0350
G01 X33.0951
G01 X33.0950 Y26.4750
G01 X29.5550
G01 Y25.9150
G01 X33.0950
G01 Y25.3550
G01 X29.5550
G01 Y24.7950
G01 X33.0950
G01 Y24.2350
G01 X29.5550
G01 Y23.6750
G01 X33.0950
G01 Y23.1150
G01 X29.5550
G01 Y22.5550
G01 X33.0950
G01 Y21.9950
G01 X29.5550
G01 Y21.4350
G01 X33.0736
G01 X33.1806 Y20.8750
G01 X29.9770
G01 X30.2992 Y20.3150
G01 X33.4301
G01 X33.8862 Y19.7550
G01 X30.4808
G01 X30.5550 Y19.1950
G01 X34.4481
G01 X35.0080 Y18.6350
G01 X30.5550
G01 Y18.0750
G01 X35.5679
G01 X36.1278 Y17.5150
G01 X30.5018
G01 X30.3689 Y16.9550
G01 X36.6877
G01 Y16.3950
G01 X37.3646
G01 X30.0462
G01 X29.5417 Y15.8350
G01 X44.3071
G01 X44.8673 Y15.2750
G01 X28.5950
G01 Y14.7150
G01 X21.2358
G01 X45.4274
G01 X44.9314 Y14.1550
G01 X45.9876
G01 X45.5365 Y13.5950
G01 X46.5478
G01 X46.2855 Y13.0350
G01 X45.8649
G00 Z1.0000 F500
G00 X41.2182 Y14.7150 F3000
G00 Z0.5000 F500
G01 Z-0.3000 F120
G01 Y14.1550
G01 X21.7959
G01 X22.3559 Y13.5950
G01 X37.2715
G01 X36.7349 Y13.0350
G01 X33.4101
G01 X34.4849
G01 Y12.4750
G01 X36.1749
G01 X35.6149 Y11.9150
G01 X35.0351
G00 Z1.0000 F500
G00 X26.5558 Y14.7150 F3000
G00 Z0.5000 F500
G01 Z-0.3000 F120
G01 Y15.2750
G01 X20.6757
G01 X20.1157 Y15.8350
G01 X25.6089
G01 X25.1038 Y16.3950
G01 X19.5556
G01 X19.3689 Y16.9550
G01 X24.7812
G01 X24.6480 Y17.5150
G01 X19.5020
G01 X19.5550 Y18.0750
G01 X24.5950
G01 Y18.6350
G01 X19.5550
G01 Y19.1950
G01 X24.5950
G01 X24.6692 Y19.7550
G01 X19.4808
G01 X19.2992 Y20.3150
G01 X24.8504
G01 X25.1736 Y20.8750
G01 X18.9770
G01 X18.3982 Y21.4350
G01 X25.5950
G01 X25.5949 Y21.9950
G01 X17.5584
G01 X17.5567 Y22.5550
G01 X25.5948
G01 X25.5947 Y23.1150
G01 X22.9092
G01 X23.9846
G01 Y23.6750
G01 X25.5946
G01 Y24.2350
G01 X24.5349
G01 X25.0921 Y24.7950
G01 X25.5945
G00 Z1.0000 F500
G00 X13.7184 Y28.1550 F3000
G00 Z0.5000 F500
G01 Z-0.3000 F120
G01 Y28.7150
G01 X10.4311
G01 X11.3011
G01 Y29.2750
G01 X12.8483
G01 X12.3924 Y29.8350
G01 X11.7579
G00 Z1.0000 F500
G00 X16.4311 Y28.1550 F3000
G00 Z0.5000 F500
G01 Z-0.3000 F120
G01 Y28.7150
G01 X21.6343
G00 Z1.0000 F500
G00 X13.2870 Y33.7550 F3000
G00 Z0.5000 F500
G01 Z-0.3000 F120
G01 Y33.1950
G01 X10.8630
G01 X11.5029
G01 Y32.6350
G01 X12.6467
G01 X12.2996 Y32.0750
G01 X11.8504
G00 Z1.0000 F500
G00 X38.0813 Y34.8750 F3000
G00 Z0.5000 F500
G01 Z-0.3000 F120
G01 Y35.4350
G01 X-0.3192
G01 X64.9700
G01 Y34.8750
G01 X62.5523
G01 X63.1794
G01 Y34.3150
G01 X64.9700
G01 Y33.7550
G01 X63.5511
G01 X63.7546 Y33.1950
G01 X64.9700
G01 Y32.6350
G01 X63.8050
G01 X63.7932 Y32.0750
G01 X64.9700
G01 Y31.5150
G01 X63.5947
G01 X63.5550 Y30.9550
G01 X64.9700
G01 Y30.3950
G01 X63.5550
G01 Y29.8350
G01 X64.9700
G01 Y29.2750
G01 X63.5550
G01 Y28.7150
G01 X64.9700
G01 Y28.1550
G01 X63.5874
G01 X63.7883 Y27.5950
G01 X64.9700
G01 Y27.0350
G01 X63.8050
G01 X63.7619 Y26.4750
G01 X64.9700
G01 Y25.9150
G01 X63.5584
G01 X63.1961 Y25.3550
G01 X64.9700
G01 Y24.7950
G01 X62.5866
G01 X64.9700
G01 Y24.2350
G01 X51.4225
G01 X51.9825 Y23.6750
G01 X64.9700
G01 Y23.1150
G01 X52.5426
G01 X53.1026 Y22.5550
G01 X64.9700
G01 Y21.9950
G01 X53.6627
G01 X54.2227 Y21.4350
G01 X64.9700
G01 Y20.8750
G01 X54.7828
G01 X55.3428 Y20.3150
G01 X64.9700
G01 Y19.7550
G01 X55.9028
G01 X56.4629 Y19.1950
G01 X64.9700
G01 Y18.6350
G01 X57.0229
G01 X57.5830 Y18.0750
G01 X64.9700
G01 Y17.5150
G01 X62.8099
G01 X63.5617
G01 Y16.9550
G01 X64.9700
G01 Y16.3950
G01 X63.9995
G01 X64.2037 Y15.8350
G01 X64.9700
G01 Y15.2750
G01 X64.3050
G01 Y14.7150
G01 X64.9700
G01 Y14.1550
G01 X64.1456
G01 X64.0550 Y13.5950
G01 X64.9700
G01 Y13.0350
G01 X64.0550
G01 Y12.4750
G01 X64.9700
G01 Y11.9150
G01 X64.0550
G01 Y11.3550
G01 X64.9700
G01 Y10.7950
G01 X64.0550
G01 X64.2401 Y10.2350
G01 X64.9700
G01 Y9.6750
G01 X64.3050
G01 X64.3005 Y9.1150
G01 X64.9700
G01 Y8.5550
G01 X64.1093
G01 X64.0550 Y7.9950
G01 X64.9700
G01 Y7.4350
G01 X64.0550
G01 Y6.8750
G01 X64.9700
G01 Y6.3150
G01 X64.0550
G01 Y5.7550
G01 X64.9700
G01 Y5.1950
G01 X64.0729
G01 X64.2761 Y4.6350
G01 X64.9700
G01 Y4.0750
G01 X64.3047
G01 X64.2764 Y3.5150
G01 X64.9700
G01 Y2.9550
G01 X64.0729
G01 X63.7299 Y2.3950
G01 X64.9700
G01 Y1.8350
G01 X63.1566
G01 X64.9700
G01 Y1.2750
G01 X43.5748
G01 Y0.7150
G01 X42.8107
G01 X64.9700
G01 Y0.1550
G01 X28.2653
G01 X29.3982
G01 Y0.7150
G01 X36.3403
G01 X35.5752
G01 Y1.2750
G01 X29.9766
G00 Z1.0000 F500
G00 X44.1348 F3000
G00 Z0.5000 F500
G01 Z-0.3000 F120
G01 Y1.8350
G01 X54.4932
G01 X53.9201 Y2.3950
G01 X44.6796
G01 X44.9755 Y2.9550
G01 X53.5769
G01 X53.1271 Y3.5150
G01 X45.0672
G01 X45.0741 Y4.0750
G01 X47.0795
G01 X46.5458 Y4.6350
G01 X45.6040
G00 Z1.0000 F500
G00 X59.5630 Y24.2350 F3000
G00 Z0.5000 F500
G01 Z-0.3000 F120
G01 Y24.7950
G01 X50.8625
G01 X50.3024 Y25.3550
G01 X58.9539
G01 X58.5917 Y25.9150
G01 X49.7424
G01 X49.1823 Y26.4750
G01 X58.3887
G01 X58.3450 Y27.0350
G01 X48.6386
G01 Y27.5950
G01 X58.3613
G01 X38.0551
G01 X38.0552 Y27.0350
G01 X39.0124
G01 X38.5122 Y26.4750
G01 X38.0552
G00 Z1.0000 F500
G00 X38.1633 Y27.5950 F3000
G00 Z0.5000 F500
G01 Z-0.3000 F120
G01 Y28.1550
G01 X58.5625
G01 X58.5950 Y28.7150
G01 X38.7229
G01 X39.2825 Y29.2750
G01 X58.5950
G01 X49.8905
G01 Y29.8350
G01 X39.8420
G00 Z1.0000 F500
G00 X50.2599 Y29.2750 F3000
G00 Z0.5000 F500
G01 Z-0.3000 F120
G01 Y29.8350
G01 X55.3905
G00 Z1.0000 F500
G00 X55.7599 Y29.2750 F3000
G00 Z0.5000 F500
G01 Z-0.3000 F120
G01 Y29.8350
G01 X58.5950
G00 Z1.0000 F500
G00 X64.9700 Y35.4350 F3000
G00 Z0.5000 F500
G01 Z-0.3000 F120
G01 Y35.9950
G01 X-0.3199
G00 Z1.0000 F500
G00 X17.2653 Y0.1550 F3000
G00 Z0.5000 F500
G01 Z-0.3000 F120
G01 X26.8847
G01 X25.7518
G01 Y0.7150
G01 X18.3982
G01 X18.9765 Y1.2750
G01 X25.1729
G01 X24.8508 Y1.8350
G01 X19.2995
G01 X19.4805 Y2.3950
G01 X24.6692
G01 X24.5950 Y2.9550
G01 X19.5550
G01 Y3.5150
G01 X24.5950
G01 Y4.0750
G01 X19.5550
G01 X19.5020 Y4.6350
G01 X24.6480
G01 X24.7811 Y5.1950
G01 X19.3684
G01 X19.5555 Y5.7550
G01 X25.1043
G01 X25.6083 Y6.3150
G01 X20.1154
G01 X20.6753 Y6.8750
G01 X26.5558
G01 X21.2352
G01 Y7.4350
G01 X33.9149
G01 X34.4752 Y6.8750
G01 X28.5942
G01 X29.5411
G01 Y6.3150
G01 X35.0835
G01 X34.4552
G01 Y5.7550
G01 X30.0475
G00 Z1.0000 F500
G00 X33.3546 Y7.4350 F3000
G00 Z0.5000 F500
G01 Z-0.3000 F120
G01 Y7.9950
G01 X21.7951
G01 X22.3550 Y8.5550
G01 X32.7943
G00 Z1.0000 F500
G00 X38.0572 Y4.6350 F3000
G00 Z0.5000 F500
G01 Z-0.3000 F120
G01 X40.5461
G01 X40.2563 Y5.1950
G01 X37.9750
G01 X37.6917 Y5.7550
G01 X40.0950
G01 X40.0955 Y6.3150
G01 X37.0677
G01 X37.6741 Y6.8750
G01 X40.2272
G01 X40.4786 Y7.4350
G01 X37.9705
G01 X38.0555 Y7.9950
G01 X40.9579
G01 Y8.5550
G01 X42.4000
G01 X38.0550
G01 X38.4159 Y9.1150
G01 X58.8497
G01 X59.0409 Y8.5550
G01 X54.4014
G01 X55.6917
G01 Y7.9950
G01 X59.0950
G01 Y7.4350
G01 X56.2224
G01 X56.7826 Y6.8750
G01 X59.0950
G00 Z1.0000 F500
G00 X48.4000 Y9.1150 F3000
G00 Z0.5000 F500
G01 Z-0.3000 F120
G01 Y8.5550
G01 X43.7300
G01 X45.1917
G01 Y7.9950
G01 X46.9579
G01 X46.4786 Y7.4350
G01 X45.6707
G00 Z1.0000 F500
G00 X48.4000 Y9.1150 F3000
G00 Z0.5000 F500
G01 Z-0.3000 F120
G01 Y8.5550
G01 X53.9671
G00 Z1.0000 F500
G00 X41.9039 Y9.1150 F3000
G00 Z0.5000 F500
G01 Z-0.3000 F120
G01 Y9.6750
G01 X38.9753
G00 Z1.0000 F500
G00 X44.2461 Y9.1150 F3000
G00 Z0.5000 F500
G01 Z-0.3000 F120
G01 Y9.6750
G01 X47.9065
G01 X46.8819
G01 Y10.2350
G01 X45.2674
G01 X45.7341 Y10.7950
G01 X46.4162
G00 Z1.0000 F500
G00 X50.2461 Y9.1150 F3000
G00 Z0.5000 F500
G01 Z-0.3000 F120
G01 Y9.6750
G01 X58.8450
G01 X58.9099 Y10.2350
G01 X51.2681
G01 X51.7341 Y10.7950
G01 X59.0950
G01 Y11.3550
G01 X51.9522
G01 X52.0546 Y11.9150
G01 X59.0950
G01 Y12.4750
G01 X52.0526
G01 X51.8647 Y13.0350
G01 X55.6488
G01 X55.0477 Y13.5950
G01 X51.5582
G01 X51.5562 Y14.1550
G01 X54.4876
G01 X53.9276 Y14.7150
G01 X51.5764
G01 X51.4694 Y15.2750
G01 X53.3675
G01 X52.8075 Y15.8350
G01 X51.2199
G01 X50.7638 Y16.3950
G01 X52.2475
G01 X51.6874 Y16.9550
G01 X50.2019
G01 X49.6420 Y17.5150
G01 X51.1274
G01 X50.5673 Y18.0750
G01 X49.0820
G01 X48.5221 Y18.6350
G01 X50.0073
G01 X49.4473 Y19.1950
G01 X47.9622
G01 X47.4023 Y19.7550
G01 X48.8872
G01 X48.3272 Y20.3150
G01 X46.8522
G01 Y20.8750
G01 X46.0714
G01 X47.7671
G01 X47.2071 Y21.4350
G01 X39.2228
G01 X38.6625 Y21.9950
G01 X46.6470
G01 X46.0870 Y22.5550
G01 X38.1022
G01 X38.0558 Y23.1150
G01 X39.0114
G01 X38.5122 Y23.6750
G01 X38.0557
G00 Z1.0000 F500
G00 X37.0252 Y6.3150 F3000
G00 Z0.5000 F500
G01 Z-0.3000 F120
G01 X35.1236
G00 Z1.0000 F500
G00 X35.1469 F3000
G00 Z0.5000 F500
G01 Z-0.3000 F120
G01 Y6.2575
G01 X34.9151 Y6.0815
G01 X34.6942 Y5.8919
G01 X34.4850 Y5.6895
G01 X34.2883 Y5.4750
G01 X30.1240
G01 X30.0593 Y5.6171
G01 X29.9820 Y5.7527
G01 X29.8927 Y5.8807
G01 X29.7921 Y6.0000
G01 X29.6148 Y6.1703
G01 X29.4293 Y6.3315
G01 X29.2358 Y6.4832
G01 X29.0350 Y6.6250
G01 X28.8022 Y6.7301
G01 X28.5643 Y6.8229
G01 X28.3218 Y6.9031
G01 X28.0755 Y6.9706
G01 X27.8205 Y6.9897
G01 X27.5649 Y6.9955
G01 X27.3093 Y6.9880
G01 X27.0545 Y6.9670
G01 X26.8086 Y6.8979
G01 X26.5666 Y6.8159
G01 X26.3293 Y6.7215
G01 X26.0972 Y6.6147
G01 X25.8895 Y6.4656
G01 X25.6900 Y6.3059
G01 X25.4990 Y6.1359
G01 X25.3172 Y5.9562
G01 X25.2939 Y5.9237
G01 X24.8434 Y5.1429
G01 X24.7745 Y4.9316
G01 X24.7233 Y4.7153
G01 X24.6900 Y4.4955
G01 X24.6750 Y4.2737
G01 Y2.8563
G01 X24.6945 Y2.6547
G01 X24.7248 Y2.4545
G01 X24.7660 Y2.2562
G01 X24.8178 Y2.0604
G01 X24.9284 Y1.8302
G01 X25.0508 Y1.6060
G01 X25.1848 Y1.3886
G01 X25.3299 Y1.1785
G01 X25.5132 Y1.0000
G01 X25.7055 Y0.8313
G01 X25.9064 Y0.6730
G01 X26.1153 Y0.5254
G01 X26.3479 Y0.4202
G01 X26.5857 Y0.3273
G01 X26.8281 Y0.2470
G01 X27.0743 Y0.1795
G01 X27.3293 Y0.1603
G01 X27.5850 Y0.1545
G01 X27.8406 Y0.1620
G01 X28.0955 Y0.1830
G01 X28.3415 Y0.2523
G01 X28.5835 Y0.3344
G01 X28.8209 Y0.4290
G01 X29.0530 Y0.5359
G01 X29.2605 Y0.6848
G01 X29.4600 Y0.8443
G01 X29.6509 Y1.0140
G01 X29.8326 Y1.1934
G01 X29.8556 Y1.3384
G01 X29.9148 Y1.4727
G01 X30.0063 Y1.5874
G01 X30.1240 Y1.6750
G01 X34.9900
G01 X35.0684 Y1.6693
G01 X35.1468 Y1.6648
G01 X35.2253 Y1.6615
G01 X35.3039 Y1.6595
G01 X35.6710 Y1.2923
G01 X35.7468 Y1.1916
G01 X35.8368 Y1.1034
G01 X35.9390 Y1.0298
G01 X36.0511 Y0.9723
G01 X36.1896 Y0.8797
G01 X36.3390 Y0.8058
G01 X36.4967 Y0.7518
G01 X36.6600 Y0.7187
G01 X36.7797 Y0.6803
G01 X36.9039 Y0.6599
G01 X37.0296 Y0.6580
G01 X37.1543 Y0.6748
G01 X41.9900 Y0.6750
G01 X42.1143 Y0.6579
G01 X42.2398 Y0.6593
G01 X42.3637 Y0.6793
G01 X42.4834 Y0.7173
G01 X42.6473 Y0.7499
G01 X42.8056 Y0.8035
G01 X42.9557 Y0.8772
G01 X43.0949 Y0.9698
G01 X43.2072 Y1.0270
G01 X43.3097 Y1.1004
G01 X43.3999 Y1.1884
G01 X43.4760 Y1.2890
G01 X44.3577 Y2.1710
G01 X44.4586 Y2.2468
G01 X44.5468 Y2.3370
G01 X44.6205 Y2.4394
G01 X44.6779 Y2.5518
G01 X44.7705 Y2.6901
G01 X44.8443 Y2.8393
G01 X44.8982 Y2.9968
G01 X44.9312 Y3.1600
G01 X44.9697 Y3.2798
G01 X44.9901 Y3.4041
G01 X44.9920 Y3.5300
G01 X44.9752 Y3.6547
G01 X44.9750 Y4.1029
G01 X45.0283 Y4.1338
G01 X45.0794 Y4.1683
G01 X45.1279 Y4.2064
G01 X45.1736 Y4.2477
G01 X45.6402 Y4.8023
G01 X45.6644 Y4.8341
G01 X45.7588 Y5.0344
G01 X45.8414 Y5.2397
G01 X45.9121 Y5.4495
G01 X45.9706 Y5.6630
G01 X46.0007 Y5.9369
G01 X45.9998 Y6.2124
G01 X45.9677 Y6.4860
G01 X45.9050 Y6.7543
G01 X45.8124 Y7.0138
G01 X45.6911 Y7.2612
G01 X45.5426 Y7.4933
G01 X45.3689 Y7.7071
G01 X45.1722 Y7.9000
G01 X44.9549 Y8.0695
G01 X44.7199 Y8.2133
G01 X44.4702 Y8.3297
G01 X44.2904 Y8.3894
G01 X44.1063 Y8.4337
G01 X43.9190 Y8.4623
G01 X43.7300 Y8.4750
G01 X42.4000
G01 X42.2097 Y8.4715
G01 X42.0214 Y8.4441
G01 X41.8380 Y8.3932
G01 X41.6625 Y8.3197
G01 X41.0698 Y7.9770
G01 X40.9083 Y7.8399
G01 X40.7597 Y7.6888
G01 X40.6253 Y7.5250
G01 X40.5061 Y7.3498
G01 X40.4032 Y7.1646
G01 X40.3172 Y6.9709
G01 X40.2490 Y6.7703
G01 X40.1991 Y6.5644
G01 X40.1874 Y6.5263
G01 X40.1795 Y6.4872
G01 X40.1753 Y6.4476
G01 X40.1750 Y6.4077
G01 Y5.7223
G01 X40.1770 Y5.6824
G01 X40.2333 Y5.4684
G01 X40.3019 Y5.2581
G01 X40.3824 Y5.0520
G01 X40.4747 Y4.8509
G01 X40.4973 Y4.8179
G01 X40.7836 Y4.4763
G01 X37.9960 Y4.4750
G01 X37.9888 Y4.4963
G01 X37.9752 Y4.6547
G01 X37.9707 Y4.8637
G01 X37.9332 Y5.0694
G01 X37.8636 Y5.2665
G01 X37.7638 Y5.4501
G01 X37.6899 Y5.6004
G01 X37.5970 Y5.7397
G01 X37.4867 Y5.8656
G01 X37.3609 Y5.9761
G01 X37.2408 Y6.0915
G01 X37.1066 Y6.1903
G01 X36.9607 Y6.2706
G01 X36.8055 Y6.3312
G01 X36.6525 Y6.3985
G01 X36.4922 Y6.4453
G01 X36.3270 Y6.4710
G01 X36.1600 Y6.4750
G01 X35.9937 Y6.4861
G01 X35.8273 Y6.4753
G01 X35.6638 Y6.4430
G01 X35.5059 Y6.3896
G01 X35.4126 Y6.3670
G01 X35.3213 Y6.3374
G01 X35.2326 Y6.3008
G01 X35.1469 Y6.2575
G01 Y6.3150
G00 Z1.0000 F500
G00 X35.1723 F3000
G00 Z0.5000 F500
G01 Z-0.3000 F120
G01 Y6.3817
G01 X35.2492 Y6.3384
G01 X35.3303 Y6.3037
G01 X35.4148 Y6.2780
G01 X35.5015 Y6.2618
G01 X35.6592 Y6.2080
G01 X35.8225 Y6.1753
G01 X35.9887 Y6.1642
G01 X36.1549 Y6.1748
G01 X36.3219 Y6.1783
G01 X36.4869 Y6.2035
G01 X36.6474 Y6.2499
G01 X36.8004 Y6.3167
G01 X36.9563 Y6.3771
G01 X37.1029 Y6.4573
G01 X37.2377 Y6.5561
G01 X37.3584 Y6.6717
G01 X37.4840 Y6.7814
G01 X37.5942 Y6.9067
G01 X37.6871 Y7.0452
G01 X37.7611 Y7.1946
G01 X37.7983 Y7.2495
G01 X37.8315 Y7.3069
G01 X37.8606 Y7.3664
G01 X37.8855 Y7.4278
G01 X37.9376 Y7.6480
G01 X37.9700 Y7.8720
G01 X37.9825 Y8.0980
G01 X37.9750 Y8.3242
G01 Y8.7880
G01 X39.3617 Y10.1750
G01 X41.0630
G01 X41.0371
G01 X41.0871 Y10.1630
G01 X41.6798 Y9.8203
G01 X41.8596 Y9.7606
G01 X42.0437 Y9.7163
G01 X42.2310 Y9.6877
G01 X42.4200 Y9.6750
G01 X43.7500
G01 X43.9403 Y9.6785
G01 X44.1286 Y9.7059
G01 X44.3120 Y9.7568
G01 X44.4875 Y9.8303
G01 X45.0802 Y10.1730
G01 X45.2417 Y10.3101
G01 X45.3903 Y10.4612
G01 X45.5247 Y10.6250
G01 X45.6439 Y10.8002
G01 X45.7468 Y10.9854
G01 X45.8328 Y11.1791
G01 X45.9010 Y11.3797
G01 X45.9509 Y11.5856
G01 X45.9917 Y11.8647
G01 X45.9998 Y12.1466
G01 X45.9751 Y12.4276
G01 X45.9180 Y12.7038
G01 X45.8292 Y12.9715
G01 X45.7099 Y13.2271
G01 X45.5618 Y13.4671
G01 X45.3868 Y13.6883
G01 X45.1873 Y13.8877
G01 X44.9660 Y14.0626
G01 X44.7259 Y14.2106
G01 X44.4702 Y14.3297
G01 X44.2904 Y14.3894
G01 X44.1063 Y14.4337
G01 X43.9190 Y14.4623
G01 X43.7300 Y14.4750
G01 X42.4000
G01 X42.2200 Y14.4685
G01 X42.0416 Y14.4435
G01 X41.8668 Y14.4003
G01 X41.6973 Y14.3392
G01 X41.0698 Y13.9770
G01 X41.0371 Y13.9750
G01 X41.0630
G01 X38.6600
G01 X38.5354 Y13.9924
G01 X38.4096 Y13.9909
G01 X38.2855 Y13.9708
G01 X38.1657 Y13.9323
G01 X38.0019 Y13.8999
G01 X37.8438 Y13.8465
G01 X37.6940 Y13.7729
G01 X37.5550 Y13.6805
G01 X37.4430 Y13.6231
G01 X37.3409 Y13.5498
G01 X37.2507 Y13.4621
G01 X37.1746 Y13.3620
G01 X35.3250 Y11.5120
G01 X34.4790 Y12.3581
G01 X34.4032 Y12.4584
G01 X34.3133 Y12.5463
G01 X34.2114 Y12.6199
G01 X34.0996 Y12.6775
G01 X33.9608 Y12.7704
G01 X33.8110 Y12.8445
G01 X33.6528 Y12.8984
G01 X33.4890 Y12.9313
G01 X33.3694 Y12.9700
G01 X33.2454 Y12.9905
G01 X33.1197 Y12.9923
G01 X32.9951 Y12.9752
G01 X22.8617 Y12.9750
G01 X19.1326 Y16.7049
G01 X19.3067 Y17.0072
G01 X19.3755 Y17.2185
G01 X19.4267 Y17.4348
G01 X19.4600 Y17.6546
G01 X19.4750 Y17.8763
G01 Y19.2937
G01 X19.4555 Y19.4953
G01 X19.4252 Y19.6956
G01 X19.3840 Y19.8940
G01 X19.3322 Y20.0898
G01 X19.2216 Y20.3199
G01 X19.0992 Y20.5440
G01 X18.9652 Y20.7613
G01 X18.8200 Y20.9714
G01 X18.6369 Y21.1500
G01 X18.4446 Y21.3188
G01 X18.2438 Y21.4772
G01 X18.0350 Y21.6250
G01 X17.9989 Y21.6423
G01 X17.4750 Y21.8336
G01 Y23.1750
G01 X22.4900
G01 X22.6146 Y23.1576
G01 X22.7404 Y23.1591
G01 X22.8645 Y23.1792
G01 X22.9843 Y23.2177
G01 X23.1481 Y23.2501
G01 X23.3062 Y23.3035
G01 X23.4560 Y23.3771
G01 X23.5950 Y23.4695
G01 X23.7070 Y23.5269
G01 X23.8092 Y23.6003
G01 X23.8994 Y23.6880
G01 X23.9755 Y23.7882
G01 X25.0109 Y24.8243
G01 X25.0377 Y24.8540
G01 X25.1795 Y25.0435
G01 X25.2967 Y25.2491
G01 X25.3874 Y25.4677
G01 X25.4504 Y25.6959
G01 X25.4845 Y25.9301
G01 X25.4893 Y26.1667
G01 X25.4648 Y26.4021
G01 X25.4112 Y26.6326
G01 X25.3294 Y26.8548
G01 X25.2208 Y27.0650
G01 X25.0868 Y27.2602
G01 X24.9297 Y27.4372
G01 X24.7519 Y27.5933
G01 X24.5560 Y27.7262
G01 X24.3452 Y27.8338
G01 X24.1227 Y27.9144
G01 X23.8919 Y27.9668
G01 X23.6563 Y27.9901
G01 X23.4197 Y27.9840
G01 X23.1857 Y27.9487
G01 X22.9579 Y27.8845
G01 X22.7398 Y27.7926
G01 X22.5348 Y27.6744
G01 X22.3460 Y27.5316
G01 X22.3099 Y27.4971
G01 X21.7900 Y26.9768
G01 X16.9894 Y27.0295
G01 X16.4702 Y27.3297
G01 X16.2904 Y27.3894
G01 X16.1063 Y27.4337
G01 X15.9190 Y27.4623
G01 X15.7300 Y27.4750
G01 X14.4000
G01 X14.2097 Y27.4715
G01 X14.0214 Y27.4441
G01 X13.8380 Y27.3932
G01 X13.6625 Y27.3197
G01 X13.0698 Y26.9770
G01 X12.9083 Y26.8399
G01 X12.7597 Y26.6888
G01 X12.6253 Y26.5250
G01 X12.5061 Y26.3498
G01 X12.4032 Y26.1646
G01 X12.3172 Y25.9709
G01 X12.2490 Y25.7703
G01 X12.1991 Y25.5644
G01 X12.1899 Y25.5359
G01 X12.1829 Y25.5067
G01 X12.1781 Y25.4771
G01 X12.1755 Y25.4472
G01 X12.1750 Y24.7223
G01 X12.1770 Y24.6824
G01 X12.2300 Y24.4570
G01 X12.3013 Y24.2369
G01 X12.3906 Y24.0233
G01 X12.4973 Y23.8179
G01 X12.6750 Y23.6055
G01 X12.6908 Y22.6773
G01 X12.6922 Y21.7489
G01 X12.6793 Y20.8207
G01 X12.6520 Y19.8927
G01 X12.6620 Y19.8069
G01 X12.6784 Y19.7220
G01 X12.7009 Y19.6386
G01 X12.7296 Y19.5570
G01 X12.7731 Y19.3110
G01 X12.8278 Y19.1727
G01 X12.8921 Y19.0385
G01 X12.9658 Y18.9092
G01 X13.0484 Y18.7855
G01 X13.1195 Y18.6431
G01 X13.2118 Y18.5135
G01 X13.3233 Y18.3999
G01 X13.4511 Y18.3050
G01 X13.6750 Y18.0810
G01 Y17.8563
G01 X13.6945 Y17.6547
G01 X13.7248 Y17.4544
G01 X13.7660 Y17.2560
G01 X13.8178 Y17.0602
G01 X13.9284 Y16.8301
G01 X14.0508 Y16.6060
G01 X14.1848 Y16.3887
G01 X14.3300 Y16.1786
G01 X14.3579 Y16.1500
G01 X14.8320 Y15.7517
G01 X14.9698 Y15.5554
G01 X15.0269 Y15.4429
G01 X15.1003 Y15.3403
G01 X15.1884 Y15.2500
G01 X15.2891 Y15.1739
G01 X19.3883 Y11.0750
G01 X15.2923 Y6.9790
G01 X15.2386 Y6.9405
G01 X15.1878 Y6.8984
G01 X15.1400 Y6.8527
G01 X15.0956 Y6.8039
G01 X15.0299 Y6.6793
G01 X14.9552 Y6.5598
G01 X14.8719 Y6.4462
G01 X14.7805 Y6.3390
G01 X14.6814 Y6.2389
G01 X14.5751 Y6.1464
G01 X14.4623 Y6.0619
G01 X14.3436 Y5.9861
G01 X14.3172 Y5.9561
G01 X14.1733 Y5.7448
G01 X14.0407 Y5.5264
G01 X13.9197 Y5.3012
G01 X13.8107 Y5.0701
G01 X13.7599 Y4.8742
G01 X13.7203 Y4.6757
G01 X13.6920 Y4.4754
G01 X13.6750 Y4.2737
G01 Y2.8563
G01 X13.6945 Y2.6547
G01 X13.7248 Y2.4545
G01 X13.7660 Y2.2562
G01 X13.8178 Y2.0604
G01 X13.9284 Y1.8302
G01 X14.0508 Y1.6060
G01 X14.1848 Y1.3886
G01 X14.3299 Y1.1785
G01 X14.5132 Y1.0000
G01 X14.7055 Y0.8313
G01 X14.9064 Y0.6730
G01 X15.1153 Y0.5254
G01 X15.3479 Y0.4202
G01 X15.5857 Y0.3273
G01 X15.8281 Y0.2470
G01 X16.0743 Y0.1795
G01 X16.3293 Y0.1603
G01 X16.5850 Y0.1545
G01 X16.8406 Y0.1620
G01 X17.0955 Y0.1830
G01 X17.3415 Y0.2523
G01 X17.5835 Y0.3344
G01 X17.8209 Y0.4290
G01 X18.0530 Y0.5359
G01 X18.2605 Y0.6848
G01 X18.4600 Y0.8443
G01 X18.6509 Y1.0140
G01 X18.8326 Y1.1934
G01 X18.9643 Y1.4007
G01 X19.0904 Y1.6115
G01 X19.2106 Y1.8256
G01 X19.3248 Y2.0430
G01 X19.3816 Y2.2474
G01 X19.4256 Y2.4550
G01 X19.4568 Y2.6649
G01 X19.4750 Y2.8763
G01 Y4.2937
G01 X19.4555 Y4.4953
G01 X19.4252 Y4.6956
G01 X19.3840 Y4.8940
G01 X19.3322 Y5.0898
G01 X19.3157 Y5.1262
G01 X19.1326 Y5.4451
G01 X22.8617 Y9.1750
G01 X32.2883
G01 X34.5497 Y6.9136
G01 X34.5816 Y6.8646
G01 X34.7199 Y6.7328
G01 X34.8647 Y6.6082
G01 X35.0156 Y6.4910
G01 X35.1723 Y6.3817
G01 Y6.3150
G00 Z1.0000 F500
G00 X11.5566 Y5.7550 F3000
G00 Z0.5000 F500
G01 Z-0.3000 F120
G01 X11.4977 Y5.9128
G01 X11.4752 Y6.1771
G01 X11.4750 Y23.6055
G01 X11.6403 Y23.8024
G01 X11.6645 Y23.8342
G01 X11.7588 Y24.0344
G01 X11.8415 Y24.2398
G01 X11.9121 Y24.4495
G01 X11.9706 Y24.6630
G01 X11.9864 Y24.8738
G01 X11.9911 Y25.0852
G01 X11.9847 Y25.2965
G01 X11.9670 Y25.5072
G01 X11.9571 Y25.5459
G01 X11.9441 Y25.5832
G01 X11.8623 Y25.8742
G01 X11.7451 Y26.1529
G01 X11.5944 Y26.4150
G01 X11.4125 Y26.6565
G01 X11.2022 Y26.8736
G01 X10.9666 Y27.0631
G01 X10.7095 Y27.2220
G01 X10.4346 Y27.3479
G01 X10.2619 Y27.3964
G01 X10.0863 Y27.4338
G01 X9.9088 Y27.4600
G01 X9.7300 Y27.4750
G01 X8.4000
G01 X8.2201 Y27.4685
G01 X8.0418 Y27.4435
G01 X7.8670 Y27.4002
G01 X7.6976 Y27.3392
G01 X7.0696 Y26.9771
G01 X7.0360 Y26.9554
G01 X6.8827 Y26.8167
G01 X6.7416 Y26.6657
G01 X6.6136 Y26.5034
G01 X6.4997 Y26.3309
G01 X6.4006 Y26.1494
G01 X6.3172 Y25.9603
G01 X6.2498 Y25.7649
G01 X6.1991 Y25.5645
G01 X6.1874 Y25.5264
G01 X6.1795 Y25.4873
G01 X6.1753 Y25.4476
G01 X6.1750 Y25.4077
G01 Y24.7223
G01 X6.1770 Y24.6824
G01 X6.2300 Y24.4570
G01 X6.3014 Y24.2368
G01 X6.3908 Y24.0233
G01 X6.4975 Y23.8178
G01 X6.6750 Y23.6056
G01 Y7.0691
G01 X6.0809 Y6.4750
G01 X4.7190
G01 X4.6558 Y6.5190
G01 X4.5887 Y6.5568
G01 X4.5183 Y6.5880
G01 X4.4453 Y6.6124
G01 X3.6445 Y6.7541
G01 X3.6048 Y6.7591
G01 X3.3515 Y6.7446
G01 X3.1003 Y6.7094
G01 X2.8527 Y6.6538
G01 X2.6106 Y6.5781
G01 X2.4221 Y6.4782
G01 X2.2361 Y6.3735
G01 X2.0529 Y6.2642
G01 X1.8725 Y6.1502
G01 X1.6878 Y5.9763
G01 X1.5180 Y5.7879
G01 X1.3641 Y5.5863
G01 X1.2273 Y5.3727
G01 X1.1193 Y5.1647
G01 X1.0324 Y4.9471
G01 X0.9674 Y4.7219
G01 X0.9251 Y4.4914
G01 X0.9246 Y4.4518
G01 Y3.6782
G01 X0.9266 Y3.6383
G01 X0.9787 Y3.4103
G01 X1.0479 Y3.1868
G01 X1.1337 Y2.9693
G01 X1.2356 Y2.7588
G01 X1.3748 Y2.5466
G01 X1.5308 Y2.3465
G01 X1.7027 Y2.1599
G01 X1.8892 Y1.9879
G01 X2.0754 Y1.8455
G01 X2.2748 Y1.7223
G01 X2.4853 Y1.6194
G01 X2.7051 Y1.5379
G01 X3.5055 Y1.3961
G01 X3.5451 Y1.3911
G01 X3.7984 Y1.4056
G01 X4.0497 Y1.4408
G01 X4.2973 Y1.4965
G01 X4.5394 Y1.5722
G01 X4.7188 Y1.6750
G01 X6.9677
G01 X7.1253 Y1.6519
G01 X7.2846 Y1.6534
G01 X7.4417 Y1.6795
G01 X7.5930 Y1.7296
G01 X7.8000 Y1.7702
G01 X7.9999 Y1.8378
G01 X8.1892 Y1.9311
G01 X8.3645 Y2.0484
G01 X8.5067 Y2.1194
G01 X8.6362 Y2.2116
G01 X8.7498 Y2.3227
G01 X8.8447 Y2.4502
G01 X10.6957 Y4.3021
G01 X10.8239 Y4.3969
G01 X10.9357 Y4.5106
G01 X11.0285 Y4.6403
G01 X11.0999 Y4.7828
G01 X11.2173 Y4.9577
G01 X11.3107 Y5.1465
G01 X11.3785 Y5.3460
G01 X11.4195 Y5.5527
G01 X11.4520 Y5.6394
G01 X11.4760 Y5.7290
G01 X11.4913 Y5.8204
G01 X11.4977 Y5.9128
G01 X11.5566 Y5.7550
G00 Z1.0000 F500
G00 Y0.1550 F3000
G00 Z0.5000 F500
G01 Z-0.3000 F120
G01 Y-0.4000
G01 X64.5820
G01 X64.6752 Y-0.3893
G01 X64.7646 Y-0.3604
G01 X64.8465 Y-0.3146
G01 X64.9178 Y-0.2536
G01 X64.9758 Y-0.1798
G01 X65.0181 Y-0.0960
G01 X65.0432 Y-0.0056
G01 X65.0500 Y0.0880
G01 Y36.0816
G01 X65.0394 Y36.1749
G01 X65.0106 Y36.2643
G01 X64.9649 Y36.3464
G01 X64.9039 Y36.4178
G01 X64.8300 Y36.4758
G01 X64.7462 Y36.5182
G01 X64.6557 Y36.5432
G01 X64.5620 Y36.5500
G01 X0.0684
G01 X-0.0188 Y36.5407
G01 X-0.1028 Y36.5156
G01 X-0.1808 Y36.4754
G01 X-0.2501 Y36.4216
G01 X-0.3083 Y36.3560
G01 X-0.3534 Y36.2808
G01 X-0.3839 Y36.1986
G01 X-0.3988 Y36.1121
G01 X-0.4000 Y36.0611
G01 X-0.3568 Y0.0065
G01 X-0.3469 Y-0.0772
G01 X-0.3203 Y-0.1571
G01 X-0.2781 Y-0.2300
G01 X-0.2220 Y-0.2929
G01 X-0.1543 Y-0.3430
G01 X-0.0779 Y-0.3785
G01 X0.0042 Y-0.3977
G01 X0.0884 Y-0.4000
G01 X11.5566
G01 Y0.1550
G00 Z1.0000 F500
G00 X4.8590 Y11.3550 F3000
G00 Z0.5000 F500
G01 Z-0.3000 F120
G01 Y11.7559
G01 X5.2439 Y11.9781
G01 X5.2775 Y11.9998
G01 X5.4622 Y12.1737
G01 X5.6320 Y12.3621
G01 X5.7859 Y12.5637
G01 X5.9227 Y12.7773
G01 X6.0029 Y12.9751
G01 X6.0780 Y13.1748
G01 X6.1481 Y13.3764
G01 X6.2131 Y13.5796
G01 X6.2428 Y13.8315
G01 X6.2518 Y14.0850
G01 X6.2400 Y14.3384
G01 X6.2075 Y14.5900
G01 X6.1284 Y14.7443
G01 X6.0630 Y14.9048
G01 X6.0117 Y15.0705
G01 X5.9750 Y15.2399
G01 Y22.2677
G01 X5.9730 Y22.3076
G01 X5.9670 Y22.3472
G01 X5.9400 Y22.4495
G01 X5.9124 Y22.5518
G01 X5.8843 Y22.6539
G01 X5.8557 Y22.7558
G01 X5.8113 Y22.8520
G01 X5.7664 Y22.9479
G01 X5.7210 Y23.0436
G01 X5.6751 Y23.1391
G01 X5.6146 Y23.2261
G01 X5.5537 Y23.3128
G01 X5.4923 Y23.3992
G01 X5.4304 Y23.4853
G01 X5.3558 Y23.5605
G01 X5.2808 Y23.6352
G01 X5.2054 Y23.7096
G01 X5.1296 Y23.7836
G01 X5.0431 Y23.8447
G01 X4.9562 Y23.9053
G01 X4.8690 Y23.9655
G01 X4.7815 Y24.0252
G01 X4.6857 Y24.0703
G01 X4.5897 Y24.1149
G01 X4.4934 Y24.1590
G01 X4.3969 Y24.2026
G01 X4.2947 Y24.2304
G01 X4.1923 Y24.2576
G01 X4.0898 Y24.2843
G01 X3.9872 Y24.3105
G01 X3.8817 Y24.3202
G01 X3.7762 Y24.3293
G01 X3.6706 Y24.3378
G01 X3.5649 Y24.3458
G01 X3.4593 Y24.3369
G01 X3.3538 Y24.3275
G01 X3.2483 Y24.3175
G01 X3.1428 Y24.3070
G01 X3.0405 Y24.2800
G01 X2.9382 Y24.2524
G01 X2.8361 Y24.2243
G01 X2.7342 Y24.1957
G01 X2.6380 Y24.1513
G01 X2.5421 Y24.1064
G01 X2.4464 Y24.0610
G01 X2.3509 Y24.0151
G01 X2.2639 Y23.9546
G01 X2.1772 Y23.8937
G01 X2.0908 Y23.8323
G01 X2.0047 Y23.7704
G01 X1.9295 Y23.6958
G01 X1.8548 Y23.6208
G01 X1.7804 Y23.5454
G01 X1.7064 Y23.4696
G01 X1.6453 Y23.3831
G01 X1.5847 Y23.2962
G01 X1.5245 Y23.2090
G01 X1.4648 Y23.1215
G01 X1.4197 Y23.0257
G01 X1.3751 Y22.9297
G01 X1.3310 Y22.8334
G01 X1.2874 Y22.7369
G01 X1.2596 Y22.6347
G01 X1.2324 Y22.5323
G01 X1.2057 Y22.4298
G01 X1.1795 Y22.3272
G01 X1.1755 Y22.2874
G01 X1.1750 Y22.2477
G01 Y15.2399
G01 X1.1009 Y15.0673
G01 X1.0351 Y14.8914
G01 X0.9778 Y14.7126
G01 X0.9290 Y14.5312
G01 X0.9251 Y14.4914
G01 X0.9246 Y14.4518
G01 Y13.6782
G01 X0.9266 Y13.6383
G01 X0.9848 Y13.3914
G01 X1.0631 Y13.1501
G01 X1.1608 Y12.9160
G01 X1.2773 Y12.6906
G01 X1.7997 Y12.0674
G01 X1.8269 Y12.0381
G01 X2.0259 Y11.8979
G01 X2.2326 Y11.7694
G01 X2.4463 Y11.6527
G01 X2.6662 Y11.5485
G01 X2.8842 Y11.5000
G01 X3.1035 Y11.4576
G01 X3.3239 Y11.4212
G01 X3.5452 Y11.3909
G01 X3.7878 Y11.4115
G01 X4.0288 Y11.4459
G01 X4.2674 Y11.4939
G01 X4.5030 Y11.5554
G01 X4.5940 Y11.6018
G01 X4.6838 Y11.6507
G01 X4.7721 Y11.7021
G01 X4.8590 Y11.7559
G01 Y11.3550
G00 Z1.0000 F500
G00 X7.7189 Y28.7150 F3000
G00 Z0.5000 F500
G01 Z-0.3000 F120
G01 X7.9414 Y28.7500
G01 X8.3306 Y28.6811
G01 X8.3702 Y28.6761
G01 X8.5060 Y28.6723
G01 X8.6418 Y28.6671
G01 X8.7774 Y28.6604
G01 X8.9130 Y28.6522
G01 X9.1769 Y28.6748
G01 X9.7500 Y28.6750
G01 X9.9403 Y28.6785
G01 X10.1286 Y28.7059
G01 X10.3120 Y28.7568
G01 X10.4875 Y28.8303
G01 X11.0802 Y29.1730
G01 X11.2417 Y29.3101
G01 X11.3903 Y29.4612
G01 X11.5247 Y29.6250
G01 X11.6439 Y29.8002
G01 X11.7468 Y29.9854
G01 X11.8328 Y30.1791
G01 X11.9010 Y30.3797
G01 X11.9509 Y30.5856
G01 X11.9627 Y30.6238
G01 X11.9706 Y30.6630
G01 X11.9973 Y30.8797
G01 X12.0045 Y31.0979
G01 X11.9920 Y31.3158
G01 X11.9600 Y31.5317
G01 X11.9086 Y31.7439
G01 X11.8385 Y31.9506
G01 X11.7500 Y32.1502
G01 X11.6439 Y32.3410
G01 X11.5211 Y32.5215
G01 X11.3826 Y32.6902
G01 X11.2294 Y32.8458
G01 X11.0629 Y32.9870
G01 X10.9021 Y33.1092
G01 X10.7300 Y33.2150
G01 X10.5484 Y33.3034
G01 X10.3589 Y33.3734
G01 X10.1297 Y33.4142
G01 X9.8481 Y33.6961
G01 X9.7531 Y33.8235
G01 X9.6397 Y33.9349
G01 X9.5106 Y34.0276
G01 X9.3689 Y34.0995
G01 X9.1934 Y34.2168
G01 X9.0042 Y34.3103
G01 X8.8044 Y34.3784
G01 X8.5974 Y34.4200
G01 X8.4464 Y34.4701
G01 X8.2894 Y34.4963
G01 X8.1303 Y34.4980
G01 X7.9728 Y34.4752
G01 X3.7900 Y34.4750
G01 X3.7156 Y34.4949
G01 X3.6392 Y34.5051
G01 X3.5622 Y34.5056
G01 X3.4858 Y34.4963
G01 X3.2777 Y34.4812
G01 X3.0718 Y34.4482
G01 X2.8696 Y34.3973
G01 X2.6725 Y34.3291
G01 X2.4821 Y34.2441
G01 X2.2997 Y34.1428
G01 X2.1269 Y34.0261
G01 X1.9648 Y33.8949
G01 X1.8148 Y33.7500
G01 X1.6779 Y33.5927
G01 X1.5551 Y33.4241
G01 X1.4475 Y33.2455
G01 X1.3352 Y33.0528
G01 X1.2514 Y32.8461
G01 X1.1976 Y32.6296
G01 X1.1750 Y32.4077
G01 Y31.7223
G01 X1.1770 Y31.6824
G01 X1.2204 Y31.4803
G01 X1.2807 Y31.2825
G01 X1.3573 Y31.0905
G01 X1.4497 Y30.9056
G01 X1.5573 Y30.7291
G01 X1.6794 Y30.5623
G01 X1.8150 Y30.4063
G01 X1.9632 Y30.2622
G01 X2.1264 Y30.1270
G01 X2.3010 Y30.0071
G01 X2.4856 Y29.9032
G01 X2.6789 Y29.8163
G01 X2.8791 Y29.7471
G01 X3.0847 Y29.6961
G01 X3.2941 Y29.6637
G01 X3.5055 Y29.6502
G01 X3.5748 Y29.6444
G01 X3.6442 Y29.6465
G01 X3.7130 Y29.6565
G01 X3.7802 Y29.6741
G01 X6.6289 Y29.6605
G01 X6.9632 Y29.2622
G01 X6.9904 Y29.2329
G01 X7.1759 Y29.0943
G01 X7.3721 Y28.9715
G01 X7.5779 Y28.8654
G01 X7.7917 Y28.7766
G01 X7.9414 Y28.7500
G01 X7.7189 Y28.7150
G00 Z1.0000 F500
G00 X12.2766 Y29.8350 F3000
G00 Z0.5000 F500
G01 Z-0.3000 F120
G01 Y30.3725
G01 X12.4401 Y29.9229
G01 X12.4556 Y29.8860
G01 X12.5674 Y29.7060
G01 X12.6945 Y29.5364
G01 X12.8357 Y29.3784
G01 X12.9902 Y29.2333
G01 X13.1567 Y29.1022
G01 X13.3340 Y28.9861
G01 X13.5207 Y28.8858
G01 X13.7154 Y28.8021
G01 X13.8881 Y28.7536
G01 X14.0637 Y28.7162
G01 X14.2412 Y28.6900
G01 X14.4200 Y28.6750
G01 X15.7500
G01 X15.9300 Y28.6815
G01 X16.1084 Y28.7065
G01 X16.2832 Y28.7497
G01 X16.4527 Y28.8108
G01 X17.0802 Y29.1730
G01 X17.1129 Y29.1750
G01 X17.0870
G01 X21.2883
G01 X22.1710 Y28.2920
G01 X22.2468 Y28.1916
G01 X22.3367 Y28.1037
G01 X22.4386 Y28.0301
G01 X22.5504 Y27.9725
G01 X22.6892 Y27.8796
G01 X22.8390 Y27.8055
G01 X22.9972 Y27.7516
G01 X23.1610 Y27.7187
G01 X23.2806 Y27.6800
G01 X23.4046 Y27.6595
G01 X23.5303 Y27.6577
G01 X23.6549 Y27.6748
G01 X25.2883 Y27.6750
G01 X25.6750 Y27.2881
G01 Y21.2665
G01 X25.5559 Y21.1941
G01 X25.4479 Y21.1058
G01 X25.3532 Y21.0036
G01 X25.2734 Y20.8892
G01 X24.8434 Y20.1429
G01 X24.7745 Y19.9316
G01 X24.7233 Y19.7153
G01 X24.6900 Y19.4955
G01 X24.6750 Y19.2737
G01 Y17.8563
G01 X24.6945 Y17.6547
G01 X24.7248 Y17.4544
G01 X24.7660 Y17.2560
G01 X24.8178 Y17.0602
G01 X24.9284 Y16.8301
G01 X25.0508 Y16.6060
G01 X25.1848 Y16.3887
G01 X25.3300 Y16.1786
G01 X25.5131 Y16.0000
G01 X25.7054 Y15.8312
G01 X25.9062 Y15.6728
G01 X26.1150 Y15.5250
G01 X26.3478 Y15.4199
G01 X26.5857 Y15.3271
G01 X26.8282 Y15.2469
G01 X27.0745 Y15.1794
G01 X27.3295 Y15.1603
G01 X27.5851 Y15.1545
G01 X27.8407 Y15.1620
G01 X28.0955 Y15.1830
G01 X28.3414 Y15.2521
G01 X28.5834 Y15.3341
G01 X28.8207 Y15.4285
G01 X29.0528 Y15.5353
G01 X29.2605 Y15.6844
G01 X29.4600 Y15.8441
G01 X29.6510 Y16.0141
G01 X29.8328 Y16.1938
G01 X29.9766 Y16.4051
G01 X30.1093 Y16.6236
G01 X30.2303 Y16.8487
G01 X30.3393 Y17.0799
G01 X30.3901 Y17.2758
G01 X30.4297 Y17.4743
G01 X30.4580 Y17.6746
G01 X30.4750 Y17.8763
G01 Y19.2937
G01 X30.4555 Y19.4953
G01 X30.4252 Y19.6956
G01 X30.3840 Y19.8940
G01 X30.3322 Y20.0898
G01 X30.2216 Y20.3199
G01 X30.0992 Y20.5440
G01 X29.9652 Y20.7613
G01 X29.8200 Y20.9714
G01 X29.7921 Y21.0000
G01 X29.4750 Y21.2665
G01 Y27.9895
G01 X29.4921 Y28.1139
G01 X29.4907 Y28.2395
G01 X29.4708 Y28.3635
G01 X29.4328 Y28.4833
G01 X29.4001 Y28.6472
G01 X29.3465 Y28.8054
G01 X29.2728 Y28.9554
G01 X29.1802 Y29.0946
G01 X29.1231 Y29.2071
G01 X29.0497 Y29.3097
G01 X28.9616 Y29.4000
G01 X28.8609 Y29.4761
G01 X27.4790 Y30.8581
G01 X27.4032 Y30.9584
G01 X27.3133 Y31.0463
G01 X27.2114 Y31.1199
G01 X27.0996 Y31.1775
G01 X26.9608 Y31.2704
G01 X26.8110 Y31.3445
G01 X26.6528 Y31.3984
G01 X26.4890 Y31.4313
G01 X26.3694 Y31.4700
G01 X26.2454 Y31.4905
G01 X26.1197 Y31.4923
G01 X25.9951 Y31.4752
G01 X24.3617 Y31.4750
G01 X23.4790 Y32.3580
G01 X23.4032 Y32.4584
G01 X23.3133 Y32.5463
G01 X23.2114 Y32.6199
G01 X23.0996 Y32.6775
G01 X22.9608 Y32.7704
G01 X22.8110 Y32.8445
G01 X22.6528 Y32.8984
G01 X22.4890 Y32.9313
G01 X22.3694 Y32.9700
G01 X22.2454 Y32.9905
G01 X22.1197 Y32.9923
G01 X21.9951 Y32.9752
G01 X17.0870 Y32.9750
G01 X17.1129
G01 X17.0629 Y32.9870
G01 X16.4702 Y33.3297
G01 X16.2904 Y33.3894
G01 X16.1063 Y33.4337
G01 X15.9190 Y33.4623
G01 X15.7300 Y33.4750
G01 X14.4000
G01 X14.2097 Y33.4715
G01 X14.0214 Y33.4441
G01 X13.8380 Y33.3932
G01 X13.6625 Y33.3197
G01 X13.0698 Y32.9770
G01 X12.9083 Y32.8399
G01 X12.7597 Y32.6888
G01 X12.6253 Y32.5250
G01 X12.5061 Y32.3498
G01 X12.4032 Y32.1646
G01 X12.3172 Y31.9709
G01 X12.2490 Y31.7703
G01 X12.1991 Y31.5644
G01 X12.1874 Y31.5263
G01 X12.1795 Y31.4872
G01 X12.1753 Y31.4476
G01 X12.1750 Y31.4077
G01 Y30.7223
G01 X12.1770 Y30.6824
G01 X12.1933 Y30.6024
G01 X12.2154 Y30.5238
G01 X12.2432 Y30.4470
G01 X12.2766 Y30.3725
G01 Y29.8350
G00 Z1.0000 F500
G00 X33.0729 Y29.2750 F3000
G00 Z0.5000 F500
G01 Z-0.3000 F120
G01 X33.1528 Y29.2772
G01 X33.1523 Y29.2372
G01 X33.1748 Y28.9729
G01 X33.1750 Y21.6823
G01 X33.1535 Y21.4327
G01 X33.1520 Y21.3927
G01 X33.1620 Y21.3069
G01 X33.1784 Y21.2220
G01 X33.2009 Y21.1386
G01 X33.2296 Y21.0570
G01 X33.2731 Y20.8110
G01 X33.3278 Y20.6727
G01 X33.3921 Y20.5385
G01 X33.4658 Y20.4092
G01 X33.5484 Y20.2855
G01 X33.6195 Y20.1431
G01 X33.7118 Y20.0135
G01 X33.8233 Y19.8999
G01 X33.9511 Y19.8050
G01 X36.8020 Y16.9538
G01 X36.8970 Y16.8264
G01 X37.0104 Y16.7151
G01 X37.1394 Y16.6224
G01 X37.2811 Y16.5505
G01 X37.4567 Y16.4331
G01 X37.6460 Y16.3396
G01 X37.8459 Y16.2715
G01 X38.0530 Y16.2300
G01 X38.2039 Y16.1799
G01 X38.3607 Y16.1537
G01 X38.5196 Y16.1520
G01 X38.6769 Y16.1748
G01 X44.0813 Y16.1750
G01 X46.6750 Y13.5809
G01 Y13.5445
G01 X46.5097 Y13.3476
G01 X46.4855 Y13.3158
G01 X46.3912 Y13.1156
G01 X46.3085 Y12.9102
G01 X46.2379 Y12.7005
G01 X46.1794 Y12.4870
G01 X46.1755 Y12.4472
G01 X46.1750 Y11.7223
G01 X46.1771 Y11.6825
G01 X46.1829 Y11.6431
G01 X46.1926 Y11.6044
G01 X46.2059 Y11.5668
G01 X46.2570 Y11.3646
G01 X46.3253 Y11.1677
G01 X46.4105 Y10.9774
G01 X46.5119 Y10.7952
G01 X46.6287 Y10.6225
G01 X46.7600 Y10.4605
G01 X46.9048 Y10.3106
G01 X47.0622 Y10.1737
G01 X47.2307 Y10.0511
G01 X47.4093 Y9.9435
G01 X47.5966 Y9.8517
G01 X47.7911 Y9.7766
G01 X47.9450 Y9.7336
G01 X48.1017 Y9.7022
G01 X48.2604 Y9.6827
G01 X48.4200 Y9.6750
G01 X49.7500
G01 X49.9300 Y9.6815
G01 X50.1084 Y9.7065
G01 X50.2832 Y9.7497
G01 X50.4527 Y9.8108
G01 X51.0802 Y10.1730
G01 X51.1136 Y10.1947
G01 X51.1447 Y10.2194
G01 X51.1733 Y10.2470
G01 X51.1991 Y10.2773
G01 X51.3489 Y10.4225
G01 X51.4855 Y10.5802
G01 X51.6078 Y10.7491
G01 X51.7151 Y10.9280
G01 X51.8064 Y11.1156
G01 X51.8810 Y11.3104
G01 X51.9385 Y11.5109
G01 X51.9783 Y11.7157
G01 X52.0001 Y11.9232
G01 X52.0039 Y12.1317
G01 X51.9895 Y12.3398
G01 X51.9571 Y12.5459
G01 X51.9107 Y12.7528
G01 X51.8440 Y12.9541
G01 X51.7577 Y13.1478
G01 X51.6527 Y13.3321
G01 X51.4750 Y13.5445
G01 Y14.4677
G01 X51.4981 Y14.6253
G01 X51.4966 Y14.7846
G01 X51.4705 Y14.9417
G01 X51.4204 Y15.0930
G01 X51.3798 Y15.3000
G01 X51.3122 Y15.4999
G01 X51.2189 Y15.6892
G01 X51.1016 Y15.8645
G01 X51.0305 Y16.0069
G01 X50.9382 Y16.1365
G01 X50.8267 Y16.2501
G01 X50.6989 Y16.3450
G01 X46.8480 Y20.1962
G01 X46.7530 Y20.3236
G01 X46.6396 Y20.4349
G01 X46.5106 Y20.5276
G01 X46.3689 Y20.5995
G01 X46.1933 Y20.7169
G01 X46.0040 Y20.8104
G01 X45.8041 Y20.8785
G01 X45.5970 Y20.9200
G01 X45.4461 Y20.9701
G01 X45.2893 Y20.9963
G01 X45.1304 Y20.9980
G01 X44.9731 Y20.9752
G01 X39.5687 Y20.9750
G01 X37.9750 Y22.5691
G01 Y28.0809
G01 X40.0687 Y30.1750
G01 X48.9308
G01 X48.9939 Y30.1310
G01 X49.0609 Y30.0932
G01 X49.1312 Y30.0620
G01 X49.2042 Y30.0377
G01 X50.0055 Y29.8959
G01 X50.0452 Y29.8909
G01 X50.2986 Y29.9054
G01 X50.5499 Y29.9406
G01 X50.7975 Y29.9962
G01 X51.0398 Y30.0719
G01 X51.2192 Y30.1750
G01 X54.4308
G01 X54.4939 Y30.1310
G01 X54.5609 Y30.0932
G01 X54.6312 Y30.0620
G01 X54.7042 Y30.0377
G01 X55.5055 Y29.8959
G01 X55.5452 Y29.8909
G01 X55.7986 Y29.9054
G01 X56.0499 Y29.9406
G01 X56.2975 Y29.9962
G01 X56.5398 Y30.0719
G01 X56.7192 Y30.1750
G01 X58.6750
G01 Y28.2399
G01 X58.6010 Y28.0673
G01 X58.5353 Y27.8913
G01 X58.4781 Y27.7124
G01 X58.4294 Y27.5310
G01 X58.4255 Y27.4912
G01 X58.4250 Y27.4518
G01 Y26.6782
G01 X58.4270 Y26.6383
G01 X58.4791 Y26.4103
G01 X58.5482 Y26.1870
G01 X58.6338 Y25.9694
G01 X58.7356 Y25.7589
G01 X58.8747 Y25.5468
G01 X59.0308 Y25.3468
G01 X59.2026 Y25.1602
G01 X59.3892 Y24.9883
G01 X59.5700 Y24.8750
G01 X59.7535 Y24.7664
G01 X59.9397 Y24.6623
G01 X60.1285 Y24.5631
G01 X60.3716 Y24.4900
G01 X60.6198 Y24.4371
G01 X60.8715 Y24.4047
G01 X61.1250 Y24.3929
G01 X61.3593 Y24.4034
G01 X61.5913 Y24.4369
G01 X61.8189 Y24.4933
G01 X62.0398 Y24.5719
G01 X62.7441 Y24.9781
G01 X62.7776 Y24.9998
G01 X62.9623 Y25.1737
G01 X63.1321 Y25.3621
G01 X63.2859 Y25.5638
G01 X63.4227 Y25.7774
G01 X63.5028 Y25.9752
G01 X63.5779 Y26.1749
G01 X63.6479 Y26.3765
G01 X63.7127 Y26.5798
G01 X63.7424 Y26.8317
G01 X63.7514 Y27.0851
G01 X63.7396 Y27.3385
G01 X63.7071 Y27.5900
G01 X63.4783 Y28.2213
G01 X63.4750 Y28.2399
G01 Y31.4101
G01 X63.5401 Y31.5755
G01 X63.6014 Y31.7423
G01 X63.6590 Y31.9104
G01 X63.7127 Y32.0798
G01 X63.7424 Y32.3317
G01 X63.7514 Y32.5851
G01 X63.7396 Y32.8385
G01 X63.7071 Y33.0900
G01 X63.6416 Y33.2930
G01 X63.5709 Y33.4942
G01 X63.4952 Y33.6936
G01 X63.4144 Y33.8911
G01 X63.2753 Y34.1032
G01 X63.1192 Y34.3032
G01 X62.9474 Y34.4898
G01 X62.7608 Y34.6617
G01 X62.5800 Y34.7750
G01 X62.3965 Y34.8836
G01 X62.2103 Y34.9877
G01 X62.0215 Y35.0869
G01 X61.7784 Y35.1600
G01 X61.5302 Y35.2129
G01 X61.2785 Y35.2453
G01 X61.0250 Y35.2571
G01 X60.7907 Y35.2466
G01 X60.5587 Y35.2131
G01 X60.3311 Y35.1567
G01 X60.1102 Y35.0781
G01 X59.9308 Y34.9750
G01 X56.7192
G01 X56.6561 Y35.0190
G01 X56.5891 Y35.0568
G01 X56.5188 Y35.0880
G01 X56.4458 Y35.1123
G01 X55.6445 Y35.2541
G01 X55.6048 Y35.2591
G01 X55.3514 Y35.2446
G01 X55.1001 Y35.2094
G01 X54.8525 Y35.1538
G01 X54.6102 Y35.0781
G01 X54.4308 Y34.9750
G01 X51.2192
G01 X51.1561 Y35.0190
G01 X51.0891 Y35.0568
G01 X51.0188 Y35.0880
G01 X50.9458 Y35.1123
G01 X50.1445 Y35.2541
G01 X50.1048 Y35.2591
G01 X49.8514 Y35.2446
G01 X49.6001 Y35.2094
G01 X49.3525 Y35.1538
G01 X49.1102 Y35.0781
G01 X48.9308 Y34.9750
G01 X39.1820
G01 X39.0247 Y34.9981
G01 X38.8657 Y34.9967
G01 X38.7088 Y34.9708
G01 X38.5578 Y34.9210
G01 X38.3510 Y34.8801
G01 X38.1512 Y34.8126
G01 X37.9620 Y34.7196
G01 X37.7864 Y34.6028
G01 X37.6444 Y34.5312
G01 X37.5150 Y34.4388
G01 X37.4012 Y34.3276
G01 X37.3058 Y34.2004
G01 X33.9543 Y30.8480
G01 X33.8261 Y30.7531
G01 X33.7143 Y30.6394
G01 X33.6215 Y30.5097
G01 X33.5501 Y30.3672
G01 X33.4327 Y30.1923
G01 X33.3393 Y30.0035
G01 X33.2715 Y29.8040
G01 X33.2305 Y29.5973
G01 X33.2026 Y29.5196
G01 X33.1802 Y29.4400
G01 X33.1636 Y29.3591
G01 X33.1528 Y29.2772
G01 X33.0729 Y29.2750
G00 Z1.0000 F500
G00 X38.4647 Y26.4750 F3000
G00 Z0.5000 F500
G01 Z-0.3000 F120
G01 Y26.2818
G01 X38.3777 Y26.0890
G01 X38.3010 Y25.8919
G01 X38.2349 Y25.6911
G01 X38.1794 Y25.4870
G01 X38.1755 Y25.4472
G01 X38.1750 Y25.4077
G01 Y24.7223
G01 X38.1771 Y24.6825
G01 X38.1829 Y24.6431
G01 X38.1926 Y24.6044
G01 X38.2059 Y24.5668
G01 X38.2570 Y24.3646
G01 X38.3253 Y24.1677
G01 X38.4105 Y23.9774
G01 X38.5119 Y23.7952
G01 X38.6287 Y23.6225
G01 X38.7600 Y23.4605
G01 X38.9048 Y23.3106
G01 X39.0622 Y23.1737
G01 X39.2307 Y23.0511
G01 X39.4093 Y22.9435
G01 X39.5966 Y22.8517
G01 X39.7911 Y22.7766
G01 X39.9450 Y22.7336
G01 X40.1017 Y22.7022
G01 X40.2604 Y22.6827
G01 X40.4200 Y22.6750
G01 X46.0813
G01 X55.3020 Y13.4538
G01 X55.3970 Y13.3264
G01 X55.5104 Y13.2151
G01 X55.6394 Y13.1224
G01 X55.7811 Y13.0505
G01 X55.9567 Y12.9331
G01 X56.1460 Y12.8396
G01 X56.3459 Y12.7715
G01 X56.5530 Y12.7300
G01 X56.7039 Y12.6799
G01 X56.8607 Y12.6537
G01 X57.0196 Y12.6520
G01 X57.1769 Y12.6748
G01 X59.1750 Y12.6750
G01 Y10.7399
G01 X59.1010 Y10.5673
G01 X59.0353 Y10.3913
G01 X58.9781 Y10.2124
G01 X58.9294 Y10.0310
G01 X58.9255 Y9.9912
G01 X58.9250 Y9.9518
G01 Y9.1782
G01 X58.9270 Y9.1383
G01 X58.9693 Y8.9500
G01 X59.0249 Y8.7653
G01 X59.0936 Y8.5850
G01 X59.1750 Y8.4101
G01 Y6.4750
G01 X57.2192
G01 X57.1527 Y6.5216
G01 X57.0815 Y6.5609
G01 X57.0066 Y6.5924
G01 X56.9287 Y6.6158
G01 X55.8479 Y7.6963
G01 X55.7530 Y7.8236
G01 X55.6396 Y7.9349
G01 X55.5106 Y8.0276
G01 X55.3689 Y8.0995
G01 X55.1933 Y8.2169
G01 X55.0040 Y8.3104
G01 X54.8041 Y8.3785
G01 X54.5970 Y8.4200
G01 X54.4461 Y8.4701
G01 X54.2893 Y8.4963
G01 X54.1304 Y8.4980
G01 X53.9731 Y8.4752
G01 X48.4000 Y8.4750
G01 X48.2200 Y8.4685
G01 X48.0416 Y8.4435
G01 X47.8668 Y8.4003
G01 X47.6973 Y8.3392
G01 X47.0698 Y7.9770
G01 X47.0364 Y7.9553
G01 X47.0053 Y7.9306
G01 X46.9767 Y7.9030
G01 X46.9509 Y7.8727
G01 X46.7974 Y7.7266
G01 X46.6580 Y7.5669
G01 X46.5339 Y7.3951
G01 X46.4262 Y7.2126
G01 X46.3358 Y7.0210
G01 X46.2634 Y6.8218
G01 X46.2096 Y6.6168
G01 X46.1750 Y6.4077
G01 Y5.7223
G01 X46.1770 Y5.6824
G01 X46.1812 Y5.6528
G01 X46.1875 Y5.6236
G01 X46.1957 Y5.5949
G01 X46.2059 Y5.5668
G01 X46.2877 Y5.2758
G01 X46.4049 Y4.9971
G01 X46.5556 Y4.7350
G01 X46.7375 Y4.4935
G01 X46.9478 Y4.2764
G01 X47.1834 Y4.0869
G01 X47.4405 Y3.9280
G01 X47.7154 Y3.8021
G01 X47.8881 Y3.7536
G01 X48.0637 Y3.7162
G01 X48.2412 Y3.6900
G01 X48.4200 Y3.6750
G01 X53.0812
G01 X53.5825 Y3.1732
G01 X53.7202 Y2.7954
G01 X53.7357 Y2.7586
G01 X53.8748 Y2.5465
G01 X54.0308 Y2.3464
G01 X54.2026 Y2.1598
G01 X54.3891 Y1.9879
G01 X54.5699 Y1.8748
G01 X54.7536 Y1.7662
G01 X54.9399 Y1.6624
G01 X55.1288 Y1.5632
G01 X55.3718 Y1.4902
G01 X55.6199 Y1.4373
G01 X55.8716 Y1.4049
G01 X56.1250 Y1.3931
G01 X56.3592 Y1.4036
G01 X56.5913 Y1.4372
G01 X56.8189 Y1.4936
G01 X57.0398 Y1.5722
G01 X57.2190 Y1.6750
G01 X60.4310
G01 X60.4941 Y1.6311
G01 X60.5612 Y1.5933
G01 X60.6315 Y1.5622
G01 X60.7046 Y1.5379
G01 X61.5055 Y1.3961
G01 X61.5452 Y1.3911
G01 X61.7986 Y1.4056
G01 X62.0499 Y1.4408
G01 X62.2976 Y1.4965
G01 X62.5398 Y1.5722
G01 X62.7561 Y1.6619
G01 X62.9624 Y1.7724
G01 X63.1567 Y1.9029
G01 X63.3372 Y2.0520
G01 X63.8605 Y2.6754
G01 X63.8847 Y2.7073
G01 X63.9986 Y2.9339
G01 X64.0937 Y3.1691
G01 X64.1691 Y3.4113
G01 X64.2245 Y3.6588
G01 X64.2250 Y4.4718
G01 X64.1839 Y4.6702
G01 X64.1283 Y4.8651
G01 X64.0586 Y5.0553
G01 X63.9750 Y5.2399
G01 Y8.4101
G01 X64.0401 Y8.5755
G01 X64.1014 Y8.7423
G01 X64.1590 Y8.9104
G01 X64.2127 Y9.0798
G01 X64.2424 Y9.3317
G01 X64.2514 Y9.5851
G01 X64.2396 Y9.8385
G01 X64.2071 Y10.0900
G01 X64.1281 Y10.2443
G01 X64.0628 Y10.4049
G01 X64.0116 Y10.5705
G01 X63.9750 Y10.7399
G01 Y13.9101
G01 X64.0401 Y14.0755
G01 X64.1014 Y14.2423
G01 X64.1590 Y14.4104
G01 X64.2127 Y14.5798
G01 X64.2424 Y14.8317
G01 X64.2514 Y15.0851
G01 X64.2396 Y15.3385
G01 X64.2071 Y15.5900
G01 X64.1563 Y15.8187
G01 X64.0832 Y16.0412
G01 X63.9883 Y16.2554
G01 X63.8728 Y16.4592
G01 X63.3504 Y17.0826
G01 X63.3232 Y17.1119
G01 X63.1200 Y17.2636
G01 X62.9050 Y17.3981
G01 X62.6798 Y17.5146
G01 X62.4458 Y17.6123
G01 X62.2221 Y17.6826
G01 X61.9926 Y17.7305
G01 X61.7594 Y17.7554
G01 X61.5250 Y17.7571
G01 X60.7235 Y17.6162
G01 X60.6447 Y17.5939
G01 X60.5690 Y17.5626
G01 X60.4973 Y17.5228
G01 X60.4308 Y17.4750
G01 X58.0687
G01 X48.8480 Y26.6962
G01 X48.7530 Y26.8236
G01 X48.6396 Y26.9349
G01 X48.5106 Y27.0276
G01 X48.3689 Y27.0995
G01 X48.1933 Y27.2169
G01 X48.0040 Y27.3104
G01 X47.8041 Y27.3785
G01 X47.5970 Y27.4200
G01 X47.4461 Y27.4701
G01 X47.2893 Y27.4963
G01 X47.1304 Y27.4980
G01 X46.9731 Y27.4752
G01 X40.4000 Y27.4750
G01 X40.2200 Y27.4685
G01 X40.0416 Y27.4435
G01 X39.8668 Y27.4003
G01 X39.6973 Y27.3392
G01 X39.0698 Y26.9770
G01 X39.0362 Y26.9553
G01 X38.8790 Y26.7995
G01 X38.7311 Y26.6350
G01 X38.5928 Y26.4622
G01 X38.4647 Y26.2818
G01 Y26.4750
G00 Z1.0000 F500


;No. 2: Drill 6
G00 X3.5750 Y4.0750 Z1.0000 F3000
G00 Z0.5000 F500
G01 Z-1.2000 F120
G00 Z0.5000 F500
G00 Z-0.7000
G01 Z-1.7000 F120
G00 Z1.0000 F500


;No. 3: Drill 5
G00 X3.5750 Y14.0750 Z1.0000 F3000
G00 Z0.5000 F500
G01 Z-1.2000 F120
G00 Z0.5000 F500
G00 Z-0.7000
G01 Z-1.7000 F120
G00 Z1.0000 F500


;No. 4: Drill 4
G00 X3.5750 Y21.9150 Z1.0000 F3000
G00 Z0.5000 F500
G01 Z-1.2000 F120
G00 Z0.5000 F500
G00 Z-0.7000
G01 Z-1.7000 F120
G00 Z1.0000 F500


;No. 5: Drill 3
G00 X9.0750 Y25.0750 Z1.0000 F3000
G00 Z0.5000 F500
G01 Z-1.2000 F120
G00 Z0.5000 F500
G00 Z-0.7000
G01 Z-1.7000 F120
G00 Z1.0000 F500


;No. 6: Drill 2
G00 X9.0750 Y31.0750 Z1.0000 F3000
G00 Z0.5000 F500
G01 Z-1.2000 F120
G00 Z0.5000 F500
G00 Z-0.7000
G01 Z-1.7000 F120
G00 Z1.0000 F500


;No. 7: Drill 1
G00 X3.5750 Y32.0750 Z1.0000 F3000
G00 Z0.5000 F500
G01 Z-1.2000 F120
G00 Z0.5000 F500
G00 Z-0.7000
G01 Z-1.7000 F120
G00 Z1.0000 F500


;No. 8: Drill 10
G00 X15.0750 Y31.0750 Z1.0000 F3000
G00 Z0.5000 F500
G01 Z-1.2000 F120
G00 Z0.5000 F500
G00 Z-0.7000
G01 Z-1.7000 F120
G00 Z1.0000 F500


;No. 9: Drill 9
G00 X15.0750 Y25.0750 Z1.0000 F3000
G00 Z0.5000 F500
G01 Z-1.2000 F120
G00 Z0.5000 F500
G00 Z-0.7000
G01 Z-1.7000 F120
G00 Z1.0000 F500


;No. 10: Drill 8
G00 X16.5750 Y18.5750 Z1.0000 F3000
G00 Z0.5000 F500
G01 Z-1.2000 F120
G00 Z0.5000 F500
G00 Z-0.7000
G01 Z-1.7000 F120
G00 Z1.0000 F500


;No. 11: Drill 11
G00 X23.5750 Y26.0750 Z1.0000 F3000
G00 Z0.5000 F500
G01 Z-1.2000 F120
G00 Z0.5000 F500
G00 Z-0.7000
G01 Z-1.7000 F120
G00 Z1.0000 F500


;No. 12: Drill 12
G00 X23.5750 Y29.5750 Z1.0000 F3000
G00 Z0.5000 F500
G01 Z-1.2000 F120
G00 Z0.5000 F500
G00 Z-0.7000
G01 Z-1.7000 F120
G00 Z1.0000 F500


;No. 13: Drill 13
G00 X27.5750 Y18.5750 Z1.0000 F3000
G00 Z0.5000 F500
G01 Z-1.2000 F120
G00 Z0.5000 F500
G00 Z-0.7000
G01 Z-1.7000 F120
G00 Z1.0000 F500


;No. 14: Drill 25
G00 X35.5750 Y25.0750 Z1.0000 F3000
G00 Z0.5000 F500
G01 Z-1.2000 F120
G00 Z0.5000 F500
G00 Z-0.7000
G01 Z-1.7000 F120
G00 Z1.0000 F500


;No. 15: Drill 26
G00 X40.5750 Y25.0750 Z1.0000 F3000
G00 Z0.5000 F500
G01 Z-1.2000 F120
G00 Z0.5000 F500
G00 Z-0.7000
G01 Z-1.7000 F120
G00 Z1.0000 F500


;No. 16: Drill 27
G00 X50.0750 Y32.5750 Z1.0000 F3000
G00 Z0.5000 F500
G01 Z-1.2000 F120
G00 Z0.5000 F500
G00 Z-0.7000
G01 Z-1.7000 F120
G00 Z1.0000 F500


;No. 17: Drill 28
G00 X55.5750 Y32.5750 Z1.0000 F3000
G00 Z0.5000 F500
G01 Z-1.2000 F120
G00 Z0.5000 F500
G00 Z-0.7000
G01 Z-1.7000 F120
G00 Z1.0000 F500


;No. 18: Drill 29
G00 X61.0750 Y32.5750 Z1.0000 F3000
G00 Z0.5000 F500
G01 Z-1.2000 F120
G00 Z0.5000 F500
G00 Z-0.7000
G01 Z-1.7000 F120
G00 Z1.0000 F500


;No. 19: Drill 30
G00 X61.0750 Y27.0750 Z1.0000 F3000
G00 Z0.5000 F500
G01 Z-1.2000 F120
G00 Z0.5000 F500
G00 Z-0.7000
G01 Z-1.7000 F120
G00 Z1.0000 F500


;No. 20: Drill 23
G00 X61.5750 Y15.0750 Z1.0000 F3000
G00 Z0.5000 F500
G01 Z-1.2000 F120
G00 Z0.5000 F500
G00 Z-0.7000
G01 Z-1.7000 F120
G00 Z1.0000 F500


;No. 21: Drill 22
G00 X61.5750 Y9.5750 Z1.0000 F3000
G00 Z0.5000 F500
G01 Z-1.2000 F120
G00 Z0.5000 F500
G00 Z-0.7000
G01 Z-1.7000 F120
G00 Z1.0000 F500


;No. 22: Drill 21
G00 X61.5750 Y4.0750 Z1.0000 F3000
G00 Z0.5000 F500
G01 Z-1.2000 F120
G00 Z0.5000 F500
G00 Z-0.7000
G01 Z-1.7000 F120
G00 Z1.0000 F500


;No. 23: Drill 20
G00 X56.0750 Y4.0750 Z1.0000 F3000
G00 Z0.5000 F500
G01 Z-1.2000 F120
G00 Z0.5000 F500
G00 Z-0.7000
G01 Z-1.7000 F120
G00 Z1.0000 F500


;No. 24: Drill 19
G00 X49.0750 Y6.0750 Z1.0000 F3000
G00 Z0.5000 F500
G01 Z-1.2000 F120
G00 Z0.5000 F500
G00 Z-0.7000
G01 Z-1.7000 F120
G00 Z1.0000 F500


;No. 25: Drill 18
G00 X43.0750 Y6.0750 Z1.0000 F3000
G00 Z0.5000 F500
G01 Z-1.2000 F120
G00 Z0.5000 F500
G00 Z-0.7000
G01 Z-1.7000 F120
G00 Z1.0000 F500


;No. 26: Drill 17
G00 X43.0750 Y12.0750 Z1.0000 F3000
G00 Z0.5000 F500
G01 Z-1.2000 F120
G00 Z0.5000 F500
G00 Z-0.7000
G01 Z-1.7000 F120
G00 Z1.0000 F500


;No. 27: Drill 24
G00 X49.0750 Y12.0750 Z1.0000 F3000
G00 Z0.5000 F500
G01 Z-1.2000 F120
G00 Z0.5000 F500
G00 Z-0.7000
G01 Z-1.7000 F120
G00 Z1.0000 F500


;No. 28: Drill 16
G00 X36.0750 Y8.0750 Z1.0000 F3000
G00 Z0.5000 F500
G01 Z-1.2000 F120
G00 Z0.5000 F500
G00 Z-0.7000
G01 Z-1.7000 F120
G00 Z1.0000 F500


;No. 29: Drill 15
G00 X36.0750 Y4.5750 Z1.0000 F3000
G00 Z0.5000 F500
G01 Z-1.2000 F120
G00 Z0.5000 F500
G00 Z-0.7000
G01 Z-1.7000 F120
G00 Z1.0000 F500


;No. 30: Drill 14
G00 X27.5750 Y3.5750 Z1.0000 F3000
G00 Z0.5000 F500
G01 Z-1.2000 F120
G00 Z0.5000 F500
G00 Z-0.7000
G01 Z-1.7000 F120
G00 Z1.0000 F500


;No. 31: Drill 7
G00 X16.5750 Y3.5750 Z1.0000 F3000
G00 Z0.5000 F500
G01 Z-1.2000 F120
G00 Z0.5000 F500
G00 Z-0.7000
G01 Z-1.7000 F120
G00 Z1.0000 F500
G00 X0.0000 Y0.0000 F3000

M05
